isri-aist/RoboManipBaselines/robo_manip_baselines/rollout_debug_log_expanded.csv
step_idx,obs_0,obs_1,obs_2,obs_3,obs_4,obs_5,obs_6,obs_7,obs_8,obs_9,obs_10,obs_11,obs_12,obs_13,obs_14,obs_15,obs_16,obs_17,obs_18,obs_19,obs_20,obs_21,obs_22,obs_23,obs_24,direct_joint_command_0,direct_joint_command_1,direct_joint_command_2,direct_joint_command_3,direct_joint_command_4,direct_joint_command_5,direct_joint_command_6,direct_joint_command_7
0,-1.917476083690417e-06,-0.5236051678657532,0.0,0.7853924036026001,-1.917476083690417e-06,1.3089956045150757,1.917476083690417e-06,0.46799999475479126,-4.064519096437486e-16,2.5059319396170338e-15,2.1842801246827186e-16,-3.806478979385936e-16,7.750728926433968e-16,-3.806478979385936e-16,-1.8532113084607404e-17,-0.0,0.28691497445106506,-0.15421970188617706,-0.09068369120359421,0.12440555542707443,-0.9922166466712952,-0.005414496175944805,-0.9912611842155457,-0.12404079735279083,-0.044889532029628754,-0.020001916214823723,-0.5036051869392395,-0.019999999552965164,0.7653924226760864,-0.01598794385790825,1.2972018718719482,0.00736322533339262,387.45709228515625
1,-0.0002972087822854519,-0.5231162309646606,-0.0006020874716341496,0.7848440408706665,-0.0005234709242358804,1.308610200881958,0.0001975000195670873,0.3779999911785126,-0.004218447022140026,0.006985091138631105,-0.008601249195635319,-0.007834259420633316,-0.00745076360180974,-0.005505895242094994,0.0027940364088863134,-0.0,0.28691497445106506,-0.15421970188617706,-0.09068369120359421,0.12440555542707443,-0.9922166466712952,-0.005414496175944805,-0.9912611842155457,-0.12404079735279083,-0.044889532029628754,-0.020297208800911903,-0.503116250038147,-0.020602086558938026,0.7648440599441528,-0.017154766246676445,1.2953885793685913,0.0070281848311424255,473.8780517578125
2,-0.01740301214158535,-0.5060679316520691,-0.017842113971710205,0.7676653265953064,-0.013740632683038712,1.299116849899292,0.0062490543350577354,0.42899999022483826,-0.20363594591617584,0.2001023143529892,-0.20015710592269897,-0.2003762423992157,-0.14909745752811432,-0.10400937497615814,0.0664268434047699,-0.0,0.28591495752334595,-0.15321922302246094,-0.09222552925348282,0.12317408621311188,-0.9923524856567383,-0.008041398599743843,-0.9915077090263367,-0.12272049486637115,-0.04303578659892082,-0.037403009831905365,-0.48606792092323303,-0.03784211352467537,0.7476653456687927,-0.033740632236003876,1.2791168689727783,0.016890626400709152,421.646484375
3,-0.019266799092292786,-0.5041274428367615,-0.019738497212529182,0.7659491896629333,-0.016323473304510117,1.2962061166763306,0.007177112624049187,0.4050000011920929,-0.08990222960710526,0.08782040327787399,-0.08831346780061722,-0.08089009672403336,-0.07658947259187698,-0.06686512380838394,0.02878953143954277,-0.0,0.28583142161369324,-0.1531277745962143,-0.09235827624797821,0.12331308424472809,-0.9923111200332642,-0.010605702176690102,-0.9915189146995544,-0.12275861203670502,-0.042667925357818604,-0.03926679864525795,-0.4841274321079254,-0.039738498628139496,0.7459492087364197,-0.03610362485051155,1.2774710655212402,0.015855496749281883,446.94635009765625
4,-0.02642473578453064,-0.49660518765449524,-0.027308693155646324,0.7579073309898376,-0.024031726643443108,1.2884825468063354,0.011368715204298496,0.41600000858306885,-0.1181987002491951,0.1263616681098938,-0.12570424377918243,-0.13320979475975037,-0.1382226198911667,-0.1432628482580185,0.07048093527555466,-0.0,0.28499269485473633,-0.15172798931598663,-0.09350411593914032,0.12477107346057892,-0.9921538233757019,-0.007933048531413078,-0.9915482401847839,-0.12440040707588196,-0.03683243691921234,-0.046424735337495804,-0.4766051769256592,-0.04730869084596634,0.737907350063324,-0.04403172433376312,1.2684825658798218,0.020884037017822266,436.299072265625
5,-0.03412340208888054,-0.4892209768295288,-0.035107068717479706,0.7505499720573425,-0.030925052240490913,1.2823235988616943,0.014112623408436775,0.3959999978542328,-0.19566473364830017,0.1930898278951645,-0.2009240835905075,-0.19807526469230652,-0.18615952134132385,-0.17470945417881012,0.08675209432840347,-0.0,0.2842036485671997,-0.15152139961719513,-0.09483933448791504,0.1252661496400833,-0.9921082854270935,-0.00542970048263669,-0.9915309548377991,-0.12500043213367462,-0.035230837762355804,-0.0541234016418457,-0.46922096610069275,-0.05510706827044487,0.7305499911308289,-0.05092505365610123,1.2623236179351807,0.024306638166308403,454.4361267089844
6,-0.041028235107660294,-0.48194417357444763,-0.042111609131097794,0.7433383464813232,-0.03867165744304657,1.2739768028259277,0.01814315840601921,0.4009999930858612,-0.1640263795852661,0.16682040691375732,-0.16616299748420715,-0.16413594782352448,-0.17018969357013702,-0.17314808070659637,0.08039703220129013,-0.0,0.28643977642059326,-0.15450534224510193,-0.09176509082317352,0.1230083703994751,-0.9923995733261108,0.003460312495008111,-0.9915058612823486,-0.12304454296827316,-0.04214435815811157,-0.06102823466062546,-0.4619441628456116,-0.06211160868406296,0.7233383655548096,-0.058671656996011734,1.253976821899414,0.028017815202474594,450.20989990234375
7,-0.04793498292565346,-0.4749568700790405,-0.04925995692610741,0.7361132502555847,-0.045474860817193985,1.2675398588180542,0.021506410092115402,0.3869999945163727,-0.16271153092384338,0.16947747766971588,-0.16761478781700134,-0.1736137568950653,-0.17161409556865692,-0.17202499508857727,0.08773822337388992,-0.0,0.2860192656517029,-0.15248896181583405,-0.09160865098237991,0.12260664254426956,-0.9924113154411316,-0.009347752667963505,-0.9916871786117554,-0.12213579565286636,-0.04048977419734001,-0.06793498247861862,-0.45495685935020447,-0.06925995647907257,0.716113269329071,-0.06547486037015915,1.2475398778915405,0.03126210719347,463.65869140625
8,-0.05479954555630684,-0.46823421120643616,-0.0562434047460556,0.7293503284454346,-0.0526002012193203,1.26029372215271,0.024967454373836517,0.3869999945163727,-0.17369593679904938,0.17062796652317047,-0.17764045298099518,-0.1738876849412918,-0.1747642457485199,-0.17183324694633484,0.08519072085618973,-0.0,0.2853908836841583,-0.15290983021259308,-0.09324079751968384,0.12283668667078018,-0.9924124479293823,-0.005359019618481398,-0.9915876984596252,-0.12250901013612747,-0.041777353733778,-0.074799545109272,-0.4482342004776001,-0.07624340057373047,0.7093503475189209,-0.07260020077228546,1.2402937412261963,0.03467793017625809,463.61444091796875
9,-0.06165260449051857,-0.46104368567466736,-0.06328245997428894,0.722108006477356,-0.05957981199026108,1.2533466815948486,0.02838439680635929,0.37700000405311584,-0.17071014642715454,0.17454509437084198,-0.1744629293680191,-0.17544905841350555,-0.176435187458992,-0.17780481278896332,0.08590292185544968,-0.0,0.2860536575317383,-0.15327461063861847,-0.0919896811246872,0.1237436830997467,-0.992268979549408,-0.009473983198404312,-0.9913490414619446,-0.12319669872522354,-0.045273419469594955,-0.08165260404348373,-0.4410436749458313,-0.0832824558019638,0.7021080255508423,-0.07957981526851654,1.233346700668335,0.037975065410137177,473.27178955078125
10,-0.06858236342668533,-0.45417144894599915,-0.07031384110450745,0.7152032256126404,-0.06658627092838287,1.24629807472229,0.03172463923692703,0.37400001287460327,-0.17268240451812744,0.17583255469799042,-0.1764625757932663,-0.17725695669651031,-0.1744903177022934,-0.17468206584453583,0.08434154838323593,-0.0,0.2861490845680237,-0.15300017595291138,-0.09189090877771378,0.12186872959136963,-0.9925053119659424,-0.009014229290187359,-0.9917763471603394,-0.12141153961420059,-0.040483586490154266,-0.0885823667049408,-0.4341714382171631,-0.09031383693218231,0.6952032446861267,-0.08658626675605774,1.2262980937957764,0.041229248046875,476.1188659667969
11,-0.07534722238779068,-0.44723784923553467,-0.07720717042684555,0.7081948518753052,-0.07357355207204819,1.2392723560333252,0.03508405759930611,0.3709999918937683,-0.17076493799686432,0.17183324694633484,-0.1733672171831131,-0.17320287227630615,-0.1750107705593109,-0.17624343931674957,0.08368413150310516,-0.0,0.28524670004844666,-0.15280742943286896,-0.09320350736379623,0.12151618301868439,-0.9925438165664673,-0.0095141576603055,-0.9917521476745605,-0.12101447582244873,-0.042227908968925476,-0.09534722566604614,-0.4272378385066986,-0.09720717370510101,0.6881948709487915,-0.09357355535030365,1.2192723751068115,0.044411562383174896,479.12677001953125
12,-0.08322420716285706,-0.43937426805496216,-0.08526057004928589,0.7002066373825073,-0.08154450356960297,1.2313742637634277,0.038803961127996445,0.367000013589859,-0.17312069237232208,0.17525731027126312,-0.17709259688854218,-0.1776130646467209,-0.17610646784305573,-0.17522990703582764,0.0829993188381195,-0.0,0.28541481494903564,-0.15268118679523468,-0.09297909587621689,0.122083380818367,-0.9924656748771667,-0.010371359065175056,-0.9917157888412476,-0.12155728787183762,-0.04151660203933716,-0.10322420299053192,-0.4193742573261261,-0.10526056587696075,0.6802066564559937,-0.10154449939727783,1.211374282836914,0.04804626852273941,482.87847900390625
13,-0.08994688093662262,-0.43253082036972046,-0.09209637343883514,0.693309485912323,-0.08848193287849426,1.2243372201919556,0.04205216467380524,0.36399999260902405,-0.17125800251960754,0.1722715198993683,-0.17429856956005096,-0.17407943308353424,-0.1750381588935852,-0.17594212293624878,0.08212275803089142,-0.0,0.2859976589679718,-0.15347908437252045,-0.0921250581741333,0.12123919278383255,-0.9925973415374756,-0.007181439083069563,-0.991715669631958,-0.12081585079431534,-0.043629083782434464,-0.10994687676429749,-0.4125308096408844,-0.11209636926651001,0.6733095049858093,-0.10848192870616913,1.204337239265442,0.051159948110580444,485.7558288574219
14,-0.09689197689294815,-0.4254821538925171,-0.099116250872612,0.6861457824707031,-0.09551715105772018,1.2173192501068115,0.045313794165849686,0.3619999885559082,-0.17087450623512268,0.17432595789432526,-0.17323026061058044,-0.1761886477470398,-0.1747642457485199,-0.17547644674777985,0.08119141310453415,-0.0,0.28611379861831665,-0.15314608812332153,-0.09187505394220352,0.1211676225066185,-0.9926000237464905,-0.007972628809511662,-0.9917858839035034,-0.12072887271642685,-0.042252104729413986,-0.11689198017120361,-0.40548214316368103,-0.11911624670028687,0.667041540145874,-0.11551715433597565,1.1973192691802979,0.054326750338077545,487.6119384765625
15,-0.10463283210992813,-0.41779884696006775,-0.10705843567848206,0.6784394383430481,-0.10340756177902222,1.2094249725341797,0.048872627317905426,0.3580000102519989,-0.17301112413406372,0.1722715198993683,-0.17651736736297607,-0.17407943308353424,-0.17553122341632843,-0.17542165517807007,0.08012310415506363,-0.0,0.28567326068878174,-0.15305498242378235,-0.09251851588487625,0.12038113176822662,-0.9926642775535583,-0.011223329231142998,-0.9918374419212341,-0.11978679150342941,-0.04369897022843361,-0.1246328353881836,-0.3977988362312317,-0.12705843150615692,0.6606009602546692,-0.12340755760669708,1.189424991607666,0.05772159621119499,491.4071044921875
16,-0.11151273548603058,-0.41070035099983215,-0.11410515755414963,0.6718030571937561,-0.11056166887283325,1.2023015022277832,0.05204029753804207,0.35600000619888306,-0.17150452733039856,0.1744629293680191,-0.1758599430322647,-0.16750521957874298,-0.17766784131526947,-0.17717477679252625,0.07905479520559311,-0.0,0.2859657406806946,-0.15313319861888885,-0.09230698645114899,0.12134341895580292,-0.9925761222839355,-0.008268295787274837,-0.9918041229248047,-0.12090491503477097,-0.041310667991638184,-0.13151273131370544,-0.3907003402709961,-0.1341051608324051,0.6553818583488464,-0.13056166470050812,1.1823015213012695,0.06075698509812355,493.33355712890625
17,-0.11885474622249603,-0.4034005105495453,-0.12156414240598679,0.6654178500175476,-0.11797846108675003,1.1948809623718262,0.05531534552574158,0.35199999809265137,-0.17879094183444977,0.18079058825969696,-0.18246152997016907,-0.16230064630508423,-0.18281763792037964,-0.18270806968212128,0.08080791682004929,-0.0,0.2870030105113983,-0.15409763157367706,-0.09049538522958755,0.12122197449207306,-0.9926119446754456,-0.0051681483164429665,-0.991558849811554,-0.12084878236055374,-0.04697487875819206,-0.1388547420501709,-0.38340049982070923,-0.14156414568424225,0.650557816028595,-0.1379784643650055,1.1748809814453125,0.06400519609451294,497.0106201171875
18,-0.12559659779071808,-0.39652636647224426,-0.12844787538051605,0.6598456501960754,-0.12479892373085022,1.1880221366882324,0.05828360095620155,0.3499999940395355,-0.17544905841350555,0.17629821598529816,-0.17818830907344818,-0.14770042896270752,-0.17692825198173523,-0.17750349640846252,0.07743863761425018,-0.0,0.2858787775039673,-0.1532035917043686,-0.09233088791370392,0.12298297882080078,-0.9923778176307678,-0.007841517217457294,-0.99153733253479,-0.12254010140895844,-0.042866986244916916,-0.14559659361839294,-0.3765263557434082,-0.14844787120819092,0.6465192437171936,-0.14479891955852509,1.1680221557617188,0.06670141220092773,499.04095458984375
19,-0.13243623077869415,-0.38967522978782654,-0.13533546030521393,0.654954195022583,-0.13187633454799652,1.1809121370315552,0.0613132119178772,0.34700000286102295,-0.1691213846206665,0.17128539085388184,-0.17153191566467285,-0.1286078542470932,-0.17358636856079102,-0.17440813779830933,0.07505548745393753,-0.0,0.2852485179901123,-0.15252256393432617,-0.09320488572120667,0.12180564552545547,-0.9924908876419067,-0.011191110126674175,-0.9918652772903442,-0.12129345536231995,-0.0386146679520607,-0.15243622660636902,-0.3696752190589905,-0.15501026809215546,0.6433970928192139,-0.1518763303756714,1.1609121561050415,0.0694299191236496,502.13360595703125
20,-0.13935640454292297,-0.3826572597026825,-0.14245696365833282,0.6503982543945312,-0.1389019638299942,1.173938274383545,0.0641951784491539,0.3449999988079071,-0.17265501618385315,0.17383289337158203,-0.17575037479400635,-0.1168016791343689,-0.17651736736297607,-0.17599689960479736,0.07352150976657867,-0.0,0.28666847944259644,-0.15394191443920135,-0.09113873541355133,0.1214585155248642,-0.9925786256790161,-0.005951569881290197,-0.9915675520896912,-0.12105748802423477,-0.04624798148870468,-0.15935640037059784,-0.36265724897384644,-0.16128681600093842,0.640632152557373,-0.15890195965766907,1.1539382934570312,0.07228332757949829,503.9156188964844
21,-0.146230548620224,-0.3757447600364685,-0.1492755115032196,0.6466208100318909,-0.14596977829933167,1.1668895483016968,0.06701195240020752,0.3409999907016754,-0.1725180596113205,0.17429856956005096,-0.1738876849412918,-0.10211928933858871,-0.17635300755500793,-0.175339475274086,0.07116574794054031,-0.0,0.2870227098464966,-0.15417633950710297,-0.09054479002952576,0.12109334766864777,-0.9926338791847229,-0.003792687552049756,-0.991653561592102,-0.12080159783363342,-0.045057348906993866,-0.16623054444789886,-0.35574474930763245,-0.1669759303331375,0.6385015845298767,-0.16596977412700653,1.146889567375183,0.07494617253541946,507.7689208984375
22,-0.1539081335067749,-0.3679521381855011,-0.15649288892745972,0.6430274844169617,-0.15375664830207825,1.1590585708618164,0.07017961889505386,0.3400000035762787,-0.17087450623512268,0.17232631146907806,-0.16339634358882904,-0.08371151983737946,-0.17416159808635712,-0.17495599389076233,0.0700700506567955,-0.0,0.28515827655792236,-0.15251381695270538,-0.09346543252468109,0.12435368448495865,-0.992192804813385,-0.009466207586228848,-0.9914933443069458,-0.12388518452644348,-0.039917249232530594,-0.1731444150209427,-0.34795212745666504,-0.17263825237751007,0.6365134119987488,-0.1737566441297531,1.1390585899353027,0.07780593633651733,508.9186096191406
23,-0.16055409610271454,-0.3612217903137207,-0.1622529774904251,0.6404983401298523,-0.16053108870983124,1.1522669792175293,0.07281998544931412,0.3370000123977661,-0.1680256873369217,0.17038144171237946,-0.1503027230501175,-0.06971395015716553,-0.17090189456939697,-0.1713675707578659,0.06807039678096771,-0.0,0.28639745712280273,-0.1534830778837204,-0.09146038442850113,0.12332426756620407,-0.9923340678215027,-0.008013952523469925,-0.991543173789978,-0.12288906425237656,-0.041718486696481705,-0.17834800481796265,-0.34122177958488464,-0.17694881558418274,0.6355841755867004,-0.1805310845375061,1.1322669982910156,0.08029910176992416,511.7979431152344
24,-0.16743016242980957,-0.3538050055503845,-0.16811278462409973,0.638343095779419,-0.16809362173080444,1.1447159051895142,0.07566168159246445,0.335999995470047,-0.1691487729549408,0.1778869926929474,-0.14504335820674896,-0.057058606296777725,-0.18079058825969696,-0.18100973963737488,0.06872782111167908,-0.0,0.2864138185977936,-0.1538059115409851,-0.09156457334756851,0.1203710213303566,-0.9926682114601135,-0.010983774438500404,-0.9918538928031921,-0.11979310214519501,-0.04330623522400856,-0.18407544493675232,-0.33380499482154846,-0.18165947496891022,0.6347458958625793,-0.1880936175584793,1.1247159242630005,0.0830836147069931,512.808349609375
25,-0.17339734733104706,-0.346902072429657,-0.1731097251176834,0.6366997957229614,-0.1750003695487976,1.1379146575927734,0.07820042222738266,0.3319999873638153,-0.1589861512184143,0.17876355350017548,-0.1339493989944458,-0.04629334807395935,-0.18027013540267944,-0.17829787731170654,0.06689251959323883,-0.0,0.286419153213501,-0.15354041755199432,-0.09140000492334366,0.12058480083942413,-0.9926750659942627,-0.007451435551047325,-0.9918408989906311,-0.12016391009092331,-0.04257103055715561,-0.1885051429271698,-0.3269020617008209,-0.18517589569091797,0.6342675685882568,-0.19472870230674744,1.1179146766662598,0.08539964258670807,516.753662109375
26,-0.17890051007270813,-0.34002411365509033,-0.17763496935367584,0.6357621550559998,-0.18205475807189941,1.130791187286377,0.08081969618797302,0.3310000002384186,-0.14123579859733582,0.1713949590921402,-0.11718517541885376,-0.030022194609045982,-0.17399725317955017,-0.1739424616098404,0.06420805305242538,-0.0,0.28511860966682434,-0.15239405632019043,-0.09350229799747467,0.12278526276350021,-0.9923896789550781,-0.009301405400037766,-0.9917497038841248,-0.12234750390052795,-0.03825705870985985,-0.1921035498380661,-0.3200241029262543,-0.18791234493255615,0.6345871090888977,-0.20028668642044067,1.1107912063598633,0.08755568414926529,518.0490112304688
27,-0.18398374319076538,-0.332983136177063,-0.18169426918029785,0.6349165439605713,-0.18881386518478394,1.1238096952438354,0.0832817330956459,0.3269999921321869,-0.13110056519508362,0.1747368425130844,-0.10592684894800186,-0.02158530056476593,-0.17235369980335236,-0.17635300755500793,0.0633314922451973,-0.0,0.28547829389572144,-0.15259340405464172,-0.09285064041614532,0.12443860620260239,-0.9921922087669373,-0.008343007415533066,-0.991479754447937,-0.12401413172483444,-0.03985435888171196,-0.19575399160385132,-0.31298312544822693,-0.1905674934387207,0.6347158551216125,-0.20609158277511597,1.1038097143173218,0.08980560302734375,521.961669921875
28,-0.18832682073116302,-0.32613199949264526,-0.18506519496440887,0.6347669959068298,-0.19506867229938507,1.1167514324188232,0.08560379594564438,0.32499998807907104,-0.1159525141119957,0.1733672171831131,-0.09127185493707657,-0.010902220383286476,-0.16145147383213043,-0.17539426684379578,0.0593869723379612,-0.0,0.2865404188632965,-0.15391339361667633,-0.09130831062793732,0.12505404651165009,-0.9921407699584961,-0.004257177002727985,-0.9912274479866028,-0.12475161999464035,-0.043648798018693924,-0.19858522713184357,-0.3061319887638092,-0.19243350625038147,0.6356876492500305,-0.2112056314945221,1.0967514514923096,0.09184908866882324,523.9979248046875
29,-0.1921713650226593,-0.31912168860435486,-0.187949076294899,0.6347190737724304,-0.20099367201328278,1.1097488403320312,0.08780697733163834,0.3230000138282776,-0.10044834762811661,0.17347678542137146,-0.07634294033050537,-0.0015613733557984233,-0.1511518955230713,-0.17577776312828064,0.05623682960867882,-0.0,0.28463760018348694,-0.1519307941198349,-0.09413978457450867,0.12211794406175613,-0.9924346804618835,-0.0126701844856143,-0.9918686747550964,-0.12156757712364197,-0.037654004991054535,-0.20077094435691833,-0.2991216778755188,-0.19379937648773193,0.6362383961677551,-0.21559149026870728,1.0897488594055176,0.09357903152704239,526.2073974609375
30,-0.19560939073562622,-0.3121746778488159,-0.19041302800178528,0.6349165439605713,-0.2065524309873581,1.1027193069458008,0.0899660587310791,0.3199999928474426,-0.08998440951108932,0.17459988594055176,-0.0658516064286232,0.002328363712877035,-0.1426876038312912,-0.17555862665176392,0.05429196357727051,-0.0,0.28594332933425903,-0.15326187014579773,-0.09216867387294769,0.12405122071504593,-0.992262601852417,-0.005116892978549004,-0.9914358854293823,-0.12373244762420654,-0.041774824261665344,-0.20307786762714386,-0.29217466711997986,-0.19511713087558746,0.63716059923172,-0.220251202583313,1.082719326019287,0.0955606997013092,529.066162109375
31,-0.19867926836013794,-0.3043341040611267,-0.19245323538780212,0.635547399520874,-0.21202106773853302,1.0948346853256226,0.0921788215637207,0.3160000145435333,-0.07363107800483704,0.17358636856079102,-0.05045701190829277,0.011778781190514565,-0.12704648077487946,-0.17547644674777985,0.050758328288793564,-0.0,0.2865181267261505,-0.15381747484207153,-0.0912865474820137,0.12290523201227188,-0.9924135804176331,-0.003091375110670924,-0.9914856553077698,-0.12265410274267197,-0.043727513402700424,-0.2046533077955246,-0.28433409333229065,-0.19569768011569977,0.6386709809303284,-0.22439555823802948,1.0748347043991089,0.09738166630268097,533.0545043945312
32,-0.2010933756828308,-0.29742929339408875,-0.19393543899059296,0.6363949179649353,-0.2167169749736786,1.0877898931503296,0.09405219554901123,0.3140000104904175,-0.06275624781847,0.17344939708709717,-0.039636969566345215,0.01865430176258087,-0.11830826848745346,-0.17580515146255493,0.04738904908299446,-0.0,0.2863154709339142,-0.15354157984256744,-0.09158296883106232,0.12363623827695847,-0.9923139810562134,-0.0052031707018613815,-0.9914385080337524,-0.12330185621976852,-0.042968764901161194,-0.2059548795223236,-0.2774292826652527,-0.19611650705337524,0.6400384902954102,-0.2280275523662567,1.067789912223816,0.09892778843641281,535.1156005859375
33,-0.20304153859615326,-0.2904324233531952,-0.19495362043380737,0.6376106142997742,-0.2208433747291565,1.0807623863220215,0.09584887325763702,0.3100000023841858,-0.0534701868891716,0.17386028170585632,-0.030104372650384903,0.02684466354548931,-0.10896742343902588,-0.17580515146255493,0.045772891491651535,-0.0,0.28655800223350525,-0.1538591831922531,-0.0912262499332428,0.1233510747551918,-0.9923474788665771,-0.005561661906540394,-0.9913612008094788,-0.12297282367944717,-0.045614201575517654,-0.20697428286075592,-0.27043241262435913,-0.19623073935508728,0.6418597102165222,-0.23128153383731842,1.0607624053955078,0.1004159227013588,539.0805053710938
34,-0.20460619032382965,-0.2834988236427307,-0.19556337594985962,0.6389145255088806,-0.2246706634759903,1.0737309455871582,0.09749981760978699,0.3070000112056732,-0.042622752487659454,0.1741890013217926,-0.019092582166194916,0.03199445828795433,-0.09814737737178802,-0.17569558322429657,0.042704928666353226,-0.0,0.2870664894580841,-0.15426145493984222,-0.09049391001462936,0.11909569054841995,-0.9928675889968872,-0.005488161463290453,-0.9916759133338928,-0.11867665499448776,-0.04994714632630348,-0.2076178789138794,-0.26349881291389465,-0.19593322277069092,0.6436170339584351,-0.23424534499645233,1.0537309646606445,0.10179131478071213,542.059814453125
35,-0.2058410495519638,-0.2765364646911621,-0.19591811299324036,0.6404810547828674,-0.22825059294700623,1.0667110681533813,0.09899736940860748,0.30399999022483826,-0.03399410843849182,0.17375071346759796,-0.011176145635545254,0.036404650658369064,-0.09198406338691711,-0.1756134033203125,0.0388425849378109,-0.0,0.28710269927978516,-0.1543487310409546,-0.09043774753808975,0.11825979501008987,-0.9929700493812561,-0.005012640729546547,-0.9918853044509888,-0.11789032816886902,-0.04759671911597252,-0.20814554393291473,-0.25653645396232605,-0.1956040859222412,0.6454837918281555,-0.2370968908071518,1.0467110872268677,0.1030084565281868,545.054931640625
36,-0.2067844420671463,-0.269595205783844,-0.19600631296634674,0.6421550512313843,-0.2315659075975418,1.0596816539764404,0.10047957301139832,0.3009999990463257,-0.026406383141875267,0.17386028170585632,-0.004848475102335215,0.04103398695588112,-0.08540985733270645,-0.17555862665176392,0.0371442474424839,-0.0,0.2870400846004486,-0.15424844622612,-0.09054743498563766,0.11833683401346207,-0.9929494857788086,-0.0069017852656543255,-0.9918342232704163,-0.11786534637212753,-0.048709478229284286,-0.20844966173171997,-0.24959520995616913,-0.19507767260074615,0.6474511623382568,-0.23971955478191376,1.0396816730499268,0.10420923680067062,548.0385131835938
37,-0.20753225684165955,-0.2618255913257599,-0.195925772190094,0.6441856622695923,-0.23492340743541718,1.0518429279327393,0.10203848779201508,0.296999990940094,-0.01865430176258087,0.17295633256435394,0.0007669904152862728,0.04412934184074402,-0.07713732123374939,-0.1747916340827942,0.035528089851140976,-0.0,0.28711387515068054,-0.15435922145843506,-0.09041362255811691,0.12052588164806366,-0.9927024841308594,-0.003911284264177084,-0.9916057586669922,-0.12020505964756012,-0.047631245106458664,-0.20859192311763763,-0.24182559549808502,-0.1944109946489334,0.6497189402580261,-0.24236474931240082,1.0320295095443726,0.1054660826921463,551.9447021484375
38,-0.2080077975988388,-0.255214124917984,-0.19562089443206787,0.6459670066833496,-0.2375560998916626,1.0451931953430176,0.1031947210431099,0.29600000381469727,-0.013531901873648167,0.1682722121477127,0.005505895242094994,0.04489633068442345,-0.06908392161130905,-0.1694500893354416,0.031035717576742172,-0.0,0.287038654088974,-0.1542302817106247,-0.09054271131753922,0.12085192650556564,-0.9926496148109436,-0.0064441668801009655,-0.9915719032287598,-0.12041029334068298,-0.04781733453273773,-0.20866985619068146,-0.23521412909030914,-0.19371815025806427,0.651584267616272,-0.2443712204694748,1.0263458490371704,0.10634776949882507,552.9385986328125
39,-0.2083050012588501,-0.2481808364391327,-0.19502456486225128,0.6479975581169128,-0.24012359976768494,1.038171410560608,0.10436438024044037,0.2930000126361847,-0.009149099700152874,0.17098407447338104,0.012408808805048466,0.04815603792667389,-0.06467372924089432,-0.17150452733039856,0.02895388752222061,-0.0,0.2867022752761841,-0.15392161905765533,-0.09102628380060196,0.12041246891021729,-0.9927078485488892,-0.005652967374771833,-0.9917023181915283,-0.12002833187580109,-0.04604000970721245,-0.20850174129009247,-0.22818084061145782,-0.19268761575222015,0.6537007689476013,-0.24640846252441406,1.0198265314102173,0.10727479308843613,555.9195556640625
40,-0.2084699124097824,-0.2411973923444748,-0.19432660937309265,0.6498690247535706,-0.24243223667144775,1.0317151546478271,0.10542666167020798,0.29100000858306885,-0.005259362515062094,0.17544905841350555,0.016654647886753082,0.048786066472530365,-0.060318317264318466,-0.16764219105243683,0.02769383229315281,-0.0,0.2867385745048523,-0.1539282202720642,-0.09102782607078552,0.12163478881120682,-0.9925608038902283,-0.0052868518978357315,-0.9915618300437927,-0.12126832455396652,-0.045816197991371155,-0.20836934447288513,-0.22119739651679993,-0.19174151122570038,0.6556163430213928,-0.24829910695552826,1.014025092124939,0.10814274847507477,557.8701782226562
41,-0.20854468643665314,-0.23430980741977692,-0.19352318346500397,0.6519591212272644,-0.24455679953098297,1.0253050327301025,0.10643142461776733,0.289000004529953,-0.0027666438836604357,0.17301112413406372,0.019010404124855995,0.04974480718374252,-0.05470285192131996,-0.16008184850215912,0.0256120003759861,-0.0,0.28644391894340515,-0.15369157493114471,-0.09146016091108322,0.12340010702610016,-0.9923411011695862,-0.005612387787550688,-0.9913811087608337,-0.12302602827548981,-0.04503406211733818,-0.20826813578605652,-0.21430981159210205,-0.1908012181520462,0.6577265858650208,-0.24993044137954712,1.008787751197815,0.10886617004871368,559.8207397460938
42,-0.20854660868644714,-0.22734937071800232,-0.19256827235221863,0.6539417505264282,-0.24651646614074707,1.0192285776138306,0.10734797269105911,0.28700000047683716,-0.000739597890060395,0.17312069237232208,0.022434469312429428,0.050977468490600586,-0.05059397220611572,-0.1553429514169693,0.02380409464240074,-0.0,0.2868877053260803,-0.1540665328502655,-0.09077008068561554,0.12205226719379425,-0.9925130009651184,-0.004604937508702278,-0.9914429187774658,-0.12170159071683884,-0.04721944034099579,-0.20810657739639282,-0.20734937489032745,-0.18968601524829865,0.6598497033119202,-0.2515956163406372,1.0033705234527588,0.10960251092910767,561.754150390625
43,-0.20854660868644714,-0.21949730813503265,-0.1915040761232376,0.6562005281448364,-0.24851255118846893,1.012860655784607,0.10822426527738571,0.2840000092983246,-4.59949531210485e-16,0.17454509437084198,0.023941056802868843,0.04963523522019386,-0.045800283551216125,-0.14446811378002167,0.02048960141837597,-0.0,0.28679242730140686,-0.15406256914138794,-0.09093113988637924,0.12171836197376251,-0.9925518035888672,-0.005058827809989452,-0.9915257692337036,-0.12135624885559082,-0.046360716223716736,-0.2080915868282318,-0.1994973123073578,-0.1886598765850067,0.6620399951934814,-0.2532481253147125,0.9982722401618958,0.11022940278053284,564.6193237304688
44,-0.20851784944534302,-0.2125694751739502,-0.19048206508159637,0.6583576798439026,-0.25024980306625366,1.0074015855789185,0.10896440595388412,0.28200000524520874,0.0004108877037651837,0.1738876849412918,0.02470804750919342,0.05270319804549217,-0.043636273592710495,-0.13783912360668182,0.018763871863484383,-0.0,0.28770238161087036,-0.15490540862083435,-0.0895332470536232,0.11960215866565704,-0.9928097724914551,-0.004903984256088734,-0.9917412996292114,-0.11924013495445251,-0.04723324626684189,-0.2080623060464859,-0.19256947934627533,-0.18762566149234772,0.6644748449325562,-0.2548697590827942,0.9934374094009399,0.1108151450753212,566.5616455078125
45,-0.2083951234817505,-0.20561861991882324,-0.18951182067394257,0.6603461503982544,-0.25188156962394714,1.0024219751358032,0.10963743925094604,0.2800000011920929,0.0021640085615217686,0.1733672171831131,0.024899795651435852,0.05138835683465004,-0.04191054776310921,-0.12929266691207886,0.01753120869398117,-0.0,0.28591570258140564,-0.15315435826778412,-0.09223863482475281,0.12025381624698639,-0.9927093982696533,-0.008190304972231388,-0.9918657541275024,-0.11979664862155914,-0.04302458465099335,-0.20784640312194824,-0.18561862409114838,-0.18665540218353271,0.6661826372146606,-0.25589317083358765,0.9902532696723938,0.11111457645893097,568.5452270507812
46,-0.2083050012588501,-0.19866201281547546,-0.18853582441806793,0.6624764204025269,-0.2534788250923157,0.9976608157157898,0.11025678366422653,0.27799999713897705,0.002629681257531047,0.17386028170585632,0.024297159165143967,0.05179924517869949,-0.04018481820821762,-0.12093795090913773,0.015997229143977165,-0.0,0.287110298871994,-0.15431155264377594,-0.09042247384786606,0.12015114724636078,-0.9927409291267395,-0.0053988429717719555,-0.9916982650756836,-0.11977047473192215,-0.046792976558208466,-0.20783966779708862,-0.1786620169878006,-0.18574672937393188,0.6685361266136169,-0.25747770071029663,0.9860350489616394,0.11163756251335144,570.4249267578125
47,-0.20814010500907898,-0.19171692430973053,-0.18752914667129517,0.664539635181427,-0.2548229694366455,0.9935900568962097,0.11069589108228683,0.2750000059604645,0.0033144941553473473,0.1736137568950653,0.02487240359187126,0.05242927372455597,-0.0362950824201107,-0.1089126393198967,0.012792304158210754,-0.0,0.2875306010246277,-0.15478035807609558,-0.08982272446155548,0.11992160230875015,-0.9927717447280884,-0.004796553868800402,-0.991707980632782,-0.11956548690795898,-0.04711032286286354,-0.20774756371974945,-0.17171692848205566,-0.18483778834342957,0.6707075834274292,-0.2586447596549988,0.9830487370491028,0.11186647415161133,573.2955932617188
48,-0.20800970494747162,-0.1847449690103531,-0.18657808005809784,0.6666181683540344,-0.2562553286552429,0.9895805716514587,0.11115992069244385,0.27300000190734863,0.003752774326130748,0.1738876849412918,0.024379337206482887,0.05155271291732788,-0.03459674492478371,-0.10025659948587418,0.011203538626432419,-0.0,0.28732115030288696,-0.15461084246635437,-0.09012773633003235,0.12326112389564514,-0.9923563003540039,-0.005968468729406595,-0.9912291169166565,-0.12282780557870865,-0.048766739666461945,-0.20764516294002533,-0.16474497318267822,-0.18393921852111816,0.6727686524391174,-0.2598362863063812,0.980109453201294,0.11211946606636047,575.2015380859375
49,-0.2079138457775116,-0.17780371010303497,-0.185646191239357,0.6688041090965271,-0.2575438618659973,0.986035168170929,0.11153382807970047,0.2709999978542328,0.00271185883320868,0.17377811670303345,0.023447992280125618,0.05366193503141403,-0.03385714814066887,-0.09338107705116272,0.01032697781920433,-0.0,0.28860729932785034,-0.15577761828899384,-0.08818595856428146,0.1215069591999054,-0.9925848841667175,-0.00336436927318573,-0.9912999272346497,-0.12117548286914825,-0.051389679312705994,-0.2076537162065506,-0.1578037142753601,-0.18306957185268402,0.6752839684486389,-0.2612028419971466,0.9769015908241272,0.11242812126874924,577.096435546875
50,-0.2077987939119339,-0.17087587714195251,-0.18472963571548462,0.6709785461425781,-0.25874996185302734,0.9828099608421326,0.11183103173971176,0.26899999380111694,0.0026570737827569246,0.17342200875282288,0.023091889917850494,0.0545932799577713,-0.0308165792375803,-0.0836019515991211,0.008135576732456684,-0.0,0.2863447368144989,-0.15360504388809204,-0.09157193452119827,0.11951310932636261,-0.9927968978881836,-0.008422893472015858,-0.9918731451034546,-0.11902042478322983,-0.04496481269598007,-0.20746970176696777,-0.1508859097957611,-0.1821773797273636,0.6771759986877441,-0.2617999017238617,0.9756129384040833,0.1123092919588089,579.14453125
51,-0.20772400498390198,-0.1630794107913971,-0.18376514315605164,0.6735556125640869,-0.2601688802242279,0.9793374538421631,0.11215125024318695,0.26600000262260437,0.002109223511070013,0.17344939708709717,0.021914010867476463,0.05620943754911423,-0.031063111498951912,-0.07809605449438095,0.00717683881521225,-0.0,0.28712475299835205,-0.15436257421970367,-0.09038599580526352,0.121361643075943,-0.9925820231437683,-0.007228339556604624,-0.9915987849235535,-0.12090665102005005,-0.04597140848636627,-0.20746037364006042,-0.14359116554260254,-0.1812407225370407,0.6799953579902649,-0.2632300853729248,0.9725955128669739,0.11251142621040344,582.0125122070312
52,-0.20764538645744324,-0.15650629997253418,-0.1829521358013153,0.6755843162536621,-0.26110270619392395,0.9772128462791443,0.11227013915777206,0.2639999985694885,0.0017531209159642458,0.16810785233974457,0.02065395563840866,0.05366193503141403,-0.02681727148592472,-0.06297539174556732,0.004684119950979948,-0.0,0.28697794675827026,-0.15424101054668427,-0.09060600399971008,0.11951172351837158,-0.9927944540977478,-0.00872244406491518,-0.9917581081390381,-0.11896909028291702,-0.04756246507167816,-0.20754487812519073,-0.1381845623254776,-0.18058104813098907,0.6819416284561157,-0.26394543051719666,0.9718614816665649,0.11240503191947937,583.9158935546875
53,-0.2075706124305725,-0.14972035586833954,-0.18206433951854706,0.6779006123542786,-0.26222825050354004,0.9748754501342773,0.11238710582256317,0.2619999945163727,0.0019448684761300683,0.1671765148639679,0.021393554285168648,0.05462067201733589,-0.02580374851822853,-0.05525070056319237,0.0027666438836604357,-0.0,0.28723371028900146,-0.1544567346572876,-0.09022489935159683,0.11750034987926483,-0.9930285811424255,-0.009375939145684242,-0.9919927716255188,-0.11692710220813751,-0.04773266613483429,-0.20749631524085999,-0.13209682703018188,-0.1797047108411789,0.6843565702438354,-0.2649715542793274,0.9702286124229431,0.11237528920173645,585.8690185546875
54,-0.20751884579658508,-0.14351923763751984,-0.18123599886894226,0.6800788640975952,-0.2631850838661194,0.973186194896698,0.11243312060832977,0.26100000739097595,0.0015339808305725455,0.1612323373556137,0.021420946344733238,0.05620943754911423,-0.025913318619132042,-0.04938870295882225,0.0019174759509041905,-0.0,0.28670012950897217,-0.15395955741405487,-0.09103649854660034,0.1195753887295723,-0.9927899241447449,-0.008360696956515312,-0.9918053150177002,-0.1190667524933815,-0.04631711170077324,-0.20744366943836212,-0.1269104778766632,-0.17884281277656555,0.6865649223327637,-0.26568880677223206,0.9694677591323853,0.11221320927143097,586.896240234375
55,-0.20750541985034943,-0.13748495280742645,-0.18042299151420593,0.6823856234550476,-0.26414382457733154,0.9716560244560242,0.11243504285812378,0.2590000033378601,0.0006848128396086395,0.15191888809204102,0.020380031317472458,0.056127261370420456,-0.02372191660106182,-0.03925347328186035,0.00043828022899106145,-0.0,0.28691205382347107,-0.15414930880069733,-0.09072928875684738,0.12014228850603104,-0.9927271604537964,-0.007655446883291006,-0.9916983842849731,-0.11965468525886536,-0.047085270285606384,-0.2075623869895935,-0.12201939523220062,-0.1780959814786911,0.68890380859375,-0.2665133476257324,0.9688681364059448,0.11204034090042114,588.837890625
56,-0.2074977457523346,-0.13183605670928955,-0.1795620322227478,0.6846750378608704,-0.2650028467178345,0.9704998135566711,0.11243504285812378,0.257999986410141,0.00021914011449553072,0.14512553811073303,0.021010058000683784,0.05757906287908554,-0.02257143147289753,-0.03270666301250458,0.0,-0.0,0.286895215511322,-0.15415513515472412,-0.09072733670473099,0.11968691647052765,-0.9927746057510376,-0.008575916290283203,-0.9917651414871216,-0.11915978044271469,-0.046934209764003754,-0.2075926661491394,-0.11730422079563141,-0.17722341418266296,0.6912554502487183,-0.2672308683395386,0.9684185981750488,0.11188644915819168,589.8606567382812
57,-0.20749199390411377,-0.12657834589481354,-0.1787797063589096,0.686895489692688,-0.2658196985721588,0.9696484208106995,0.1123238280415535,0.25699999928474426,0.0001917476038215682,0.13515466451644897,0.02043481543660164,0.05620943754911423,-0.020763525739312172,-0.024105412885546684,-0.0015887657646089792,-0.0,0.2872042655944824,-0.1544121652841568,-0.0902998149394989,0.11982598155736923,-0.9927635788917542,-0.007886111736297607,-0.9916946887969971,-0.11931556463241577,-0.048014409840106964,-0.20769678056240082,-0.11310730874538422,-0.17647527158260345,0.6934547424316406,-0.26794013381004333,0.9683092832565308,0.11164804548025131,590.8351440429688
58,-0.20749199390411377,-0.12164851278066635,-0.1779724508523941,0.6892789006233215,-0.26658669114112854,0.9690099358558655,0.11212824285030365,0.25600001215934753,2.739251431194134e-05,0.12649862468242645,0.019832180812954903,0.05774341896176338,-0.01966782473027706,-0.017942097038030624,-0.004273232072591782,-0.0,0.2864435613155365,-0.1536184698343277,-0.09138739109039307,0.12322435528039932,-0.992343544960022,-0.008366311900317669,-0.9915716648101807,-0.12277978658676147,-0.04136158153414726,-0.20768147706985474,-0.10931816697120667,-0.1756279319524765,0.6957108974456787,-0.26842015981674194,0.9686269164085388,0.11122540384531021,591.9027099609375
59,-0.20749199390411377,-0.11712326854467392,-0.17720353603363037,0.6915262341499329,-0.2673153281211853,0.9686455726623535,0.1118847206234932,0.2549999952316284,-4.59949531210485e-16,0.11729474365711212,0.01966782473027706,0.05777081102132797,-0.01854473166167736,-0.011778781190514565,-0.005533287767320871,-0.0,0.2862277925014496,-0.15352006256580353,-0.09180419892072678,0.1212162896990776,-0.9925812482833862,-0.009436060674488544,-0.9917192459106445,-0.12069381028413773,-0.04388580471277237,-0.207755446434021,-0.10578867793083191,-0.17487193644046783,0.6979010701179504,-0.26902639865875244,0.9689425826072693,0.11084383726119995,592.9200439453125
60,-0.20749199390411377,-0.11295467615127563,-0.1763809472322464,0.6937505006790161,-0.2679078280925751,0.9685765504837036,0.111564502120018,0.2529999911785126,-4.59949531210485e-16,0.10762518644332886,0.019941750913858414,0.05560680478811264,-0.016188975423574448,-0.0045197647996246815,-0.007231623865664005,-0.0,0.2870843708515167,-0.1542830765247345,-0.09042848646640778,0.12092966586351395,-0.9926289916038513,-0.007981309667229652,-0.9916837811470032,-0.12045001238584518,-0.045332763344049454,-0.2078772336244583,-0.10236388444900513,-0.17409208416938782,0.7001126408576965,-0.269628643989563,0.969244658946991,0.11046916246414185,594.8147583007812
61,-0.20749199390411377,-0.10913314670324326,-0.17553725838661194,0.6960341930389404,-0.26850607991218567,0.9685842394828796,0.11120785772800446,0.25200000405311584,-4.59949531210485e-16,0.09872262179851532,0.020955273881554604,0.05651075765490532,-0.014764565043151379,-0.0003561026824172586,-0.008601249195635319,-0.0,0.2863706946372986,-0.1536283791065216,-0.09155339747667313,0.12045253813266754,-0.9927008748054504,-0.006008849013596773,-0.9918076992034912,-0.12008044123649597,-0.04356823489069939,-0.20784369111061096,-0.09947539120912552,-0.17318716645240784,0.7022514343261719,-0.2699844241142273,0.9699562788009644,0.1099427342414856,595.8629150390625
62,-0.20755526423454285,-0.10511411726474762,-0.17468014359474182,0.6984866261482239,-0.26916569471359253,0.9688680171966553,0.11074957996606827,0.25,-0.0009039529832080007,0.09124446660280228,0.01972261071205139,0.05536027252674103,-0.014819350093603134,0.004163661971688271,-0.009779127314686775,-0.0,0.28684988617897034,-0.15408430993556976,-0.09080762416124344,0.11953321099281311,-0.9927931427955627,-0.008576066233217716,-0.9918166399002075,-0.11901651322841644,-0.046204134821891785,-0.20803427696228027,-0.09606008231639862,-0.17239150404930115,0.704686164855957,-0.2706839144229889,0.9705316424369812,0.10942941159009933,597.7715454101562
63,-0.20764730870723724,-0.10200780630111694,-0.17389972507953644,0.7005306482315063,-0.2695971131324768,0.9693953394889832,0.11033348739147186,0.24899999797344208,-0.002218793611973524,0.08225972205400467,0.019229544326663017,0.0523470938205719,-0.01235402375459671,0.010792650282382965,-0.010381762869656086,-0.0,0.2863121032714844,-0.15357890725135803,-0.09167840331792831,0.12124662101268768,-0.9925758838653564,-0.009612862020730972,-0.9917861223220825,-0.1207413524389267,-0.04221092909574509,-0.20819440484046936,-0.09383171796798706,-0.17165425419807434,0.7064585089683533,-0.27093762159347534,0.9717676043510437,0.108878493309021,598.7315673828125
64,-0.20779304206371307,-0.0986081212759018,-0.17301194369792938,0.7030099630355835,-0.2701723575592041,0.9700990319252014,0.109811931848526,0.24699999392032623,-0.0028762139845639467,0.07560333609580994,0.019695216789841652,0.0537441112101078,-0.011970528401434422,0.015011097304522991,-0.011203538626432419,-0.0,0.28759923577308655,-0.1547941416501999,-0.0896589383482933,0.11998408287763596,-0.9927544593811035,-0.0065145413391292095,-0.9916922450065613,-0.11954404413700104,-0.04749400541186333,-0.2084479033946991,-0.0906728208065033,-0.17081016302108765,0.709113597869873,-0.27165037393569946,0.9724223613739014,0.10837742686271667,600.64208984375
65,-0.20796753466129303,-0.09581052511930466,-0.17224112153053284,0.705061674118042,-0.27061721682548523,0.9709887504577637,0.10929421335458755,0.2460000067949295,-0.0039719147607684135,0.07226145267486572,0.01944868452847004,0.05308669060468674,-0.011915743350982666,0.019695216789841652,-0.01243620179593563,-0.0,0.2865995764732361,-0.15385152399539948,-0.09119989722967148,0.12035757303237915,-0.9927024245262146,-0.007477814797312021,-0.9918137788772583,-0.11991934478282928,-0.04387268051505089,-0.20861533284187317,-0.08849558979272842,-0.17006126046180725,0.7109029293060303,-0.2719137668609619,0.9739328622817993,0.10772991180419922,601.6535034179688
66,-0.2081937938928604,-0.09295540302991867,-0.17145878076553345,0.7073798775672913,-0.27114835381507874,0.971809446811676,0.10878416150808334,0.24400000274181366,-0.0051771849393844604,0.07045354694128036,0.01942129246890545,0.055004168301820755,-0.01235402375459671,0.021393554285168648,-0.0128744812682271,-0.0,0.28706157207489014,-0.154331237077713,-0.09048449993133545,0.12038495391607285,-0.992697536945343,-0.00768039608374238,-0.9917231202125549,-0.11991170793771744,-0.04589506983757019,-0.20888736844062805,-0.0857689306139946,-0.1693117618560791,0.7132934331893921,-0.2725089490413666,0.9747547507286072,0.10720562934875488,603.5928344726562
67,-0.20836636424064636,-0.09046651422977448,-0.17072822153568268,0.7093740701675415,-0.2715625464916229,0.972871720790863,0.10822426527738571,0.24300000071525574,-0.00490326015278697,0.06618031114339828,0.018818657845258713,0.05368932709097862,-0.011641818098723888,0.023995842784643173,-0.01344972476363182,-0.0,0.2881152927875519,-0.15531910955905914,-0.088917575776577,0.12146909534931183,-0.9925754070281982,-0.006269900128245354,-0.9914143085479736,-0.12101413309574127,-0.049529895186424255,-0.20914357900619507,-0.0833839476108551,-0.16861768066883087,0.7153564691543579,-0.2730337083339691,0.9757182598114014,0.10668420046567917,604.502197265625
68,-0.20861947536468506,-0.08773219585418701,-0.16989603638648987,0.7116846442222595,-0.2720840871334076,0.9739800095558167,0.10764709860086441,0.2409999966621399,-0.0050950078293681145,0.06064702570438385,0.01838037744164467,0.05018308758735657,-0.011011790484189987,0.02558460831642151,-0.013285369612276554,-0.0,0.286651611328125,-0.1539124697446823,-0.09107930958271027,0.1194537952542305,-0.9928153157234192,-0.00696953060105443,-0.9918524026870728,-0.11901906877756119,-0.04542331025004387,-0.2093188613653183,-0.0813816636800766,-0.167724609375,0.7172439694404602,-0.2732490301132202,0.9774929881095886,0.10594262182712555,606.447021484375
69,-0.2088610678911209,-0.08544272929430008,-0.16920000314712524,0.7136826515197754,-0.27255386114120483,0.9749444723129272,0.1071389690041542,0.23999999463558197,-0.0059715681709349155,0.05875694379210472,0.017887311056256294,0.050785720348358154,-0.0117513881996274,0.024132804945111275,-0.012682734057307243,-0.0,0.28750067949295044,-0.15471181273460388,-0.08982623368501663,0.12087887525558472,-0.9926426410675049,-0.006991042289882898,-0.9915403127670288,-0.12040315568447113,-0.048485949635505676,-0.20959900319576263,-0.07903586328029633,-0.16702724993228912,0.7193735241889954,-0.2738224267959595,0.9782019257545471,0.1054772213101387,607.3798828125
70,-0.2090911716222763,-0.08327406644821167,-0.16844068467617035,0.7156192660331726,-0.27291053533554077,0.9762541651725769,0.10653305053710938,0.23899999260902405,-0.0058619980700314045,0.05538766458630562,0.018298199400305748,0.0489778146147728,-0.010080445557832718,0.029200419783592224,-0.014134537428617477,-0.0,0.2872282564640045,-0.15448956191539764,-0.0902494415640831,0.1214461624622345,-0.9925556182861328,-0.009171238169074059,-0.9916035532951355,-0.12090582400560379,-0.04587065055966377,-0.20984138548374176,-0.07724666595458984,-0.1662977635860443,0.7211101055145264,-0.27409136295318604,0.9798974990844727,0.1047980934381485,608.3485107421875
71,-0.20932318270206451,-0.08105938136577606,-0.16767559945583344,0.7175885438919067,-0.27336496114730835,0.9773298501968384,0.10593479871749878,0.23800000548362732,-0.005779820494353771,0.05470285192131996,0.019147368147969246,0.048786066472530365,-0.01021740771830082,0.029611308127641678,-0.015148060396313667,-0.0,0.2880835235118866,-0.15528884530067444,-0.08894152194261551,0.1202886700630188,-0.9927116632461548,-0.007361719384789467,-0.9915405511856079,-0.11977589875459671,-0.050010427832603455,-0.21009771525859833,-0.07496249675750732,-0.16553668677806854,0.7231500744819641,-0.27464592456817627,0.9807695746421814,0.10425403714179993,609.2890625
72,-0.20960313081741333,-0.07875648885965347,-0.16683383285999298,0.7197284698486328,-0.2737944722175598,0.9787833094596863,0.10525217652320862,0.23600000143051147,-0.006026353221386671,0.05275798216462135,0.018900834023952484,0.04826560989022255,-0.010272192768752575,0.030241334810853004,-0.015065882354974747,-0.0,0.2868437170982361,-0.15413765609264374,-0.09083524346351624,0.12067785859107971,-0.9926451444625854,-0.009615867398679256,-0.9917227625846863,-0.12012651562690735,-0.04533885419368744,-0.21029232442378998,-0.07311201095581055,-0.16465039551258087,0.72501540184021,-0.2748538851737976,0.9826852679252625,0.10343170166015625,611.2603759765625
73,-0.2098524123430252,-0.07677382230758667,-0.16613012552261353,0.721613347530365,-0.27423548698425293,0.9798800945281982,0.10471336543560028,0.23499999940395355,-0.006300278007984161,0.049909159541130066,0.017969489097595215,0.04730687290430069,-0.01032697781920433,0.0296934861689806,-0.014161929488182068,-0.0,0.2879123389720917,-0.15511415898799896,-0.0892205685377121,0.12292854487895966,-0.9923890233039856,-0.007247942499816418,-0.9914306402206421,-0.12247798591852188,-0.04543586075305939,-0.21060079336166382,-0.07105669379234314,-0.16396498680114746,0.7269953489303589,-0.27540096640586853,0.9835276007652283,0.10294724255800247,612.1697998046875
74,-0.21006524562835693,-0.07485442608594894,-0.16535738110542297,0.7234196066856384,-0.27458447217941284,0.9813143610954285,0.10404224693775177,0.2329999953508377,-0.005697642918676138,0.04862171411514282,0.01857212372124195,0.045855067670345306,-0.009751735255122185,0.03213141858577728,-0.015339807607233524,-0.0,0.28695112466812134,-0.15427415072917938,-0.09062311798334122,0.1192159652709961,-0.9928244352340698,-0.009337296709418297,-0.9918451905250549,-0.11866101622581482,-0.04650476202368736,-0.21076592803001404,-0.06952550262212753,-0.1631801724433899,0.7285342812538147,-0.27560243010520935,0.9853680729866028,0.10217875987291336,614.1251220703125
75,-0.21031835675239563,-0.07286408543586731,-0.16464024782180786,0.7252891063690186,-0.27499866485595703,0.9825741648674011,0.10343824326992035,0.23199999332427979,-0.005889390595257282,0.048895638436079025,0.01854473166167736,0.04601942375302315,-0.009587380103766918,0.03366539999842644,-0.015942443162202835,-0.0,0.2877141833305359,-0.15499238669872284,-0.08950615674257278,0.12146741896867752,-0.9925684332847595,-0.007317634299397469,-0.9914329648017883,-0.12096519023180008,-0.049275368452072144,-0.21105831861495972,-0.06744889914989471,-0.16249999403953552,0.7304679751396179,-0.2761140763759613,0.9864668846130371,0.10161996632814407,615.0628662109375
76,-0.21054653823375702,-0.0710194781422615,-0.16387900710105896,0.7270589470863342,-0.27532270550727844,0.9840275645256042,0.10279780626296997,0.23100000619888306,-0.006026353221386671,0.047799937427043915,0.01854473166167736,0.04547157511115074,-0.009121707640588284,0.03410368040204048,-0.015558947809040546,-0.0,0.28744709491729736,-0.15469753742218018,-0.08993174135684967,0.12137676775455475,-0.9925693273544312,-0.00859081745147705,-0.9916049242019653,-0.12086105346679688,-0.04595915973186493,-0.21125026047229767,-0.06577430665493011,-0.16171914339065552,0.7321271896362305,-0.27635806798934937,0.9880593419075012,0.10093101114034653,616.03955078125
77,-0.2107977271080017,-0.06893326342105865,-0.1630372256040573,0.7290703654289246,-0.2757694721221924,0.9855443239212036,0.1020902544260025,0.23000000417232513,-0.005588072817772627,0.04599203169345856,0.018873441964387894,0.0441841259598732,-0.00920388475060463,0.03481588512659073,-0.015887659043073654,-0.0,0.28665784001350403,-0.15389087796211243,-0.09110304713249207,0.1205916702747345,-0.9926680326461792,-0.00823232252150774,-0.9917657971382141,-0.12011367082595825,-0.044421568512916565,-0.21141184866428375,-0.06400717794895172,-0.16081833839416504,0.7339059114456177,-0.27662432193756104,0.9898906946182251,0.10014351457357407,617.0286865234375
78,-0.21102973818778992,-0.06714425981044769,-0.16226257383823395,0.730832576751709,-0.2760781943798065,0.9870131015777588,0.10142872482538223,0.2290000021457672,-0.00567025039345026,0.04536200314760208,0.019092582166194916,0.044540226459503174,-0.008656034246087074,0.03536373749375343,-0.016188975423574448,-0.0,0.28687942028045654,-0.1541149616241455,-0.09075232595205307,0.12042612582445145,-0.9926994442939758,-0.006735354196280241,-0.9917840957641602,-0.12001464515924454,-0.04428042471408844,-0.21164116263389587,-0.06224580109119415,-0.16004672646522522,0.7356643080711365,-0.2769452631473541,0.9913267493247986,0.09948201477527618,617.9971923828125
79,-0.21124066412448883,-0.06531882286071777,-0.16144956648349762,0.7325889468193054,-0.27638497948646545,0.988625705242157,0.10070967674255371,0.2280000001192093,-0.005505895242094994,0.0453072190284729,0.019914356991648674,0.043910201638936996,-0.007642511278390884,0.03892476111650467,-0.01742163859307766,-0.0,0.2871476113796234,-0.15447112917900085,-0.09034101665019989,0.11937498301267624,-0.9928184747695923,-0.00781106436625123,-0.991818904876709,-0.11888909339904785,-0.04648202657699585,-0.211900532245636,-0.060479141771793365,-0.159297913312912,0.7373718619346619,-0.27731239795684814,0.9929891228675842,0.09877034276723862,618.9581298828125
80,-0.21142281591892242,-0.06368512660264969,-0.16069598495960236,0.7342705726623535,-0.27666303515434265,0.9901002049446106,0.10002513229846954,0.2280000001192093,-0.004848475102335215,0.042814500629901886,0.01950347051024437,0.042787108570337296,-0.007231623865664005,0.038431696593761444,-0.01753120869398117,-0.0,0.2884645462036133,-0.15566489100456238,-0.08836355060338974,0.12102969735860825,-0.9926391839981079,-0.004385503940284252,-0.9914751648902893,-0.1206706240773201,-0.04914906248450279,-0.2121395617723465,-0.058679480105638504,-0.15855549275875092,0.739190399646759,-0.2777344584465027,0.994107186794281,0.09817758202552795,618.9024047851562
81,-0.2116509974002838,-0.062047604471445084,-0.1599673479795456,0.7359272837638855,-0.2769947350025177,0.9916073679924011,0.09936168789863586,0.22699999809265137,-0.005204577464610338,0.040677882730960846,0.01838037744164467,0.041609227657318115,-0.007724688854068518,0.03719903528690338,-0.016764217987656593,-0.0,0.2872660458087921,-0.15453636646270752,-0.09024927020072937,0.12299349159002304,-0.9923830628395081,-0.006958580110222101,-0.9914495944976807,-0.12256376445293427,-0.04478602111339569,-0.21229001879692078,-0.057403117418289185,-0.15777811408042908,0.7405957579612732,-0.2778608500957489,0.9959684014320374,0.09740202873945236,619.88623046875
82,-0.21189068257808685,-0.060268186032772064,-0.15924638509750366,0.7376357316970825,-0.27737441658973694,0.9929668307304382,0.09873083978891373,0.22599999606609344,-0.00591678312048316,0.04303364083170891,0.018079059198498726,0.04212968796491623,-0.009066922590136528,0.035555481910705566,-0.016079405322670937,-0.0,0.2885408103466034,-0.15572808682918549,-0.08827798068523407,0.12128445506095886,-0.9926092028617859,-0.0041291313245892525,-0.9913889169692993,-0.12092632055282593,-0.05024793744087219,-0.21261177957057953,-0.055298566818237305,-0.1571124941110611,0.7425030469894409,-0.2784656286239624,0.9968255758285522,0.09689448773860931,620.8130493164062
83,-0.21209968626499176,-0.05871311575174332,-0.15850432217121124,0.7392847537994385,-0.27765628695487976,0.9945142865180969,0.09806739538908005,0.22499999403953552,-0.005560680292546749,0.04139008745551109,0.01832559145987034,0.0419379398226738,-0.008108183741569519,0.036596398800611496,-0.016216367483139038,-0.0,0.2870909571647644,-0.1543620079755783,-0.09047059714794159,0.12179361283779144,-0.9925101399421692,-0.009480712004005909,-0.9915761947631836,-0.12124370783567429,-0.045569948852062225,-0.21270011365413666,-0.05416264757514,-0.15630429983139038,0.7438642382621765,-0.27848711609840393,0.9988803863525391,0.0960792750120163,621.8382568359375
84,-0.21234704554080963,-0.05681481212377548,-0.1576874703168869,0.7411984205245972,-0.2780742943286896,0.9960309863090515,0.09738285094499588,0.22499999403953552,-0.0053963251411914825,0.040677882730960846,0.018298199400305748,0.04196533188223839,-0.008436894044280052,0.03558287397027016,-0.015668518841266632,-0.0,0.2879902720451355,-0.1552252471446991,-0.08910136669874191,0.1204046905040741,-0.9926998615264893,-0.007048442494124174,-0.9915784597396851,-0.1199214980006218,-0.0488973967730999,-0.2129817008972168,-0.052118606865406036,-0.15549606084823608,0.7458932995796204,-0.27901774644851685,1.0000994205474854,0.09546983987092972,621.825927734375
85,-0.21251578629016876,-0.05526549369096756,-0.15690897405147552,0.7427017092704773,-0.2783101201057434,0.997624397277832,0.09667913615703583,0.22499999403953552,-0.004766297526657581,0.04043135046958923,0.018955620005726814,0.039691753685474396,-0.007341193966567516,0.0371442474424839,-0.0165998637676239,-0.0,0.28650355339050293,-0.15377184748649597,-0.09131789952516556,0.12139171361923218,-0.9925767183303833,-0.0074485354125499725,-0.991701066493988,-0.12095766514539719,-0.043568916618824005,-0.21301569044589996,-0.05095770210027695,-0.15465185046195984,0.7470179796218872,-0.27897346019744873,1.0022084712982178,0.09464969485998154,621.864013671875
86,-0.212709441781044,-0.053627967834472656,-0.1561439037322998,0.7443737387657166,-0.2786341905593872,0.999001145362854,0.09604062139987946,0.22499999403953552,-0.004547157324850559,0.03982871398329735,0.019284330308437347,0.03982871398329735,-0.007067268714308739,0.03678814694285393,-0.016709433868527412,-0.0,0.2881888747215271,-0.15540926158428192,-0.08878571540117264,0.12133868783712387,-0.992584764957428,-0.007237339857965708,-0.9914159178733826,-0.12083164602518082,-0.04994210600852966,-0.2133130580186844,-0.049014613032341,-0.15393950045108795,0.7489386796951294,-0.2795514464378357,1.003072738647461,0.09413974732160568,621.8193969726562
87,-0.21287626028060913,-0.052180275321006775,-0.15537115931510925,0.7458904981613159,-0.27883169054985046,1.0006425380706787,0.09530431032180786,0.2240000069141388,-0.004492372274398804,0.03832212835550308,0.019202152267098427,0.03982871398329735,-0.006382455583661795,0.03804820030927658,-0.01733946055173874,-0.0,0.2878500819206238,-0.15514056384563446,-0.08930021524429321,0.12235724925994873,-0.9924709796905518,-0.005483031272888184,-0.9913681745529175,-0.12195540964603424,-0.048125188797712326,-0.21346525847911835,-0.04772810637950897,-0.15317530930042267,0.7503533959388733,-0.2796899378299713,1.0048744678497314,0.09335938841104507,622.79736328125
88,-0.21308718621730804,-0.050571512430906296,-0.15460608899593353,0.7474973201751709,-0.279188334941864,1.0020288228988647,0.09465044736862183,0.22300000488758087,-0.004793690051883459,0.0382673405110836,0.019202152267098427,0.03895215317606926,-0.007122053764760494,0.037664707750082016,-0.01731206849217415,-0.0,0.28728026151657104,-0.15458235144615173,-0.09014648199081421,0.11956887692213058,-0.9927970170974731,-0.007575679570436478,-0.9917069673538208,-0.11906848102807999,-0.04837348684668541,-0.21364346146583557,-0.046292804181575775,-0.15240022540092468,0.7518019676208496,-0.2799666225910187,1.0064152479171753,0.09266458451747894,623.7799682617188
89,-0.2133076936006546,-0.048897553235292435,-0.15373939275741577,0.7491808533668518,-0.2794798016548157,1.0037143230438232,0.09386812150478363,0.22200000286102295,-0.005067615304142237,0.038486480712890625,0.019229544326663017,0.038541268557310104,-0.007505548652261496,0.03610333427786827,-0.016928574070334435,-0.0,0.28840917348861694,-0.1555919349193573,-0.08845870941877365,0.12147358804941177,-0.9925767183303833,-0.005963013041764498,-0.991356611251831,-0.12101992964744568,-0.05065813660621643,-0.213918998837471,-0.04440029710531235,-0.15156061947345734,0.7536270618438721,-0.28042110800743103,1.0076895952224731,0.09197014570236206,624.6926879882812
90,-0.21350136399269104,-0.04740575700998306,-0.15300308167934418,0.7507148385047913,-0.2797386646270752,1.005204200744629,0.09318357706069946,0.22200000286102295,-0.004848475102335215,0.03708946332335472,0.0187090877443552,0.03774688392877579,-0.006327670533210039,0.037555135786533356,-0.017284676432609558,-0.0,0.28734809160232544,-0.15464864671230316,-0.09007928520441055,0.12384703010320663,-0.9922654032707214,-0.008440790697932243,-0.9912253618240356,-0.12331226468086243,-0.04760561138391495,-0.21404430270195007,-0.04321920499205589,-0.15080104768276215,0.7549214363098145,-0.28049349784851074,1.009573221206665,0.09118670225143433,624.7255859375
91,-0.21368160843849182,-0.045829594135284424,-0.1522686928510666,0.7522910237312317,-0.2800818681716919,1.006563663482666,0.0925488993525505,0.22100000083446503,-0.00465672742575407,0.038541268557310104,0.01835298351943493,0.0391165092587471,-0.00769729632884264,0.035336341708898544,-0.01635333150625229,-0.0,0.28836849331855774,-0.15558157861232758,-0.08849480003118515,0.12152514606714249,-0.992577314376831,-0.004681588150560856,-0.9913215637207031,-0.12113048136234283,-0.05107835307717323,-0.2142670750617981,-0.041379332542419434,-0.1500883847475052,0.7566931247711182,-0.28100359439849854,1.0105024576187134,0.09064081311225891,625.68701171875
92,-0.21387335658073425,-0.044414497911930084,-0.15149785578250885,0.7537080645561218,-0.2803100645542145,1.008143663406372,0.0918547660112381,0.2199999988079071,-0.00465672742575407,0.03717164322733879,0.018900834023952484,0.03708946332335472,-0.006985091138631105,0.0371442474424839,-0.016709433868527412,-0.0,0.287753164768219,-0.15502305328845978,-0.08944317698478699,0.11981017887592316,-0.99277263879776,-0.006924703251570463,-0.9917161464691162,-0.11935151368379593,-0.04747883975505829,-0.2144407480955124,-0.04021631181240082,-0.14933015406131744,0.7578892707824707,-0.2811321020126343,1.0123672485351562,0.08988389372825623,626.6583251953125
93,-0.21408428251743317,-0.04267726466059685,-0.15062732994556427,0.7554126977920532,-0.28069165349006653,1.0096181631088257,0.09117406606674194,0.2199999988079071,-0.004738905001431704,0.03725381940603256,0.019366508349776268,0.03681553900241852,-0.00742337154224515,0.03525416553020477,-0.015915051102638245,-0.0,0.2883304953575134,-0.15554654598236084,-0.08854710310697556,0.12096485495567322,-0.9926371574401855,-0.0062400586903095245,-0.9913865327835083,-0.12048975378274918,-0.051332004368305206,-0.21465261280536652,-0.038365498185157776,-0.1484455019235611,0.7596656680107117,-0.2815798819065094,1.0135736465454102,0.08926164358854294,626.6387939453125
94,-0.21426068246364594,-0.04129667952656746,-0.14991402626037598,0.756791353225708,-0.28092172741889954,1.0110563039779663,0.0905182883143425,0.21899999678134918,-0.0045197647996246815,0.036486830562353134,0.01846255362033844,0.03604855015873909,-0.007039876189082861,0.03424064442515373,-0.015723302960395813,-0.0,0.28700196743011475,-0.15432751178741455,-0.09055249392986298,0.12033369392156601,-0.9927036166191101,-0.007702166680246592,-0.9917256236076355,-0.11985839903354645,-0.04598038271069527,-0.214736208319664,-0.0373026542365551,-0.14768509566783905,0.7607821226119995,-0.28159621357917786,1.0153844356536865,0.08849042654037476,627.6422119140625
95,-0.21445435285568237,-0.03978762775659561,-0.14916813373565674,0.7583214640617371,-0.28124386072158813,1.0124465227127075,0.08985292166471481,0.21899999678134918,-0.004711512476205826,0.03610333427786827,0.018270807340741158,0.036514222621917725,-0.006957698613405228,0.035473305732011795,-0.0165998637676239,-0.0,0.28746217489242554,-0.15464964509010315,-0.08985557407140732,0.12140864878892899,-0.9925891160964966,-0.005168014205992222,-0.9916560053825378,-0.12106389552354813,-0.04429313540458679,-0.2149391919374466,-0.03575266897678375,-0.1469569206237793,0.7623371481895447,-0.2819511890411377,1.0167088508605957,0.08784899115562439,627.650146484375
96,-0.21461157500743866,-0.038291994482278824,-0.14827266335487366,0.7598171234130859,-0.28143754601478577,1.014168381690979,0.08905525505542755,0.21799999475479126,-0.0039719147607684135,0.03498024120926857,0.01953086256980896,0.035171989351511,-0.005697642918676138,0.03697989508509636,-0.01736685447394848,-0.0,0.2872500717639923,-0.1545681208372116,-0.09016765654087067,0.12259407341480255,-0.992434024810791,-0.006740213371813297,-0.9914551973342896,-0.12216245383024216,-0.045748356729745865,-0.21508751809597015,-0.03439269959926605,-0.14607246220111847,0.7637155652046204,-0.28211671113967896,1.0185425281524658,0.08702318370342255,628.6062622070312
97,-0.21477265655994415,-0.03699769824743271,-0.1475459486246109,0.7611363530158997,-0.2816753089427948,1.0155432224273682,0.08839564025402069,0.2160000056028366,-0.00372538180090487,0.032377950847148895,0.018928227946162224,0.03273405507206917,-0.005067615304142237,0.03615811839699745,-0.017010752111673355,-0.0,0.28702521324157715,-0.15433421730995178,-0.0904996246099472,0.12041708081960678,-0.9926795363426208,-0.009328086860477924,-0.9917362928390503,-0.11987310647964478,-0.045712005347013474,-0.21524876356124878,-0.03328578546643257,-0.1453379988670349,0.7648948431015015,-0.28230568766593933,1.01999831199646,0.08632471412420273,630.495849609375
98,-0.2149202972650528,-0.03562862053513527,-0.14679428935050964,0.7624824047088623,-0.2818785607814789,1.0170964002609253,0.08765741437673569,0.2160000056028366,-0.0038897369522601366,0.033473651856184006,0.01846255362033844,0.033446259796619415,-0.005533287767320871,0.03681553900241852,-0.01761338673532009,-0.0,0.2880061864852905,-0.15522199869155884,-0.08903483301401138,0.12228956073522568,-0.9924725890159607,-0.006584430579096079,-0.9913361072540283,-0.12182372063398361,-0.049108993262052536,-0.21547198295593262,-0.031708426773548126,-0.1446523219347,0.7663928866386414,-0.28268179297447205,1.021239995956421,0.08567380905151367,630.477294921875
99,-0.2151024490594864,-0.03415791690349579,-0.14594484865665436,0.7639358639717102,-0.28210291266441345,1.0188068151474,0.08684440702199936,0.2150000035762787,-0.0038897369522601366,0.033391475677490234,0.018873441964387894,0.03276144713163376,-0.005012830253690481,0.038541268557310104,-0.018270807340741158,-0.0,0.2868258059024811,-0.15413323044776917,-0.090813547372818,0.12305948138237,-0.9923542141914368,-0.009457241743803024,-0.9915298223495483,-0.12254725396633148,-0.04302085191011429,-0.21558377146720886,-0.030536310747265816,-0.14379717409610748,0.7675764560699463,-0.28272777795791626,1.0233705043792725,0.0847511813044548,631.485107421875
100,-0.21528078615665436,-0.032905805855989456,-0.14524497091770172,0.7652627229690552,-0.2823598384857178,1.0201815366744995,0.08622697740793228,0.21400000154972076,-0.004300624597817659,0.03161096200346947,0.018106451258063316,0.0326518751680851,-0.005807213019579649,0.03577462211251259,-0.01649029366672039,-0.0,0.28820478916168213,-0.15543495118618011,-0.08873683214187622,0.12118841707706451,-0.9926137328147888,-0.005601750686764717,-0.99140864610672,-0.12075763195753098,-0.05026402324438095,-0.21586550772190094,-0.029052603989839554,-0.14313524961471558,0.7691435813903809,-0.28320538997650146,1.0242109298706055,0.08425335586071014,632.3849487304688
101,-0.2154495120048523,-0.03166136518120766,-0.14449715614318848,0.7664995193481445,-0.2825515866279602,1.0218172073364258,0.08550025522708893,0.21400000154972076,-0.004328017123043537,0.031200073659420013,0.018161237239837646,0.03185749426484108,-0.005505895242094994,0.03802080824971199,-0.016928574070334435,-0.0,0.2871994078159332,-0.15448719263076782,-0.09023887664079666,0.12144733220338821,-0.992560088634491,-0.008659489452838898,-0.9915674328804016,-0.12091922760009766,-0.046610187739133835,-0.21598464250564575,-0.02807660773396492,-0.14239126443862915,0.7701491117477417,-0.2832469940185547,1.0262278318405151,0.08344385027885437,632.4251708984375
102,-0.21566811203956604,-0.03014080412685871,-0.14368222653865814,0.7680431008338928,-0.28290823101997375,1.023285984992981,0.08477353304624557,0.21199999749660492,-0.0046293349005281925,0.03284362331032753,0.01835298351943493,0.03303537145256996,-0.006765950936824083,0.03577462211251259,-0.016983358189463615,-0.0,0.28799793124198914,-0.15518803894519806,-0.08905792236328125,0.12101368606090546,-0.9926207661628723,-0.007728656753897667,-0.9914572834968567,-0.12048283219337463,-0.049962613731622696,-0.21623718738555908,-0.026359638199210167,-0.14159685373306274,0.771838903427124,-0.28375008702278137,1.027323603630066,0.08277841657400131,634.3369750976562
103,-0.21583685278892517,-0.028959639370441437,-0.14299960434436798,0.7692261934280396,-0.28309616446495056,1.0247796773910522,0.0840640664100647,0.21199999749660492,-0.0045197647996246815,0.0315287820994854,0.01744903065264225,0.03183010220527649,-0.006190708372741938,0.03487066924571991,-0.016983358189463615,-0.0,0.28679516911506653,-0.1541002243757248,-0.09083818644285202,0.12139108031988144,-0.9925622344017029,-0.009189505130052567,-0.9916453957557678,-0.12086161971092224,-0.04507627710700035,-0.21632274985313416,-0.025465069338679314,-0.14086879789829254,0.7727761268615723,-0.2837388515472412,1.029152274131775,0.08197668939828873,634.3642578125
104,-0.21604777872562408,-0.027617406100034714,-0.14225178956985474,0.770581841468811,-0.2834067940711975,1.0261813402175903,0.08336418867111206,0.210999995470047,-0.004821082577109337,0.03166574612259865,0.017969489097595215,0.03183010220527649,-0.006355063058435917,0.0362950824201107,-0.01764077879488468,-0.0,0.28814584016799927,-0.15535224974155426,-0.08883102983236313,0.12070123851299286,-0.9926689863204956,-0.006283679977059364,-0.9914567470550537,-0.12023372948169708,-0.05057009309530258,-0.216644287109375,-0.02390635386109352,-0.14020505547523499,0.7743048667907715,-0.28427496552467346,1.0301815271377563,0.08138453960418701,635.2842407226562
105,-0.21620117127895355,-0.026497600600123405,-0.14149439334869385,0.7718128561973572,-0.2835870385169983,1.0277421474456787,0.08261828869581223,0.20999999344348907,-0.004437587223947048,0.030515260994434357,0.018955620005726814,0.032377950847148895,-0.006026353221386671,0.03722642734646797,-0.018133845180273056,-0.0,0.2879236042499542,-0.15513136982917786,-0.08916708081960678,0.12426528334617615,-0.9922197461128235,-0.007624424993991852,-0.9911925792694092,-0.12377481907606125,-0.04708577319979668,-0.21675515174865723,-0.02288324385881424,-0.1394335925579071,0.775477945804596,-0.28439652919769287,1.0318543910980225,0.08058910816907883,636.2692260742188
106,-0.21643318235874176,-0.025061411783099174,-0.14071780443191528,0.7732778191566467,-0.28394559025764465,1.0292224884033203,0.0818762257695198,0.20999999344348907,-0.0046293349005281925,0.030268728733062744,0.017805134877562523,0.03161096200346947,-0.0066289883106946945,0.035171989351511,-0.017257284373044968,-0.0,0.2871619164943695,-0.15447968244552612,-0.09029630571603775,0.12170520424842834,-0.9925339818000793,-0.008008466102182865,-0.9915357232093811,-0.12120729684829712,-0.0465373732149601,-0.21694812178611755,-0.021603655070066452,-0.1386386752128601,0.7767924666404724,-0.28465211391448975,1.0334641933441162,0.07981188595294952,636.2950439453125
107,-0.21659617125988007,-0.023884080350399017,-0.14004670083522797,0.7744513154029846,-0.2841641902923584,1.0306165218353271,0.08120127022266388,0.20800000429153442,-0.004601942375302315,0.03078918531537056,0.016901182010769844,0.03092614747583866,-0.006711165886372328,0.03363800793886185,-0.0165998637676239,-0.0,0.2878681421279907,-0.15507596731185913,-0.08922579139471054,0.1219867691397667,-0.9925050139427185,-0.007276624441146851,-0.9914389252662659,-0.1215052455663681,-0.047805290669202805,-0.2171614170074463,-0.020298179239034653,-0.13799932599067688,0.7780449390411377,-0.2849881052970886,1.0345611572265625,0.07918424904346466,638.172607421875
108,-0.216766819357872,-0.022662648931145668,-0.13934297859668732,0.7756861448287964,-0.28440579771995544,1.0321294069290161,0.08046495914459229,0.2070000022649765,-0.004108876921236515,0.02988523244857788,0.017229890450835228,0.029994802549481392,-0.00567025039345026,0.03673336282372475,-0.017805134877562523,-0.0,0.2868155837059021,-0.15412341058254242,-0.09081912040710449,0.12119825184345245,-0.9925805330276489,-0.00974147580564022,-0.991675078868866,-0.12064605206251144,-0.045000527054071426,-0.21727721393108368,-0.019387418404221535,-0.13729862868785858,0.7790179252624512,-0.28506460785865784,1.0365209579467773,0.07834607362747192,639.1705322265625
109,-0.21694131195545197,-0.021414371207356453,-0.1386277675628662,0.7769612669944763,-0.2846761643886566,1.0334945917129517,0.07978809624910355,0.2070000022649765,-0.004355409648269415,0.031008325517177582,0.017832526937127113,0.03161096200346947,-0.006492025684565306,0.03580201417207718,-0.0175859946757555,-0.0,0.2868155837059021,-0.15412341058254242,-0.09081912040710449,0.12119825184345245,-0.9925805330276489,-0.00974147580564022,-0.991675078868866,-0.12064605206251144,-0.045000527054071426,-0.21742752194404602,-0.01809440366923809,-0.13657693564891815,0.7803323268890381,-0.28534454107284546,1.0378062725067139,0.07767686247825623,639.211669921875
110,-0.21709854900836945,-0.020319493487477303,-0.13790296018123627,0.7781059741973877,-0.284860223531723,1.0350496768951416,0.07903452217578888,0.20600000023841858,-0.004108876921236515,0.029008671641349792,0.018024275079369545,0.0299674104899168,-0.005533287767320871,0.03673336282372475,-0.017969489097595215,-0.0,0.2868155837059021,-0.15412341058254242,-0.09081912040710449,0.12119825184345245,-0.9925805330276489,-0.00974147580564022,-0.991675078868866,-0.12064605206251144,-0.045000527054071426,-0.2175946831703186,-0.017106156796216965,-0.13586556911468506,0.7813904881477356,-0.2855148911476135,1.0394116640090942,0.07691273838281631,640.1474609375
111,-0.21726344525814056,-0.019161337986588478,-0.13720691204071045,0.7792430520057678,-0.2850807309150696,1.0365262031555176,0.07829629629850388,0.20600000023841858,-0.004026699345558882,0.028132112696766853,0.017695564776659012,0.028351252898573875,-0.005040222778916359,0.03793863207101822,-0.018681693822145462,-0.0,0.2868155837059021,-0.15412341058254242,-0.09081912040710449,0.12119825184345245,-0.9925805330276489,-0.00974147580564022,-0.991675078868866,-0.12064605206251144,-0.045000527054071426,-0.2177811861038208,-0.01602116972208023,-0.13520021736621857,0.7824406027793884,-0.28573596477508545,1.0409371852874756,0.07618135213851929,640.130859375
112,-0.217457115650177,-0.017918813973665237,-0.13639965653419495,0.7804874777793884,-0.285310834646225,1.0382825136184692,0.07746027410030365,0.20600000023841858,-0.004218447022140026,0.028214288875460625,0.017750348895788193,0.02794036455452442,-0.005231969989836216,0.03818516433238983,-0.01851733960211277,-0.0,0.2868155837059021,-0.15412341058254242,-0.09081912040710449,0.12119825184345245,-0.9925805330276489,-0.00974147580564022,-0.991675078868866,-0.12064605206251144,-0.045000527054071426,-0.21798524260520935,-0.014796160161495209,-0.13441666960716248,0.7836549282073975,-0.2859801650047302,1.0426669120788574,0.07535870373249054,640.134765625
113,-0.21763736009597778,-0.016839273273944855,-0.13570553064346313,0.7815958261489868,-0.28553709387779236,1.039829969406128,0.07672588527202606,0.20399999618530273,-0.004437587223947048,0.027145981788635254,0.0175859946757555,0.02769383229315281,-0.0053963251411914825,0.03897954896092415,-0.01846255362033844,-0.0,0.2868155837059021,-0.15412341058254242,-0.09081912040710449,0.12119825184345245,-0.9925805330276489,-0.00974147580564022,-0.991675078868866,-0.12064605206251144,-0.045000527054071426,-0.21819114685058594,-0.0137906763702631,-0.13375753164291382,0.7847309112548828,-0.2862246036529541,1.0442323684692383,0.07460804283618927,642.0453491210938
114,-0.21781760454177856,-0.01576165296137333,-0.13501715660095215,0.782750129699707,-0.28574228286743164,1.0413466691970825,0.0759972408413887,0.2029999941587448,-0.0045197647996246815,0.026926841586828232,0.017257284373044968,0.028406037017703056,-0.005368932615965605,0.03815777227282524,-0.018270807340741158,-0.0,0.2868155837059021,-0.15412341058254242,-0.09081912040710449,0.12119825184345245,-0.9925805330276489,-0.00974147580564022,-0.991675078868866,-0.12064605206251144,-0.045000527054071426,-0.21836617588996887,-0.012720033526420593,-0.13307075202465057,0.7858991622924805,-0.2864375710487366,1.0456877946853638,0.07387321442365646,643.0157470703125
115,-0.21800360083580017,-0.014714710414409637,-0.1343594640493393,0.7838181853294373,-0.2859819531440735,1.0428673028945923,0.07526285201311111,0.2029999941587448,-0.004601942375302315,0.026488561183214188,0.016709433868527412,0.02763904631137848,-0.005615465342998505,0.03788384795188904,-0.018270807340741158,-0.0,0.2868155837059021,-0.15412341058254242,-0.09081912040710449,0.12119825184345245,-0.9925805330276489,-0.00974147580564022,-0.991675078868866,-0.12064605206251144,-0.045000527054071426,-0.2185632884502411,-0.011700579896569252,-0.13242828845977783,0.7869322299957275,-0.28668496012687683,1.047177791595459,0.07315155863761902,643.0088500976562
116,-0.21820876002311707,-0.013543132692575455,-0.1336212307214737,0.7850146889686584,-0.28624656796455383,1.044554591178894,0.07441916316747665,0.20200000703334808,-0.004601942375302315,0.026077672839164734,0.01640811562538147,0.026488561183214188,-0.005998960696160793,0.037692099809646606,-0.01862690970301628,-0.0,0.2868155837059021,-0.15412341058254242,-0.09081912040710449,0.12119825184345245,-0.9925805330276489,-0.00974147580564022,-0.991675078868866,-0.12064605206251144,-0.045000527054071426,-0.21878430247306824,-0.010572541505098343,-0.1317128837108612,0.7880697846412659,-0.2869655191898346,1.0488369464874268,0.07231464982032776,643.9534912109375
117,-0.21839475631713867,-0.01259014755487442,-0.13298846781253815,0.7860175371170044,-0.2864651679992676,1.045988917350769,0.07369627058506012,0.20200000703334808,-0.004601942375302315,0.02470804750919342,0.016079405322670937,0.02577635645866394,-0.00567025039345026,0.036486830562353134,-0.01838037744164467,-0.0,0.2868155837059021,-0.15412341058254242,-0.09081912040710449,0.12119825184345245,-0.9925805330276489,-0.00974147580564022,-0.991675078868866,-0.12064605206251144,-0.045000527054071426,-0.2189594805240631,-0.009659003466367722,-0.13106343150138855,0.7890511751174927,-0.28716856241226196,1.0502175092697144,0.07159842550754547,643.9412841796875
118,-0.21857500076293945,-0.011571967974305153,-0.13231542706489563,0.7870568037033081,-0.2867297828197479,1.0474979877471924,0.0729542076587677,0.20200000703334808,-0.004574549850076437,0.02465326339006424,0.01635333150625229,0.025502430275082588,-0.006108530797064304,0.03689771518111229,-0.018298199400305748,-0.0,0.2868155837059021,-0.15412341058254242,-0.09081912040710449,0.12119825184345245,-0.9925805330276489,-0.00974147580564022,-0.991675078868866,-0.12064605206251144,-0.045000527054071426,-0.21914222836494446,-0.008658848702907562,-0.13040605187416077,0.7900660634040833,-0.28743991255760193,1.051713466644287,0.07086697965860367,643.94970703125
119,-0.21875332295894623,-0.010549953207373619,-0.13163664937019348,0.7881228923797607,-0.2869502902030945,1.0489552021026611,0.07222173362970352,0.20000000298023224,-0.004464979749172926,0.0256120003759861,0.016983358189463615,0.026433775201439857,-0.006026353221386671,0.03703467920422554,-0.01840776950120926,-0.0,0.2868155837059021,-0.15412341058254242,-0.09081912040710449,0.12119825184345245,-0.9925805330276489,-0.00974147580564022,-0.991675078868866,-0.12064605206251144,-0.045000527054071426,-0.21931089460849762,-0.007629722356796265,-0.12973901629447937,0.7911373376846313,-0.28767716884613037,1.0531260967254639,0.07012034207582474,645.8858642578125
120,-0.21894124150276184,-0.00953944306820631,-0.1309962123632431,0.7891698479652405,-0.2871861159801483,1.0504028797149658,0.07149692624807358,0.20000000298023224,-0.004601942375302315,0.025365468114614487,0.01638072356581688,0.026406383141875267,-0.00567025039345026,0.03626769036054611,-0.018188629299402237,-0.0,0.2868155837059021,-0.15412341058254242,-0.09081912040710449,0.12119825184345245,-0.9925805330276489,-0.00974147580564022,-0.991675078868866,-0.12064605206251144,-0.045000527054071426,-0.21949487924575806,-0.006626426242291927,-0.12909774482250214,0.7921797037124634,-0.28791043162345886,1.0545167922973633,0.06940296292304993,645.8860473632812
121,-0.21913106739521027,-0.008515510708093643,-0.1303461790084839,0.7901707887649536,-0.28742772340774536,1.0518467426300049,0.07077020406723022,0.20000000298023224,-0.004711512476205826,0.025420252233743668,0.016106797382235527,0.025447646155953407,-0.005998960696160793,0.03615811839699745,-0.018133845180273056,-0.0,0.2868155837059021,-0.15412341058254242,-0.09081912040710449,0.12119825184345245,-0.9925805330276489,-0.00974147580564022,-0.991675078868866,-0.12064605206251144,-0.045000527054071426,-0.21969714760780334,-0.005621584132313728,-0.12846803665161133,0.7931385040283203,-0.2881639301776886,1.0559288263320923,0.06869319081306458,645.8779907226562
122,-0.21931706368923187,-0.0075241755694150925,-0.12967698276042938,0.7911908626556396,-0.2876635789871216,1.0532675981521606,0.07007607817649841,0.20000000298023224,-0.004684119950979948,0.025173719972372055,0.01657247170805931,0.025283290073275566,-0.00591678312048316,0.035747230052948,-0.017695564776659012,-0.0,0.2868155837059021,-0.15412341058254242,-0.09081912040710449,0.12119825184345245,-0.9925805330276489,-0.00974147580564022,-0.991675078868866,-0.12064605206251144,-0.045000527054071426,-0.21986836194992065,-0.004641899839043617,-0.12779222428798676,0.7941462993621826,-0.28839194774627686,1.0573060512542725,0.06800689548254013,645.8841552734375
123,-0.21949347853660583,-0.006540510803461075,-0.12902696430683136,0.7922109365463257,-0.2879013419151306,1.054667353630066,0.06934743374586105,0.19900000095367432,-0.004492372274398804,0.0246258694678545,0.0164629016071558,0.02558460831642151,-0.00591678312048316,0.03519938141107559,-0.017832526937127113,-0.0,0.2868155837059021,-0.15412341058254242,-0.09081912040710449,0.12119825184345245,-0.9925805330276489,-0.00974147580564022,-0.991675078868866,-0.12064605206251144,-0.045000527054071426,-0.2200365662574768,-0.0036827214062213898,-0.12714025378227234,0.7951663136482239,-0.2886313199996948,1.0586649179458618,0.06727129966020584,646.8499145507812
124,-0.2196929007768631,-0.0054341270588338375,-0.1282964050769806,0.7933403253555298,-0.2881755530834198,1.0562301874160767,0.06852675974369049,0.19900000095367432,-0.004437587223947048,0.02459847740828991,0.016216367483139038,0.025201112031936646,-0.006026353221386671,0.03476110100746155,-0.018270807340741158,-0.0,0.2868155837059021,-0.15412341058254242,-0.09081912040710449,0.12119825184345245,-0.9925805330276489,-0.00974147580564022,-0.991675078868866,-0.12064605206251144,-0.045000527054071426,-0.22023603320121765,-0.002587373834103346,-0.12641826272010803,0.7962679862976074,-0.2889120578765869,1.0601840019226074,0.06646320968866348,646.8526611328125
125,-0.21984629333019257,-0.004471553955227137,-0.12769815325737,0.7943335771560669,-0.28841716051101685,1.0575666427612305,0.06783071160316467,0.1979999989271164,-0.004108876921236515,0.024269767105579376,0.0154767706990242,0.024954579770565033,-0.006053745746612549,0.03402150422334671,-0.017722956836223602,-0.0,0.2868155837059021,-0.15412341058254242,-0.09081912040710449,0.12119825184345245,-0.9925805330276489,-0.00974147580564022,-0.991675078868866,-0.12064605206251144,-0.045000527054071426,-0.22039124369621277,-0.0016441107727587223,-0.12582644820213318,0.7972494959831238,-0.2891571521759033,1.061470866203308,0.06576328724622726,647.809326171875
126,-0.22004379332065582,-0.003324903314933181,-0.12696950137615204,0.7955070734024048,-0.28869518637657166,1.0591620206832886,0.0670062005519867,0.1979999989271164,-0.004163661971688271,0.024981973692774773,0.015695910900831223,0.02566678635776043,-0.00616331584751606,0.03470631688833237,-0.017996881157159805,-0.0,0.2868155837059021,-0.15412341058254242,-0.09081912040710449,0.12119825184345245,-0.9925805330276489,-0.00974147580564022,-0.991675078868866,-0.12064605206251144,-0.045000527054071426,-0.22058653831481934,-0.0004893576260656118,-0.12511678040027618,0.7984223961830139,-0.2894463837146759,1.0630494356155396,0.06494592130184174,647.8349609375
127,-0.2202221155166626,-0.002350825583562255,-0.12632140517234802,0.7965080142021179,-0.2889406085014343,1.0604850053787231,0.06632741540670395,0.1979999989271164,-0.004492372274398804,0.02487240359187126,0.016243761405348778,0.025420252233743668,-0.00616331584751606,0.03410368040204048,-0.01753120869398117,-0.0,0.2868155837059021,-0.15412341058254242,-0.09081912040710449,0.12119825184345245,-0.9925805330276489,-0.00974147580564022,-0.991675078868866,-0.12064605206251144,-0.045000527054071426,-0.22075560688972473,0.00047675915993750095,-0.12446662038564682,0.7994070053100586,-0.2896881103515625,1.0643199682235718,0.06427910923957825,647.83740234375
128,-0.22039853036403656,-0.001415097271092236,-0.12567521631717682,0.7975165843963623,-0.2891860604286194,1.061836838722229,0.06562753021717072,0.19699999690055847,-0.00441019469872117,0.02372191660106182,0.016188975423574448,0.025118935853242874,-0.006135923322290182,0.033391475677490234,-0.017257284373044968,-0.0,0.2868155837059021,-0.15412341058254242,-0.09081912040710449,0.12119825184345245,-0.9925805330276489,-0.00974147580564022,-0.991675078868866,-0.12064605206251144,-0.045000527054071426,-0.22092817723751068,0.0013702519936487079,-0.12381837517023087,0.8003970384597778,-0.28992870450019836,1.0656349658966064,0.06357375532388687,648.792236328125
129,-0.22057877480983734,-0.00046402920270338655,-0.12501752376556396,0.7984945178031921,-0.2894391715526581,1.0631656646728516,0.06494107842445374,0.19699999690055847,-0.004464979749172926,0.02358495444059372,0.01632593758404255,0.02476283349096775,-0.006218100897967815,0.033501043915748596,-0.01731206849217415,-0.0,0.2868155837059021,-0.15412341058254242,-0.09081912040710449,0.12119825184345245,-0.9925805330276489,-0.00974147580564022,-0.991675078868866,-0.12064605206251144,-0.045000527054071426,-0.2211112082004547,0.002303906250745058,-0.12317416071891785,0.8013467192649841,-0.29018497467041016,1.0669461488723755,0.06289678066968918,648.7965698242188
130,-0.2207321673631668,0.00047169908066280186,-0.12438474595546722,0.7994877696037292,-0.28968843817710876,1.0644944906234741,0.06421243399381638,0.19599999487400055,-0.004108876921236515,0.02358495444059372,0.016079405322670937,0.02465326339006424,-0.006272885948419571,0.033254511654376984,-0.017805134877562523,-0.0,0.2868155837059021,-0.15412341058254242,-0.09081912040710449,0.12119825184345245,-0.9925805330276489,-0.00974147580564022,-0.991675078868866,-0.12064605206251144,-0.045000527054071426,-0.22126588225364685,0.0032250164076685905,-0.12255347520112991,0.8023154139518738,-0.2904437184333801,1.068244218826294,0.0621652826666832,649.7607421875
131,-0.2209162414073944,0.0015397332608699799,-0.12365419417619705,0.8005845546722412,-0.28996455669403076,1.0659594535827637,0.06340326368808746,0.19599999487400055,-0.0039719147607684135,0.02358495444059372,0.016079405322670937,0.02457108534872532,-0.00616331584751606,0.03276144713163376,-0.018106451258063316,-0.0,0.2868155837059021,-0.15412341058254242,-0.09081912040710449,0.12119825184345245,-0.9925805330276489,-0.00974147580564022,-0.991675078868866,-0.12064605206251144,-0.045000527054071426,-0.2214421182870865,0.00428781658411026,-0.12182511389255524,0.8033947348594666,-0.29072028398513794,1.069663643836975,0.06136505305767059,649.769775390625
132,-0.22106772661209106,0.0024869663175195456,-0.12304635345935822,0.8015336990356445,-0.29021766781806946,1.067180871963501,0.06270337849855423,0.19599999487400055,-0.003917129710316658,0.02377670258283615,0.015641124919056892,0.024023234844207764,-0.006218100897967815,0.031309641897678375,-0.017668170854449272,-0.0,0.2868155837059021,-0.15412341058254242,-0.09081912040710449,0.12119825184345245,-0.9925805330276489,-0.00974147580564022,-0.991675078868866,-0.12064605206251144,-0.045000527054071426,-0.22158846259117126,0.005241869017481804,-0.12121468782424927,0.804326593875885,-0.29097452759742737,1.070800542831421,0.06067991256713867,649.7662963867188
133,-0.22123071551322937,0.003420777153223753,-0.12240783125162125,0.8025135397911072,-0.29046693444252014,1.0684674978256226,0.06198433041572571,0.19499999284744263,-0.0038897369522601366,0.023420600220561028,0.015613732859492302,0.024160197004675865,-0.006272885948419571,0.031419213861227036,-0.017722956836223602,-0.0,0.2868155837059021,-0.15412341058254242,-0.09081912040710449,0.12119825184345245,-0.9925805330276489,-0.00974147580564022,-0.991675078868866,-0.12064605206251144,-0.045000527054071426,-0.2217569798231125,0.006149027030915022,-0.12059289962053299,0.8052920699119568,-0.2912314832210541,1.0720727443695068,0.059955328702926636,650.73193359375
134,-0.22141478955745697,0.004469636362046003,-0.12171179056167603,0.8035835027694702,-0.2907833158969879,1.0698883533477783,0.061215419322252274,0.19499999284744263,-0.004136269446462393,0.023311030119657516,0.015668518841266632,0.024023234844207764,-0.006793343462049961,0.03185749426484108,-0.01744903065264225,-0.0,0.2868155837059021,-0.15412341058254242,-0.09081912040710449,0.12119825184345245,-0.9925805330276489,-0.00974147580564022,-0.991675078868866,-0.12064605206251144,-0.045000527054071426,-0.22195404767990112,0.007178585510700941,-0.11992382258176804,0.8063404560089111,-0.29155799746513367,1.0734854936599731,0.05919734388589859,650.7418823242188
135,-0.22157202661037445,0.00538619002327323,-0.12111545354127884,0.8045556545257568,-0.2910402715206146,1.071157693862915,0.060528963804244995,0.1940000057220459,-0.0039719147607684135,0.023091889917850494,0.015093275345861912,0.024078018963336945,-0.006765950936824083,0.03169313818216324,-0.017065536230802536,-0.0,0.2868155837059021,-0.15412341058254242,-0.09081912040710449,0.12119825184345245,-0.9925805330276489,-0.00974147580564022,-0.991675078868866,-0.12064605206251144,-0.045000527054071426,-0.22211816906929016,0.008076922968029976,-0.11934354156255722,0.8073021173477173,-0.29182085394859314,1.0747270584106445,0.0585050955414772,651.7047119140625
136,-0.2217407524585724,0.006314248312264681,-0.12051336467266083,0.8055009841918945,-0.29132595658302307,1.0723906755447388,0.059865519404411316,0.1940000057220459,-0.004081484396010637,0.023037103936076164,0.014956312254071236,0.023941056802868843,-0.006793343462049961,0.031200073659420013,-0.016846396028995514,-0.0,0.2868155837059021,-0.15412341058254242,-0.09081912040710449,0.12119825184345245,-0.9925805330276489,-0.00974147580564022,-0.991675078868866,-0.12064605206251144,-0.045000527054071426,-0.22228404879570007,0.008998159319162369,-0.11874561756849289,0.8082348704338074,-0.2921053171157837,1.0759166479110718,0.05785095691680908,651.708740234375
137,-0.22192291915416718,0.007259564008563757,-0.11989402025938034,0.806440532207489,-0.2915829122066498,1.0736101865768433,0.05918673053383827,0.19300000369548798,-0.004437587223947048,0.02347538433969021,0.015339807607233524,0.02347538433969021,-0.006711165886372328,0.030570045113563538,-0.016791611909866333,-0.0,0.2868155837059021,-0.15412341058254242,-0.09081912040710449,0.12119825184345245,-0.9925805330276489,-0.00974147580564022,-0.991675078868866,-0.12064605206251144,-0.045000527054071426,-0.22246652841567993,0.009935755282640457,-0.11813607811927795,0.8091433644294739,-0.2923712730407715,1.0770759582519531,0.057178907096385956,652.6605224609375
138,-0.22210891544818878,0.008206796832382679,-0.11929576843976974,0.8074414730072021,-0.2918705344200134,1.0748411417007446,0.05848301574587822,0.19300000369548798,-0.0046293349005281925,0.02366713248193264,0.015230237506330013,0.024461515247821808,-0.006820735987275839,0.030652223154902458,-0.01736685447394848,-0.0,0.2868155837059021,-0.15412341058254242,-0.09081912040710449,0.12119825184345245,-0.9925805330276489,-0.00974147580564022,-0.991675078868866,-0.12064605206251144,-0.045000527054071426,-0.2226470708847046,0.01088701467961073,-0.11754545569419861,0.8101563453674316,-0.29266297817230225,1.0782850980758667,0.05647822842001915,652.6846313476562
139,-0.2222987413406372,0.009131020866334438,-0.11871477216482162,0.8083906173706055,-0.2921389639377594,1.0760414600372314,0.05778505653142929,0.19200000166893005,-0.004711512476205826,0.023338422179222107,0.014682387933135033,0.024297159165143967,-0.006957698613405228,0.030323512852191925,-0.01753120869398117,-0.0,0.2868155837059021,-0.15412341058254242,-0.09081912040710449,0.12119825184345245,-0.9925805330276489,-0.00974147580564022,-0.991675078868866,-0.12064605206251144,-0.045000527054071426,-0.22284619510173798,0.011784194968640804,-0.11698018014431,0.8110852241516113,-0.2929401695728302,1.0794564485549927,0.055778734385967255,653.640625
140,-0.222478985786438,0.010045656934380531,-0.11808967590332031,0.8093282580375671,-0.2924227714538574,1.0772571563720703,0.05710051581263542,0.19099999964237213,-0.0046293349005281925,0.022954925894737244,0.015065882354974747,0.0235027763992548,-0.006875521037727594,0.030186550691723824,-0.017202498391270638,-0.0,0.2868155837059021,-0.15412341058254242,-0.09081912040710449,0.12119825184345245,-0.9925805330276489,-0.00974147580564022,-0.991675078868866,-0.12064605206251144,-0.045000527054071426,-0.22302545607089996,0.012663731351494789,-0.1163635402917862,0.8119798898696899,-0.2932206392288208,1.0806498527526855,0.05509420484304428,654.592041015625
141,-0.22268031537532806,0.011046579107642174,-0.11744540184736252,0.810357928276062,-0.2927123010158539,1.078568696975708,0.05630284920334816,0.19099999964237213,-0.004464979749172926,0.022407077252864838,0.014627602882683277,0.023119281977415085,-0.00668377336114645,0.029583916068077087,-0.01753120869398117,-0.0,0.2868155837059021,-0.15412341058254242,-0.09081912040710449,0.12119825184345245,-0.9925805330276489,-0.00974147580564022,-0.991675078868866,-0.12064605206251144,-0.045000527054071426,-0.2232203483581543,0.013641472905874252,-0.11571738868951797,0.812984824180603,-0.29350268840789795,1.0819265842437744,0.054303817451000214,654.5921630859375
142,-0.22286055982112885,0.011896020732820034,-0.11688166856765747,0.8111939430236816,-0.29297691583633423,1.0796693563461304,0.055647071450948715,0.1899999976158142,-0.0045197647996246815,0.02169487066566944,0.014107144437730312,0.02169487066566944,-0.006546810735017061,0.028159504756331444,-0.016955966129899025,-0.0,0.2868155837059021,-0.15412341058254242,-0.09081912040710449,0.12119825184345245,-0.9925805330276489,-0.00974147580564022,-0.991675078868866,-0.12064605206251144,-0.045000527054071426,-0.22340576350688934,0.014452763833105564,-0.11515497416257858,0.8137750625610352,-0.29376471042633057,1.0829585790634155,0.05365406349301338,655.5222778320312
143,-0.22304080426692963,0.012772307731211185,-0.11628341674804688,0.8121066689491272,-0.2932645380496979,1.080829381942749,0.054964449256658554,0.1899999976158142,-0.0045197647996246815,0.02158530056476593,0.0148467430844903,0.021968796849250793,-0.00693030608817935,0.028351252898573875,-0.016736825928092003,-0.0,0.2868155837059021,-0.15412341058254242,-0.09081912040710449,0.12119825184345245,-0.9925805330276489,-0.00974147580564022,-0.991675078868866,-0.12064605206251144,-0.045000527054071426,-0.22357472777366638,0.015318837948143482,-0.11455956846475601,0.8146819472312927,-0.2940482199192047,1.0841046571731567,0.05297750607132912,655.541259765625
144,-0.2232210487127304,0.01364475954324007,-0.11570625007152557,0.8130193948745728,-0.293527215719223,1.081966519355774,0.05429716780781746,0.1899999976158142,-0.0045197647996246815,0.021886618807911873,0.014709779992699623,0.022900141775608063,-0.006875521037727594,0.02873474732041359,-0.016846396028995514,-0.0,0.2868155837059021,-0.15412341058254242,-0.09081912040710449,0.12119825184345245,-0.9925805330276489,-0.00974147580564022,-0.991675078868866,-0.12064605206251144,-0.045000527054071426,-0.22375045716762543,0.016197361052036285,-0.11399338394403458,0.8156080842018127,-0.2943125367164612,1.0852313041687012,0.05231047421693802,655.566162109375
145,-0.2233782857656479,0.014524880796670914,-0.1151367649435997,0.8139321208000183,-0.29380717873573303,1.0831016302108765,0.053618382662534714,0.1899999976158142,-0.004163661971688271,0.021968796849250793,0.014244107529520988,0.022845357656478882,-0.006793343462049961,0.028433429077267647,-0.016846396028995514,-0.0,0.2868155837059021,-0.15412341058254242,-0.09081912040710449,0.12119825184345245,-0.9925805330276489,-0.00974147580564022,-0.991675078868866,-0.12064605206251144,-0.045000527054071426,-0.22390256822109222,0.017075344920158386,-0.11342836916446686,0.8165070414543152,-0.29458898305892944,1.0863367319107056,0.05163661018013954,655.5760498046875
146,-0.22354702651500702,0.015397332608699799,-0.11455768346786499,0.8148333430290222,-0.29406410455703735,1.0842540264129639,0.05291850119829178,0.1889999955892563,-0.0040540918707847595,0.021886618807911873,0.014079752378165722,0.02262621745467186,-0.00668377336114645,0.02862517721951008,-0.01731206849217415,-0.0,0.2868155837059021,-0.15412341058254242,-0.09081912040710449,0.12119825184345245,-0.9925805330276489,-0.00974147580564022,-0.991675078868866,-0.12064605206251144,-0.045000527054071426,-0.22407805919647217,0.017922796308994293,-0.1128678023815155,0.8173770904541016,-0.2948530912399292,1.0874804258346558,0.05093355476856232,656.53564453125
147,-0.22374452650547028,0.01636373996734619,-0.11389423906803131,0.8158285021781921,-0.29433831572532654,1.085508108139038,0.05214959383010864,0.1889999955892563,-0.004382802173495293,0.02155790850520134,0.014435854740440845,0.022215329110622406,-0.006190708372741938,0.028269074857234955,-0.017229890450835228,-0.0,0.2868155837059021,-0.15412341058254242,-0.09081912040710449,0.12119825184345245,-0.9925805330276489,-0.00974147580564022,-0.991675078868866,-0.12064605206251144,-0.045000527054071426,-0.22426922619342804,0.01886911876499653,-0.11220572888851166,0.8183432817459106,-0.29511842131614685,1.0887000560760498,0.05017457529902458,656.53369140625
148,-0.22389216721057892,0.01719784177839756,-0.11334967613220215,0.8166530132293701,-0.2945856750011444,1.0865684747695923,0.051495734602212906,0.18799999356269836,-0.0039719147607684135,0.021092236042022705,0.013915397226810455,0.021229198202490807,-0.006135923322290182,0.027009019628167152,-0.016627255827188492,-0.0,0.2868155837059021,-0.15412341058254242,-0.09081912040710449,0.12119825184345245,-0.9925805330276489,-0.00974147580564022,-0.991675078868866,-0.12064605206251144,-0.045000527054071426,-0.22441518306732178,0.019676920026540756,-0.11166010051965714,0.8191366195678711,-0.2953632175922394,1.0896971225738525,0.04952170327305794,657.4776611328125
149,-0.22405706346035004,0.01807412877678871,-0.11278210580348969,0.8175254464149475,-0.29486560821533203,1.0876882076263428,0.05080544203519821,0.18799999356269836,-0.003917129710316658,0.021420946344733238,0.014161929488182068,0.021256590262055397,-0.00668377336114645,0.027337729930877686,-0.016846396028995514,-0.0,0.2868155837059021,-0.15412341058254242,-0.09081912040710449,0.12119825184345245,-0.9925805330276489,-0.00974147580564022,-0.991675078868866,-0.12064605206251144,-0.045000527054071426,-0.22458210587501526,0.020548155531287193,-0.1111098974943161,0.8199920654296875,-0.29565200209617615,1.090806484222412,0.04884157329797745,657.4930419921875
150,-0.22422964870929718,0.01889672502875328,-0.11218384653329849,0.8183519244194031,-0.29512447118759155,1.0887850522994995,0.050126656889915466,0.18799999356269836,-0.004245839547365904,0.021174414083361626,0.0148467430844903,0.021201806142926216,-0.006711165886372328,0.02774861641228199,-0.017120322212576866,-0.0,0.2868155837059021,-0.15412341058254242,-0.09081912040710449,0.12119825184345245,-0.9925805330276489,-0.00974147580564022,-0.991675078868866,-0.12064605206251144,-0.045000527054071426,-0.22475546598434448,0.021348407492041588,-0.1105247437953949,0.8207975029945374,-0.29591187834739685,1.0919021368026733,0.04817086458206177,657.5009155273438
