isri-aist/RoboManipBaselines/robo_manip_baselines/rollout_debug_log_expanded.csv
step_idx,obs_0,obs_1,obs_2,obs_3,obs_4,obs_5,obs_6,obs_7,obs_8,obs_9,obs_10,obs_11,obs_12,obs_13,obs_14,obs_15,obs_16,obs_17,obs_18,obs_19,obs_20,obs_21,obs_22,obs_23,obs_24,direct_joint_command_0,direct_joint_command_1,direct_joint_command_2,direct_joint_command_3,direct_joint_command_4,direct_joint_command_5,direct_joint_command_6,direct_joint_command_7
0,3.834952167380834e-06,-0.52359938621521,-1.917476083690417e-06,0.7853828072547913,3.834952167380834e-06,1.30899178981781,0.0,0.48500001430511475,0.0,0.0,0.0,0.0,0.0,0.0,0.0,-0.0,0.2839323878288269,-0.1590585708618164,-0.09401771426200867,0.5885605216026306,-0.808401882648468,0.009105522185564041,-0.8079580664634705,-0.5885568857192993,-0.0283640269190073,-0.0999961644411087,-0.42359939217567444,-0.10000191628932953,0.7217630743980408,-0.0999961644411087,1.226003646850586,-0.10000000149011612,254.99993896484375
1,-1.917476083690417e-06,-0.52359938621521,-1.917476083690417e-06,0.7853847146034241,3.834952167380834e-06,1.3089936971664429,-1.917476083690417e-06,0.30300000309944153,-0.032613176852464676,0.032613176852464676,-0.032613176852464676,-0.02905348874628544,-0.032613176852464676,-0.02905348874628544,-0.032613176852464676,-0.0,0.2839323878288269,-0.1590585708618164,-0.09401771426200867,0.5885605216026306,-0.808401882648468,0.009105522185564041,-0.8079580664634705,-0.5885568857192993,-0.0283640269190073,-0.10000191628932953,-0.42359939217567444,-0.10000191628932953,0.7130678296089172,-0.0999961644411087,1.2193965911865234,-0.10000191628932953,437.0
2,-0.029042091220617294,-0.4941469728946686,-0.029701702296733856,0.7558556199073792,-0.030035343021154404,1.2790331840515137,-0.030240513384342194,0.414000004529953,-0.13637056946754456,0.13633008301258087,-0.13633008301258087,-0.13631698489189148,-0.13633008301258087,-0.13631698489189148,-0.13634324073791504,-0.0,0.2840811014175415,-0.15925338864326477,-0.09378241002559662,0.5878112316131592,-0.8089282512664795,0.01063391100615263,-0.8083922863006592,-0.5878288745880127,-0.030969349667429924,-0.12904208898544312,-0.39414697885513306,-0.12970170378684998,0.6927640438079834,-0.13003534078598022,1.1874606609344482,-0.1302405148744583,326.0
3,-0.04724660888314247,-0.47602108120918274,-0.0475994236767292,0.7379502058029175,-0.0475073866546154,1.261706829071045,-0.04743260517716408,0.40299999713897705,-0.02436596341431141,0.026614584028720856,-0.026614584028720856,-0.028500860556960106,-0.026614584028720856,-0.028500860556960106,-0.02472088113427162,-0.0,0.2838995158672333,-0.1590621918439865,-0.0940643772482872,0.587599515914917,-0.8090848922729492,0.010410403832793236,-0.8085452914237976,-0.5876085162162781,-0.031156277284026146,-0.1472466140985489,-0.3760210871696472,-0.14759942889213562,0.6939054131507874,-0.13931792974472046,1.1812762022018433,-0.1474326103925705,336.9999694824219
4,-0.056345030665397644,-0.4669840335845947,-0.05657704547047615,0.7289515137672424,-0.05668442323803902,1.2524129152297974,-0.056538697332143784,0.4390000104904175,-0.35447958111763,0.3585667610168457,-0.3601032495498657,-0.3108607530593872,-0.3615262806415558,-0.36023399233818054,-0.36171621084213257,-0.0,0.2844077944755554,-0.1595134735107422,-0.09321318566799164,0.5884504318237305,-0.8084208965301514,0.013479639776051044,-0.8077689409255981,-0.5885372161865234,-0.03366417437791824,-0.15634503960609436,-0.3669840395450592,-0.15657705068588257,0.6643668413162231,-0.15668442845344543,1.1524128913879395,-0.1565386950969696,300.99993896484375
5,-0.06462661176919937,-0.4584244191646576,-0.0651404932141304,0.7207293510437012,-0.06562945246696472,1.2431974411010742,-0.06567738950252533,0.47200000286102295,-0.4656040668487549,0.4649541974067688,-0.4631083905696869,-0.3028087913990021,-0.4575596749782562,-0.4465855360031128,-0.45941808819770813,-0.0,0.2848266065120697,-0.16001848876476288,-0.09264347702264786,0.5864402651786804,-0.8098761439323425,0.01372474990785122,-0.8093018531799316,-0.5865557193756104,-0.03135157376527786,-0.1635277420282364,-0.35842442512512207,-0.16514049470424652,0.6585532426834106,-0.16562944650650024,1.1431974172592163,-0.16567739844322205,268.0
6,-0.08134700357913971,-0.4415985643863678,-0.08211398869752884,0.7068832516670227,-0.08247064054012299,1.2266093492507935,-0.08248214423656464,0.5059999823570251,-0.22102315723896027,0.2222910225391388,-0.22114622592926025,-0.40011274814605713,-0.2258613556623459,-0.23006901144981384,-0.22637711465358734,-0.0,0.2844129204750061,-0.15958422422409058,-0.09322205185890198,0.5866131782531738,-0.809767484664917,0.012711740098893642,-0.8092121481895447,-0.5866976380348206,-0.031008288264274597,-0.17068326473236084,-0.3415985703468323,-0.18211399018764496,0.6570903062820435,-0.1777583807706833,1.1384867429733276,-0.18248215317726135,234.0
7,-0.09567054361104965,-0.4274168908596039,-0.09626688063144684,0.6927859783172607,-0.0963282436132431,1.2129300832748413,-0.0963512510061264,0.5389999747276306,-0.3013203740119934,0.3090367317199707,-0.3103446066379547,-0.1724976748228073,-0.3131062090396881,-0.31276118755340576,-0.3126727342605591,-0.0,0.28458544611930847,-0.15976004302501678,-0.09293646365404129,0.5881850123405457,-0.8086242079734802,0.012854454107582569,-0.8080260753631592,-0.5882627367973328,-0.03226173669099808,-0.17708685994148254,-0.32741689682006836,-0.19626688957214355,0.6653938889503479,-0.1882782280445099,1.1252943277359009,-0.19635125994682312,201.0
8,-0.1113554984331131,-0.4112679064273834,-0.11213015764951706,0.6773790717124939,-0.11273416876792908,1.1964685916900635,-0.11272840946912766,0.5730000138282776,-0.3296692669391632,0.32825061678886414,-0.3291487395763397,-0.07876678556203842,-0.33256885409355164,-0.3290976285934448,-0.32575738430023193,-0.0,0.28501757979393005,-0.16034908592700958,-0.09234393388032913,0.5900980234146118,-0.8072423338890076,0.012003269046545029,-0.8068343997001648,-0.590191125869751,-0.026317492127418518,-0.18363097310066223,-0.3112679123878479,-0.20629754662513733,0.6739020347595215,-0.1959863007068634,1.112531304359436,-0.21272841095924377,166.99993896484375
9,-0.1254892200231552,-0.39708051085472107,-0.12644796073436737,0.669059157371521,-0.1270289421081543,1.182137370109558,-0.12706729769706726,0.6060000061988831,-0.30093151330947876,0.31081753969192505,-0.3027227818965912,0.13928242027759552,-0.30879420042037964,-0.30883586406707764,-0.30954304337501526,-0.0,0.28483515977859497,-0.15998561680316925,-0.09268930554389954,0.5879591703414917,-0.8088144063949585,0.011098535731434822,-0.8082665801048279,-0.5879891514778137,-0.031206240877509117,-0.185053288936615,-0.29708051681518555,-0.20545609295368195,0.695820152759552,-0.19445639848709106,1.1052887439727783,-0.22706729173660278,134.0
10,-0.14149054884910583,-0.38094303011894226,-0.14253173768520355,0.6658991575241089,-0.14316067099571228,1.1660670042037964,-0.1431414932012558,0.6380000114440918,-0.24976909160614014,0.24931952357292175,-0.25285035371780396,0.18343661725521088,-0.25617486238479614,-0.25653210282325745,-0.2561193108558655,-0.0,0.2842503488063812,-0.15939100086688995,-0.09356565773487091,0.5901104211807251,-0.8072541356086731,0.010509812273085117,-0.8067827820777893,-0.5901418924331665,-0.028880538418889046,-0.18281710147857666,-0.28094303607940674,-0.2041654735803604,0.7090523838996887,-0.18982002139091492,1.0942517518997192,-0.24314150214195251,101.99993896484375
11,-0.15661752223968506,-0.36568185687065125,-0.15778526663780212,0.6685088276863098,-0.15841610729694366,1.1507809162139893,-0.15844488143920898,0.6710000038146973,-0.11986282467842102,0.2302386462688446,-0.21624965965747833,0.3302139341831207,-0.1706676334142685,-0.23284901678562164,-0.2330043911933899,-0.0,0.28467488288879395,-0.15993113815784454,-0.09289619326591492,0.5881174206733704,-0.8087107539176941,0.01023751962929964,-0.8082920908927917,-0.5881564021110535,-0.027127515524625778,-0.17592911422252655,-0.2656818628311157,-0.1972261369228363,0.7310588359832764,-0.17705154418945312,1.0843228101730347,-0.2584448754787445,69.0
12,-0.16712145507335663,-0.3535653054714203,-0.1698116660118103,0.6765583753585815,-0.169788658618927,1.138514757156372,-0.1707320660352707,0.703000009059906,-0.004482236225157976,0.33021384477615356,-0.3180851638317108,0.34424832463264465,-0.03488507121801376,-0.3270910382270813,-0.32721906900405884,-0.0,0.285107284784317,-0.1602698564529419,-0.09213032573461533,0.5857114195823669,-0.8104355335235596,0.011677351780235767,-0.8097267150878906,-0.5857147574424744,-0.03578849881887436,-0.17019212245941162,-0.25356531143188477,-0.19975143671035767,0.734647274017334,-0.16438528895378113,1.0745090246200562,-0.2707320749759674,36.99993896484375
13,-0.17443662881851196,-0.3381679952144623,-0.18450720608234406,0.6911503672599792,-0.17837320268154144,1.1229947805404663,-0.18628662824630737,0.7379999756813049,0.0663192942738533,0.2680917978286743,0.0014932877384126186,0.3088899254798889,0.11367876827716827,-0.26228994131088257,-0.26283466815948486,-0.0,0.2851695716381073,-0.16033673286437988,-0.09215645492076874,0.5886152386665344,-0.8083196878433228,0.012304655276238918,-0.8076456785202026,-0.5886513590812683,-0.034612737596035004,-0.17247764766216278,-0.23816800117492676,-0.1976052224636078,0.7493963837623596,-0.15683093667030334,1.0699764490127563,-0.2862866222858429,2.0
14,-0.17657652497291565,-0.32285308837890625,-0.1949363648891449,0.7080702185630798,-0.17964640259742737,1.1076395511627197,-0.20167820155620575,0.7710000276565552,0.057923804968595505,0.30260083079338074,0.0349322147667408,0.1604623645544052,0.2507467567920685,-0.3057940602302551,-0.31057703495025635,-0.0,0.28546303510665894,-0.16067641973495483,-0.09158390760421753,0.5865088105201721,-0.8098399043083191,0.012912294827401638,-0.8092397451400757,-0.5865893363952637,-0.032310932874679565,-0.17180132865905762,-0.22285309433937073,-0.20503024756908417,0.7449565529823303,-0.15331009030342102,1.0613702535629272,-0.29925838112831116,0.0
15,-0.17575393617153168,-0.30805593729019165,-0.19824783504009247,0.7207293510437012,-0.17456509172916412,1.0935231447219849,-0.21654248237609863,0.8050000071525574,0.02119772508740425,0.28216177225112915,0.002967038657516241,0.26335400342941284,0.10850303620100021,-0.07405797392129898,-0.28458619117736816,-0.0,0.28511908650398254,-0.16026055812835693,-0.0922127291560173,0.5889398455619812,-0.8080841302871704,0.012244270183146,-0.8075138330459595,-0.5890026688575745,-0.03157816827297211,-0.17143526673316956,-0.20805594325065613,-0.20636573433876038,0.7624258995056152,-0.15854991972446442,1.0874273777008057,-0.30770304799079895,0.0
16,-0.17442895472049713,-0.29334506392478943,-0.1993618905544281,0.7328248023986816,-0.1679210364818573,1.0828639268875122,-0.23134155571460724,0.8330000042915344,0.004648351110517979,0.2513284385204315,-0.03558450564742088,-0.03969946131110191,0.06041618809103966,-0.18991215527057648,-0.253664493560791,-0.0,0.28401198983192444,-0.15912751853466034,-0.09389033913612366,0.588441789150238,-0.8084945678710938,0.008529465645551682,-0.8079174160957336,-0.5883700251579285,-0.03301665186882019,-0.17222464084625244,-0.1933450698852539,-0.2146025002002716,0.7396751046180725,-0.16390033066272736,1.069770336151123,-0.31186121702194214,0.0
17,-0.17340119183063507,-0.28090447187423706,-0.20051045715808868,0.7404391169548035,-0.1629413515329361,1.0749447345733643,-0.2439432144165039,0.8399999737739563,-0.0005717567983083427,0.13798192143440247,-0.05649907886981964,-0.05304000526666641,-0.03740464523434639,-0.030911050736904144,-0.1376972496509552,-0.0,0.28353092074394226,-0.1586553454399109,-0.09459330886602402,0.5881721377372742,-0.8086917996406555,0.008434656076133251,-0.808167576789856,-0.588117778301239,-0.03134666755795479,-0.17286616563796997,-0.18090447783470154,-0.21830663084983826,0.7480436563491821,-0.16948676109313965,1.0847395658493042,-0.3194297254085541,0.0
18,-0.1726917177438736,-0.2692308723926544,-0.20227070152759552,0.7430276870727539,-0.16017252206802368,1.068394660949707,-0.25550174713134766,0.8399999737739563,-0.005449698306620121,0.3811798691749573,-0.06611916422843933,-0.012200887314975262,-0.07929693907499313,0.10408494621515274,-0.3726208806037903,-0.0,0.28346118330955505,-0.1585845649242401,-0.09475702792406082,0.5889942646026611,-0.8080934882164001,0.008401723578572273,-0.8076282143592834,-0.5889604091644287,-0.029363766312599182,-0.17018643021583557,-0.1692308783531189,-0.21613603830337524,0.7553538084030151,-0.17136356234550476,1.1012461185455322,-0.33506524562835693,0.0
19,-0.17246928811073303,-0.2565736174583435,-0.20506830513477325,0.7437371611595154,-0.1602223813533783,1.0669718980789185,-0.26843321323394775,0.8399999737739563,0.01799056865274906,0.35078760981559753,-0.11118090897798538,0.08148745447397232,-0.07411129027605057,0.3352474868297577,-0.37030065059661865,-0.0,0.2836225628852844,-0.15874813497066498,-0.09444025903940201,0.5878351330757141,-0.8089297413825989,0.009081806056201458,-0.8083524107933044,-0.587783932685852,-0.032808516174554825,-0.16682903468608856,-0.15657362341880798,-0.2147512435913086,0.7720940113067627,-0.16940820217132568,1.1173690557479858,-0.34826749563217163,0.0
20,-0.17226603627204895,-0.23906132578849792,-0.20887641608715057,0.7452577352523804,-0.16282247006893158,1.0739303827285767,-0.28581514954566956,0.8399999737739563,0.03551667556166649,0.26731592416763306,-0.017866862937808037,0.1327514946460724,-0.05706275999546051,0.31769677996635437,-0.2740684151649475,-0.0,0.28354889154434204,-0.1586725413799286,-0.09459302574396133,0.5881025791168213,-0.8087394833564758,0.00870765931904316,-0.8081781268119812,-0.5880436897277832,-0.03244603052735329,-0.16732272505760193,-0.1390613317489624,-0.2149396389722824,0.7888608574867249,-0.1653546690940857,1.1219077110290527,-0.3613126277923584,0.0
21,-0.17168696224689484,-0.2253858745098114,-0.21154361963272095,0.7488970756530762,-0.165455162525177,1.0847008228302002,-0.2995193302631378,0.8399999737739563,0.02003338187932968,0.2457948923110962,-0.003676622174680233,0.3393056392669678,0.021731924265623093,0.2435661107301712,-0.24726438522338867,-0.0,0.2835848331451416,-0.15868745744228363,-0.09453261643648148,0.5877368450164795,-0.8090081810951233,0.008438266813755035,-0.808467447757721,-0.5876765251159668,-0.03188534080982208,-0.16534723341464996,-0.12538588047027588,-0.21215128898620605,0.8121728301048279,-0.15629889070987701,1.1257747411727905,-0.3742500841617584,0.0
22,-0.17046745121479034,-0.21147650480270386,-0.21317538619041443,0.7575257420539856,-0.16707926988601685,1.0973906517028809,-0.31358402967453003,0.8399999737739563,0.026854941621422768,0.32816579937934875,0.018813999369740486,0.3498232960700989,0.06396830081939697,0.10686599463224411,-0.3280945122241974,-0.0,0.28351029753685,-0.15861476957798004,-0.09464249759912491,0.5891953110694885,-0.8079563975334167,0.007442280184477568,-0.8074100613594055,-0.5890960097312927,-0.03247881308197975,-0.1632196307182312,-0.11147650331258774,-0.2112434059381485,0.8228223919868469,-0.15139873325824738,1.127662181854248,-0.3889710307121277,0.0
23,-0.169376403093338,-0.1984836906194687,-0.21378323435783386,0.7697362303733826,-0.16696806252002716,1.1066251993179321,-0.3268471956253052,0.8399999737739563,0.03832027688622475,0.29358434677124023,0.0384017713367939,0.40930885076522827,0.14336055517196655,0.08165914565324783,-0.29414430260658264,-0.0,0.28406772017478943,-0.15929795801639557,-0.09389203041791916,0.5907552242279053,-0.8068169951438904,0.007386297453194857,-0.8063715100288391,-0.5906950235366821,-0.02905702404677868,-0.1626700609922409,-0.09848368912935257,-0.21024002134799957,0.8377760052680969,-0.14530539512634277,1.1329479217529297,-0.40184012055397034,0.0
24,-0.16804184019565582,-0.18365393579006195,-0.2137218713760376,0.7861325740814209,-0.1639595329761505,1.114235758781433,-0.34177282452583313,0.8399999737739563,0.02757277898490429,0.32706743478775024,0.01853993535041809,0.24670153856277466,0.11905282735824585,0.1041271835565567,-0.3339962363243103,-0.0,0.2837337255477905,-0.15887661278247833,-0.0942922830581665,0.5883089900016785,-0.8085951209068298,0.00815102644264698,-0.8079821467399597,-0.5882086157798767,-0.0342855229973793,-0.1620692014694214,-0.08365393429994583,-0.21290895342826843,0.8380408883094788,-0.14565524458885193,1.14348566532135,-0.4150414764881134,0.0
25,-0.16650402545928955,-0.16805526614189148,-0.21290311217308044,0.8022738695144653,-0.1587248295545578,1.120177984237671,-0.3576265275478363,0.8399999737739563,0.020416216924786568,0.3100217580795288,-0.009070056490600109,0.23059161007404327,0.0880984365940094,0.13794726133346558,-0.3124029040336609,-0.0,0.2844925820827484,-0.159738689661026,-0.09312263876199722,0.5875839591026306,-0.8091024160385132,0.009919727221131325,-0.8084754347801208,-0.5875456929206848,-0.034022264182567596,-0.1631241738796234,-0.06805526465177536,-0.21438191831111908,0.8485603928565979,-0.145391047000885,1.1523717641830444,-0.42969101667404175,0.0
26,-0.16503332555294037,-0.15200982987880707,-0.21216487884521484,0.8162657022476196,-0.1535399705171585,1.1263234615325928,-0.3737678527832031,0.8399999737739563,0.00020161311840638518,0.2877162992954254,-0.023924443870782852,0.1381893754005432,0.016908396035432816,0.18811076879501343,-0.28998732566833496,-0.0,0.2836543619632721,-0.15873408317565918,-0.0944184884428978,0.5889657139778137,-0.8081240057945251,0.00741173978894949,-0.8076450824737549,-0.5888938903808594,-0.03022211417555809,-0.16431868076324463,-0.05200982838869095,-0.2176719605922699,0.8517858982086182,-0.14858366549015045,1.1655495166778564,-0.4428861141204834,0.0
27,-0.1639096885919571,-0.13468734920024872,-0.21214954555034637,0.8282000422477722,-0.14970694482326508,1.1348658800125122,-0.3911823630332947,0.8399999737739563,-0.011809142306447029,0.2644121050834656,-0.043987005949020386,0.16598965227603912,-0.012043710798025131,0.20396709442138672,-0.26890113949775696,-0.0,0.2846064865589142,-0.15974488854408264,-0.09292932599782944,0.5867846012115479,-0.8096830248832703,0.009860522113740444,-0.8090656399726868,-0.5867482423782349,-0.03375232219696045,-0.16513296961784363,-0.0346873477101326,-0.21831974387168884,0.8658371567726135,-0.14861539006233215,1.1740381717681885,-0.4589827060699463,0.0
28,-0.16351084411144257,-0.11956996470689774,-0.21292036771774292,0.8375688791275024,-0.14795053005218506,1.1437361240386963,-0.40643587708473206,0.8399999737739563,-0.01266555953770876,0.28915274143218994,-0.02563031204044819,0.08069667965173721,-0.0120666129514575,0.19087070226669312,-0.2908858358860016,-0.0,0.2843993902206421,-0.15958762168884277,-0.09327911585569382,0.587319016456604,-0.8092896938323975,0.010325007140636444,-0.8086943626403809,-0.5873070359230042,-0.03292233124375343,-0.16542860865592957,-0.01957695186138153,-0.219858318567276,0.8697106838226318,-0.14822107553482056,1.1820635795593262,-0.47201406955718994,0.0
29,-0.1634955108165741,-0.10637198388576508,-0.2142549306154251,0.8440748453140259,-0.14757086336612701,1.1525564193725586,-0.4198562800884247,0.8410000205039978,-0.01078854687511921,0.3199860751628876,-0.0300158578902483,0.2373426854610443,-0.004112848546355963,0.1707143932580948,-0.3217191696166992,-0.0,0.2844007611274719,-0.15964727103710175,-0.09327913820743561,0.5869647264480591,-0.8095376491546631,0.011007648892700672,-0.8088769912719727,-0.5869567394256592,-0.034638289362192154,-0.16381628811359406,-0.006371982395648956,-0.2162150740623474,0.8887739181518555,-0.14331932365894318,1.1880502700805664,-0.4860953986644745,0.0
30,-0.16369108855724335,-0.09122966974973679,-0.21575823426246643,0.8519614338874817,-0.1475670337677002,1.1618753671646118,-0.4351366460323334,0.8410000205039978,0.0064536454156041145,0.29358357191085815,-0.0006368493777699769,0.09601204097270966,0.024043140932917595,0.1373346596956253,-0.29633480310440063,-0.0,0.28466662764549255,-0.15987522900104523,-0.09288483113050461,0.5875327587127686,-0.8091434836387634,0.009598408825695515,-0.8086000084877014,-0.5875123739242554,-0.0315471775829792,-0.16421258449554443,0.0027295351028442383,-0.21871326863765717,0.889503538608551,-0.1422627568244934,1.1921817064285278,-0.4976988434791565,0.0
31,-0.16412827372550964,-0.07453995943069458,-0.21703143417835236,0.8606130480766296,-0.14746733009815216,1.1713650226593018,-0.4518992304801941,0.8399999737739563,0.0017546232556924224,0.1918337643146515,-0.006647041533142328,0.2731601595878601,0.03399352356791496,0.11019545048475266,-0.19456425309181213,-0.0,0.2845546007156372,-0.15979692339897156,-0.09303949773311615,0.5876608490943909,-0.8090326189994812,0.010995701886713505,-0.8084116578102112,-0.587664783000946,-0.03347696736454964,-0.1643459051847458,0.017471350729465485,-0.2161799669265747,0.9113863110542297,-0.1370428204536438,1.1958824396133423,-0.5131714344024658,0.0
32,-0.16428358852863312,-0.061520300805568695,-0.21741876006126404,0.8694411516189575,-0.1465776115655899,1.1782621145248413,-0.46486330032348633,0.8399999737739563,7.58215828682296e-05,0.31509265303611755,0.012283654883503914,0.18335163593292236,0.05822117254137993,0.07295902073383331,-0.3107532560825348,-0.0,0.2848884165287018,-0.16005097329616547,-0.09252308309078217,0.5878185033798218,-0.8089157342910767,0.011167852208018303,-0.808274507522583,-0.5878221988677979,-0.03401981666684151,-0.16372829675674438,0.028759613633155823,-0.21578902006149292,0.9143784046173096,-0.1351134330034256,1.2003229856491089,-0.5253332257270813,0.0
33,-0.16435645520687103,-0.04832039400935173,-0.21761050820350647,0.8798261880874634,-0.14499761164188385,1.1840624809265137,-0.47795581817626953,0.8410000205039978,0.005278357770293951,0.30212122201919556,0.0139771094545722,0.2886720299720764,0.06235165521502495,0.07738862186670303,-0.2753278613090515,-0.0,0.2847539782524109,-0.1599455326795578,-0.09271764755249023,0.5866725444793701,-0.8097595572471619,0.010235907509922981,-0.8091055154800415,-0.5866374373435974,-0.03470964357256889,-0.1637551486492157,0.04113548621535301,-0.21396733820438385,0.9298442602157593,-0.1315857470035553,1.206778883934021,-0.537666916847229,0.0
34,-0.16437946259975433,-0.033785928040742874,-0.2175472378730774,0.8909456133842468,-0.14269472658634186,1.1888638734817505,-0.49232345819473267,0.8399999737739563,0.002413013717159629,0.3323582708835602,0.020513005554676056,0.15126238763332367,0.05528467521071434,0.10655419528484344,-0.3199683129787445,-0.0,0.284677654504776,-0.15987823903560638,-0.09283321350812912,0.5879576206207275,-0.808823823928833,0.010477807372808456,-0.8081949949264526,-0.587939441204071,-0.033883288502693176,-0.16516685485839844,0.04832899942994118,-0.21674542129039764,0.9299411177635193,-0.13299788534641266,1.217284083366394,-0.5497466921806335,0.0
35,-0.16437946259975433,-0.019983934238553047,-0.2171369045972824,0.9008705019950867,-0.1402614563703537,1.193218469619751,-0.5054926872253418,0.8399999737739563,-0.00937432050704956,0.1983124017715454,-0.004196700174361467,0.1705193817615509,0.02933480218052864,0.1335182785987854,-0.16562440991401672,-0.0,0.2848670482635498,-0.16010582447052002,-0.09252305328845978,0.5877571105957031,-0.8089632391929626,0.010955625213682652,-0.8083581924438477,-0.5877645611763,-0.033011749386787415,-0.16775214672088623,0.053566478192806244,-0.21915392577648163,0.939076840877533,-0.1338246464729309,1.2232671976089478,-0.5597083568572998,0.0
36,-0.16437754034996033,-0.006080316379666328,-0.21648111939430237,0.9100379347801208,-0.13773614168167114,1.1990399360656738,-0.5181863903999329,0.8410000205039978,-0.030907968059182167,0.3760857582092285,-0.02936479076743126,0.15197768807411194,0.007553754840046167,0.16051997244358063,-0.29061052203178406,-0.0,0.28465068340301514,-0.15985269844532013,-0.09289320558309555,0.5874632000923157,-0.8091729879379272,0.011225255206227303,-0.8085243105888367,-0.5874669551849365,-0.034220241010189056,-0.16649702191352844,0.06738509982824326,-0.21836581826210022,0.9462819695472717,-0.13346442580223083,1.2356163263320923,-0.5721254348754883,0.0
37,-0.16443122923374176,0.008406214416027069,-0.21640442311763763,0.9185093641281128,-0.13600081205368042,1.2061748504638672,-0.5309107303619385,0.8399999737739563,-0.008113992400467396,0.3172673285007477,-0.009170758537948132,0.18093952536582947,0.01290410291403532,0.17708615958690643,-0.2755291759967804,-0.0,0.28410661220550537,-0.1592269390821457,-0.09373542666435242,0.5888988971710205,-0.8081517219543457,0.00942519772797823,-0.8076452612876892,-0.5888844132423401,-0.03040127456188202,-0.16752862930297852,0.07693973183631897,-0.2177523970603943,0.956143319606781,-0.131329745054245,1.2453017234802246,-0.5844630002975464,0.0
38,-0.16511577367782593,0.024687502533197403,-0.21682050824165344,0.9271360635757446,-0.13490018248558044,1.2141706943511963,-0.5444289445877075,0.8399999737739563,-0.012058444321155548,0.3017948567867279,0.0018684406531974673,0.19712357223033905,0.02449745684862137,0.22672125697135925,-0.25278201699256897,-0.0,0.28496766090393066,-0.16016539931297302,-0.09244031459093094,0.5867019295692444,-0.8097190856933594,0.011653315275907516,-0.809013843536377,-0.586704671382904,-0.03569590672850609,-0.16858242452144623,0.08765637874603271,-0.21740049123764038,0.9675313830375671,-0.1298629641532898,1.2552262544631958,-0.5969138741493225,0.0
39,-0.1658961921930313,0.04058529809117317,-0.21735931932926178,0.9362133741378784,-0.13401047885417938,1.223919153213501,-0.5580276846885681,0.8410000205039978,-0.01584211364388466,0.2825501561164856,0.004105255473405123,0.19690528512001038,0.042440176010131836,0.19080457091331482,-0.23463958501815796,-0.0,0.28516045212745667,-0.16039468348026276,-0.09208272397518158,0.5858188271522522,-0.8103580474853516,0.01166966650635004,-0.8096161484718323,-0.5858110189437866,-0.036702703684568405,-0.16933318972587585,0.09768684208393097,-0.21701890230178833,0.9765278100967407,-0.12742790579795837,1.259708285331726,-0.6086136102676392,0.0
40,-0.16657306253910065,0.05614177882671356,-0.21755298972129822,0.9459311962127686,-0.1328408122062683,1.2340549230575562,-0.5711547136306763,0.8410000205039978,0.013612776063382626,0.26543503999710083,0.006267272401601076,0.22665119171142578,0.03623150289058685,0.15393339097499847,-0.26268449425697327,-0.0,0.28550833463668823,-0.16073162853717804,-0.09158165007829666,0.5895110368728638,-0.807682454586029,0.01121521182358265,-0.8071691989898682,-0.589553952217102,-0.030066344887018204,-0.17004650831222534,0.1097710058093071,-0.21542659401893616,0.987373948097229,-0.12605856359004974,1.2642194032669067,-0.6218581795692444,0.0
41,-0.1669987291097641,0.06968874484300613,-0.2175721675157547,0.9550487399101257,-0.13155227899551392,1.242535948753357,-0.5826941132545471,0.8399999737739563,-0.03192120045423508,0.26546186208724976,0.020436856895685196,0.21025431156158447,0.032756686210632324,0.10773663222789764,-0.27495428919792175,-0.0,0.2855919897556305,-0.16084466874599457,-0.09144983440637589,0.5862476825714111,-0.8100422024726868,0.012050232850015163,-0.8093689680099487,-0.5862762331962585,-0.03467077016830444,-0.17191162705421448,0.11778701841831207,-0.21518081426620483,0.9942000508308411,-0.12560971081256866,1.2657594680786133,-0.631526529788971,0.0
42,-0.1673227846622467,0.08387231826782227,-0.21747054159641266,0.9657943248748779,-0.1299799382686615,1.2504302263259888,-0.5960205793380737,0.8410000205039978,-0.04143369197845459,0.2076234519481659,0.013780320063233376,0.18105967342853546,0.022041287273168564,0.07704810053110123,-0.25390005111694336,-0.0,0.2843603789806366,-0.1594357043504715,-0.09336438030004501,0.5883975028991699,-0.8085095286369324,0.010032636113464832,-0.8079674243927002,-0.5883921384811401,-0.03135741874575615,-0.17353565990924835,0.1232508197426796,-0.21666032075881958,0.998066246509552,-0.12525629997253418,1.2729542255401611,-0.6428744196891785,0.0
43,-0.1684061586856842,0.09823804348707199,-0.2168377786874771,0.9773509502410889,-0.12830215692520142,1.2571816444396973,-0.6107333302497864,0.8399999737739563,-0.030444646254181862,0.11901167035102844,-0.008633813820779324,0.10885605961084366,0.01102652307599783,0.09009192883968353,-0.16982875764369965,-0.0,0.28514689207077026,-0.16037306189537048,-0.09215935319662094,0.5876671075820923,-0.8090299367904663,0.010859225876629353,-0.8084469437599182,-0.5876781940460205,-0.03237055242061615,-0.1770990788936615,0.12575067579746246,-0.2203458845615387,1.0005900859832764,-0.12696854770183563,1.2793605327606201,-0.6554032564163208,0.0
44,-0.16988645493984222,0.10853297263383865,-0.21637757122516632,0.9860025644302368,-0.1271190643310547,1.2621996402740479,-0.6223570704460144,0.8399999737739563,-0.05418562516570091,0.06129961460828781,-0.041716910898685455,0.05266080051660538,-0.01240905188024044,0.14544878900051117,-0.21705354750156403,-0.0,0.2843310534954071,-0.1594856083393097,-0.09341344982385635,0.5888625979423523,-0.8081695437431335,0.010140580125153065,-0.807611346244812,-0.5888553261756897,-0.031832076609134674,-0.18039387464523315,0.12810325622558594,-0.22459131479263306,1.0011249780654907,-0.12982407212257385,1.298672080039978,-0.6684905290603638,0.0
45,-0.17140509188175201,0.11505430936813354,-0.21642550826072693,0.991446316242218,-0.1265227347612381,1.267133355140686,-0.6323816776275635,0.8410000205039978,-0.04630094766616821,0.038920819759368896,-0.019840408116579056,0.02674604207277298,-0.02872585318982601,0.12343581020832062,-0.1995629221200943,-0.0,0.2852272689342499,-0.16047552227973938,-0.09203506261110306,0.5877361297607422,-0.8089726567268372,0.01137831062078476,-0.8083065748214722,-0.587739884853363,-0.03467399999499321,-0.18257319927215576,0.13048028945922852,-0.22404654324054718,1.0036824941635132,-0.13115260004997253,1.2967555522918701,-0.676840603351593,0.0
46,-0.1735430806875229,0.12000907212495804,-0.21717141568660736,0.9954404234886169,-0.12646521627902985,1.2734284400939941,-0.6433687806129456,0.8399999737739563,-0.015867630019783974,0.047235313802957535,-0.04714518040418625,0.03713621571660042,0.0018748333677649498,0.2801329493522644,-0.14882519841194153,-0.0,0.28546932339668274,-0.16071215271949768,-0.09169697016477585,0.588504433631897,-0.8084148168563843,0.011315211653709412,-0.8079834580421448,-0.5885725021362305,-0.02729746140539646,-0.18131336569786072,0.13323283195495605,-0.2253776341676712,1.0101594924926758,-0.12799161672592163,1.321215271949768,-0.6899194717407227,0.0
47,-0.17535701394081116,0.12314222753047943,-0.2180822193622589,0.9978947639465332,-0.1267509162425995,1.281213402748108,-0.6522237062454224,0.8399999737739563,-0.02863241732120514,0.04268346354365349,-0.03612719476222992,0.06319023668766022,-0.0068962471559643745,0.14295591413974762,-0.2325557917356491,-0.0,0.28416556119918823,-0.15926505625247955,-0.09369101375341415,0.5893783569335938,-0.8077800273895264,0.011158551089465618,-0.8073433041572571,-0.589439868927002,-0.027520684525370598,-0.1820351481437683,0.1385776400566101,-0.22120049595832825,1.0123615264892578,-0.1264793425798416,1.3114920854568481,-0.6974571943283081,0.0
48,-0.17684306204319,0.12611240148544312,-0.21979835629463196,1.0004948377609253,-0.12692731618881226,1.291481375694275,-0.6629692316055298,0.8410000205039978,-0.019095001742243767,0.05669035017490387,-0.005658240057528019,0.04884198680520058,0.005214776378124952,0.27307507395744324,-0.1573752760887146,-0.0,0.28440895676612854,-0.1595681607723236,-0.09329809993505478,0.5875020027160645,-0.809140145778656,0.01155834924429655,-0.8086456060409546,-0.5875625014305115,-0.029369058087468147,-0.18079417943954468,0.13807018101215363,-0.22171662747859955,1.0162192583084106,-0.12484480440616608,1.3323074579238892,-0.7079779505729675,0.0
49,-0.17814502120018005,0.12859168648719788,-0.22127290070056915,1.0033270120620728,-0.1270749717950821,1.3015366792678833,-0.6722919940948486,0.8399999737739563,-0.008286680094897747,0.04842531308531761,0.005549888126552105,0.06317994743585587,0.01715700887143612,0.1668289750814438,-0.14555317163467407,-0.0,0.28531286120414734,-0.1605098694562912,-0.09186143428087234,0.5894584059715271,-0.8076700568199158,0.014416813850402832,-0.8071703910827637,-0.5896098613739014,-0.02891724929213524,-0.1806698590517044,0.14199376106262207,-0.2180311381816864,1.02055025100708,-0.1227266937494278,1.3178915977478027,-0.7148314118385315,0.0
50,-0.17908458411693573,0.13088883459568024,-0.22182896733283997,1.005815863609314,-0.12708072364330292,1.3107635974884033,-0.6800865530967712,0.8399999737739563,-0.003612167900428176,0.06594748795032501,0.03141606226563454,0.11457420885562897,0.03073384240269661,0.10123909264802933,-0.29554423689842224,-0.0,0.2853814363479614,-0.16058030724525452,-0.09180804342031479,0.5889151096343994,-0.8080655932426453,0.0144534632563591,-0.8075542449951172,-0.5890661478042603,-0.02927877940237522,-0.18061092495918274,0.15049538016319275,-0.2132057100534439,1.0285429954528809,-0.12077725678682327,1.3133535385131836,-0.7247340679168701,0.0
51,-0.17971159517765045,0.1335560381412506,-0.22182704508304596,1.0095856189727783,-0.12654191255569458,1.318711519241333,-0.6904581785202026,0.8399999737739563,-0.0018323021940886974,0.09722473472356796,0.06550858169794083,0.1181827113032341,0.03752487525343895,-0.1637076735496521,-0.15701663494110107,-0.0,0.28536170721054077,-0.1605806052684784,-0.09181053191423416,0.5892903208732605,-0.8077847957611084,0.01485582534223795,-0.8072661757469177,-0.5894532203674316,-0.029430978000164032,-0.17809727787971497,0.15054795145988464,-0.20793381333351135,1.027823567390442,-0.11724692583084106,1.275585412979126,-0.7263902425765991,0.0
52,-0.18012769520282745,0.13696147501468658,-0.22074559330940247,1.0146055221557617,-0.12531089782714844,1.3209012746810913,-0.7008758187294006,0.8399999737739563,0.014574059285223484,0.11687320470809937,0.05778341367840767,0.09963645786046982,0.03507816046476364,-0.1410977840423584,-0.2256520539522171,-0.0,0.28450363874435425,-0.15969225764274597,-0.09315315634012222,0.5887926816940308,-0.8081980347633362,0.011793825775384903,-0.8077230453491211,-0.5888649225234985,-0.028663793578743935,-0.17900100350379944,0.15446117520332336,-0.20859289169311523,1.0290240049362183,-0.11635494232177734,1.2860029935836792,-0.7373397350311279,0.0
53,-0.18024274706840515,0.14153465628623962,-0.2183123081922531,1.0201969146728516,-0.1237117126584053,1.3178601264953613,-0.7111017107963562,0.8410000205039978,0.003979158122092485,0.035459645092487335,0.032625459134578705,0.012494922615587711,0.02494373545050621,-0.39053067564964294,-0.01815546117722988,-0.0,0.285517156124115,-0.16071435809135437,-0.09157770872116089,0.5899002552032471,-0.8073420524597168,0.014713588170707226,-0.8067912459373474,-0.5900523662567139,-0.030431142076849937,-0.1804862767457962,0.14511874318122864,-0.21298494935035706,1.0190578699111938,-0.1195046603679657,1.2616018056869507,-0.7367352247238159,0.0
54,-0.18023507297039032,0.14525264501571655,-0.21576015651226044,1.0237308740615845,-0.12210103869438171,1.308600664138794,-0.7184974551200867,0.8410000205039978,-0.008996129035949707,0.004626312293112278,0.000991215929389,-0.018338410183787346,0.004005362745374441,-0.3968588411808014,-0.11864405125379562,-0.0,0.2855881154537201,-0.16082412004470825,-0.09144064784049988,0.5896875858306885,-0.8074827790260315,0.015495266765356064,-0.8068954348564148,-0.5898606777191162,-0.031370680779218674,-0.1854991912841797,0.14755114912986755,-0.21578282117843628,1.0165190696716309,-0.1229778528213501,1.2591818571090698,-0.7451266050338745,0.0
55,-0.18012002110481262,0.14736570417881012,-0.21414180099964142,1.0251919031143188,-0.12097164243459702,1.2953393459320068,-0.7235039472579956,0.8410000205039978,-0.03980708867311478,-0.03793690353631973,-0.03303379938006401,-0.1286136955022812,-0.02685382403433323,-0.2671501040458679,-0.15552827715873718,-0.0,0.2853547930717468,-0.16055458784103394,-0.09184281527996063,0.5893917083740234,-0.8077130913734436,0.014728263951838017,-0.807256817817688,-0.5895599722862244,-0.02748650684952736,-0.19081827998161316,0.14279162883758545,-0.22299271821975708,1.0063844919204712,-0.12874186038970947,1.2732641696929932,-0.7510842084884644,0.0
56,-0.18029451370239258,0.14785273373126984,-0.21350136399269104,1.0237864255905151,-0.12054788321256638,1.2786458730697632,-0.7304701209068298,0.8399999737739563,-0.0712067261338234,-0.027519680559635162,-0.06902796030044556,-0.11260925978422165,-0.06651091575622559,0.0010659779654815793,-0.12445582449436188,-0.0,0.28512564301490784,-0.16030927002429962,-0.09220607578754425,0.5901288986206055,-0.8071824312210083,0.014295153319835663,-0.8067108988761902,-0.5902807116508484,-0.02803918905556202,-0.19355788826942444,0.14235076308250427,-0.22779671847820282,1.0084624290466309,-0.1313907355070114,1.3032116889953613,-0.7629589438438416,0.0
57,-0.1819608062505722,0.14774152636528015,-0.21421657502651215,1.020574688911438,-0.12131103873252869,1.270116925239563,-0.7369416356086731,0.8399999737739563,-0.052942804992198944,-0.026364877820014954,-0.07653527706861496,-0.1002221331000328,-0.05165988951921463,0.26533156633377075,-0.10713622719049454,-0.0,0.28561311960220337,-0.1608753651380539,-0.09138626605272293,0.5898869633674622,-0.8073385953903198,0.015418139286339283,-0.8067834973335266,-0.59006267786026,-0.030437905341386795,-0.19307583570480347,0.1408613920211792,-0.23071160912513733,1.012223243713379,-0.13086208701133728,1.334394097328186,-0.7757458090782166,0.0
58,-0.18508820235729218,0.14670991897583008,-0.21710047125816345,1.0155757665634155,-0.12362159788608551,1.2702338695526123,-0.7439826130867004,0.8399999737739563,-0.028600728139281273,0.0064836544916033745,-0.0662689357995987,0.0069025116972625256,-0.02746187336742878,0.48383116722106934,-0.17216207087039948,-0.0,0.2842811644077301,-0.15945592522621155,-0.09348854422569275,0.5883707404136658,-0.8085257411003113,0.010295224376022816,-0.8080525398254395,-0.5883957147598267,-0.0290088951587677,-0.18988747894763947,0.14639858901500702,-0.22678615152835846,1.0206102132797241,-0.1276656836271286,1.3551912307739258,-0.7897067666053772,0.0
59,-0.18779568374156952,0.14571475982666016,-0.22042344510555267,1.0127686262130737,-0.1259033977985382,1.2818039655685425,-0.7509660720825195,0.8399999737739563,0.0022233922500163317,0.012630239129066467,-0.03561453893780708,0.048014458268880844,0.0031386027112603188,0.5043065547943115,-0.22901275753974915,-0.0,0.2853906750679016,-0.16059628129005432,-0.09176404029130936,0.5894007682800293,-0.8077097535133362,0.014550714753568172,-0.8071074485778809,-0.5895374417304993,-0.03198637068271637,-0.18908652663230896,0.15057727694511414,-0.22237172722816467,1.0265755653381348,-0.12536807358264923,1.3582730293273926,-0.7976958751678467,0.0
60,-0.18939676880836487,0.14570899307727814,-0.2231251746416092,1.0121012926101685,-0.12731273472309113,1.298614501953125,-0.7588852047920227,0.8399999737739563,0.013509406708180904,0.026462478563189507,0.024574734270572662,0.13655425608158112,0.0273364819586277,0.18618544936180115,-0.3274402618408203,-0.0,0.28515639901161194,-0.16035196185112,-0.09212332218885422,0.5901529788970947,-0.807150661945343,0.0150723522529006,-0.8066993355751038,-0.5903323292732239,-0.027275172993540764,-0.18787501752376556,0.15988853573799133,-0.21199330687522888,1.034611463546753,-0.11954958736896515,1.328338384628296,-0.8013524413108826,0.0
61,-0.1901426762342453,0.146232470870018,-0.2247646152973175,1.014567255973816,-0.12777292728424072,1.3173232078552246,-0.7717668414115906,0.8399999737739563,0.014518240466713905,0.0679612085223198,0.0691583901643753,0.0965813621878624,0.05193227156996727,0.1395532339811325,-0.1221008375287056,-0.0,0.28409501910209656,-0.15922331809997559,-0.09380494058132172,0.5889448523521423,-0.8081077337265015,0.010288837365806103,-0.8076441884040833,-0.5889722108840942,-0.02868053689599037,-0.18422043323516846,0.1553811877965927,-0.20952551066875458,1.0330021381378174,-0.11430694162845612,1.3281806707382202,-0.8071615695953369,0.0
62,-0.1901637613773346,0.1475670337677002,-0.2244175523519516,1.0189179182052612,-0.127285897731781,1.3280956745147705,-0.7814251780509949,0.8410000205039978,0.043808549642562866,0.06153921037912369,0.13066928088665009,0.07243157923221588,0.08731400221586227,-0.10099950432777405,-0.10912733525037766,-0.0,0.28500059247016907,-0.16020163893699646,-0.0923587754368782,0.5882322192192078,-0.8085862398147583,0.013079481199383736,-0.8079878091812134,-0.5883179306983948,-0.03221219405531883,-0.18199126422405243,0.1560429334640503,-0.20361030101776123,1.0334569215774536,-0.11121692508459091,1.2948614358901978,-0.8105428218841553,0.0
63,-0.18966713547706604,0.15010769665241241,-0.22159118950366974,1.0236139297485352,-0.12502902746200562,1.3338711261749268,-0.789752721786499,0.8399999737739563,0.03670570254325867,0.013817433267831802,0.10998217016458511,0.04093746468424797,0.11081752181053162,-0.2410794496536255,-0.1554328203201294,-0.0,0.285028874874115,-0.16025176644325256,-0.09234056621789932,0.5896981954574585,-0.8075116276741028,0.013455118052661419,-0.80706387758255,-0.589827835559845,-0.027405036613345146,-0.18298977613449097,0.1557713896036148,-0.20370838046073914,1.0320279598236084,-0.11066335439682007,1.2857887744903564,-0.8169006705284119,0.0
64,-0.18793565034866333,0.15227635204792023,-0.21682626008987427,1.0273970365524292,-0.12102149426937103,1.331424355506897,-0.7974782586097717,0.8399999737739563,0.017392035573720932,0.009050149470567703,0.05773473531007767,0.0030633779242634773,0.042727403342723846,-0.45796701312065125,-0.06013717129826546,-0.0,0.2844959497451782,-0.15964141488075256,-0.09312979876995087,0.5891079306602478,-0.8079583048820496,0.012460242956876755,-0.8074554800987244,-0.5891948938369751,-0.029411494731903076,-0.18425050377845764,0.1520174741744995,-0.20791108906269073,1.0245834589004517,-0.11529158055782318,1.2717872858047485,-0.8174891471862793,0.0
65,-0.18614089488983154,0.15379498898983002,-0.21237772703170776,1.0297574996948242,-0.11753936111927032,1.3201879262924194,-0.8033955693244934,0.8410000205039978,-0.00216155918315053,-0.020519761368632317,0.026796339079737663,-0.028035452589392662,0.011894126422703266,-0.36816054582595825,-0.0901334285736084,-0.0,0.285162091255188,-0.16035106778144836,-0.09218304604291916,0.5902052521705627,-0.8071600794792175,0.012261265888810158,-0.8066946864128113,-0.5902937650680542,-0.028230790048837662,-0.19053828716278076,0.15157628059387207,-0.21170948445796967,1.0220756530761719,-0.11979332566261292,1.2750104665756226,-0.8241352438926697,0.0
66,-0.18514573574066162,0.15439708530902863,-0.2094823271036148,1.0304592847824097,-0.11534768342971802,1.3056573867797852,-0.8081164360046387,0.8410000205039978,-0.03391001373529434,-0.02348562516272068,-0.050744518637657166,-0.086025670170784,-0.0632920116186142,-0.2515241205692291,-0.08670251071453094,-0.0,0.2853427231311798,-0.16053566336631775,-0.0918014645576477,0.588047444820404,-0.8086839914321899,0.01517864502966404,-0.8080622553825378,-0.588204026222229,-0.03242528811097145,-0.19556529819965363,0.14940425753593445,-0.218401700258255,1.0157686471939087,-0.1275186836719513,1.282921314239502,-0.8296285271644592,0.0
67,-0.18487919867038727,0.15419958531856537,-0.20829157531261444,1.0288236141204834,-0.1149756982922554,1.287707805633545,-0.8137096762657166,0.8399999737739563,-0.07054100185632706,-0.03741650655865669,-0.08828939497470856,-0.10198407620191574,-0.10360724478960037,0.12190509587526321,-0.11633190512657166,-0.0,0.2850511074066162,-0.16028091311454773,-0.09231607615947723,0.5908998250961304,-0.8066306114196777,0.013580634258687496,-0.8062041401863098,-0.591036319732666,-0.026663560420274734,-0.19936209917068481,0.14741528034210205,-0.22593504190444946,1.0162575244903564,-0.13273683190345764,1.3293077945709229,-0.8439698219299316,0.0
68,-0.18686187267303467,0.15324659645557404,-0.2097776234149933,1.0253894329071045,-0.1173495277762413,1.2810484170913696,-0.8188561797142029,0.8410000205039978,-0.10392530262470245,-0.01932157762348652,-0.10642379522323608,-0.09623780101537704,-0.11630715429782867,0.17624051868915558,-0.10999436676502228,-0.0,0.2861872613430023,-0.1614554524421692,-0.09048574417829514,0.5881271958351135,-0.8086262941360474,0.015160351991653442,-0.8079439401626587,-0.5882706046104431,-0.03412129357457161,-0.2001400589942932,0.14702290296554565,-0.22627346217632294,1.0168449878692627,-0.13486289978027344,1.3293086290359497,-0.8494899272918701,0.0
69,-0.1909230798482895,0.15165892243385315,-0.21389253437519073,1.0207912921905518,-0.12221033126115799,1.2826879024505615,-0.8248080611228943,0.8399999737739563,-0.035852883011102676,-0.02237405627965927,-0.027222493663430214,0.006439172197133303,-0.05978342145681381,0.4668475091457367,-0.1408277004957199,-0.0,0.2857930660247803,-0.16103032231330872,-0.09112811088562012,0.5887985229492188,-0.8081262111663818,0.01575799472630024,-0.8074594140052795,-0.5889672040939331,-0.03356952220201492,-0.19655650854110718,0.1513286828994751,-0.22194704413414001,1.02738618850708,-0.12912675738334656,1.3603087663650513,-0.8643544316291809,0.0
70,-0.19400063157081604,0.1504700928926468,-0.21712347865104675,1.0184674263000488,-0.1257634162902832,1.2919243574142456,-0.8301520347595215,0.8410000205039978,-0.005829390604048967,0.00774035882204771,-0.03212171420454979,0.03727250546216965,-0.030545901507139206,0.39215224981307983,-0.22276343405246735,-0.0,0.28552576899528503,-0.16075074672698975,-0.09154260158538818,0.5896091461181641,-0.8075411915779114,0.015436417423188686,-0.8069224953651428,-0.589774489402771,-0.03228234872221947,-0.1952357143163681,0.156463161110878,-0.21721993386745453,1.0305002927780151,-0.12574240565299988,1.356724500656128,-0.8691149950027466,0.0
71,-0.19602549076080322,0.1495707929134369,-0.21930555999279022,1.0178422927856445,-0.1287393420934677,1.3078739643096924,-0.838211178779602,0.8410000205039978,0.027053741738200188,0.061088599264621735,0.025682711973786354,0.13341762125492096,0.05951191857457161,0.36622047424316406,-0.2815942168235779,-0.0,0.2851385176181793,-0.1603464037179947,-0.09216652065515518,0.5895289778709412,-0.8076337575912476,0.013537399470806122,-0.8070936799049377,-0.5896433591842651,-0.030338965356349945,-0.19189044833183289,0.1641722172498703,-0.20899932086467743,1.0412116050720215,-0.11678346991539001,1.358411431312561,-0.8772834539413452,0.0
72,-0.1967579573392868,0.14985458552837372,-0.22025279700756073,1.0203043222427368,-0.12950441241264343,1.325390100479126,-0.8490065932273865,0.8410000205039978,0.049631454050540924,0.13664552569389343,0.09686950594186783,0.1642259806394577,0.10112810134887695,0.1476891040802002,-0.15684132277965546,-0.0,0.2848506569862366,-0.16001927852630615,-0.09257112443447113,0.5889227390289307,-0.8081099390983582,0.011328339576721191,-0.8075167536735535,-0.5889465808868408,-0.03253564611077309,-0.18823176622390747,0.16698697209358215,-0.20096628367900848,1.045586347579956,-0.1093340665102005,1.3329670429229736,-0.8803391456604004,0.0
73,-0.196478009223938,0.15279023349285126,-0.21893548965454102,1.0258419513702393,-0.12768280506134033,1.3401200771331787,-0.8593878149986267,0.8399999737739563,0.03775959834456444,0.07510066032409668,0.12767013907432556,0.15066157281398773,0.14103366434574127,0.030111165717244148,-0.12543824315071106,-0.0,0.28440916538238525,-0.15962323546409607,-0.09334259480237961,0.5912331342697144,-0.8064318895339966,0.010537725873291492,-0.8060464859008789,-0.591288149356842,-0.025832755491137505,-0.1875804364681244,0.1659264862537384,-0.1971488744020462,1.047139048576355,-0.10572989284992218,1.3227438926696777,-0.8874483704566956,0.0
74,-0.1949843019247055,0.15760502219200134,-0.21485893428325653,1.0327448844909668,-0.12302909046411514,1.3487468957901,-0.8679301738739014,0.8399999737739563,0.03679709881544113,0.01643831469118595,0.0981443002820015,0.04632715508341789,0.09035483747720718,-0.3062616288661957,-0.05900343880057335,-0.0,0.28472915291786194,-0.15990111231803894,-0.09286037087440491,0.5909252166748047,-0.8066502213478088,0.011080751195549965,-0.8062683343887329,-0.5909968018531799,-0.02557559497654438,-0.18729233741760254,0.16042083501815796,-0.19887427985668182,1.0382227897644043,-0.1092931255698204,1.2952781915664673,-0.8868972659111023,0.0
75,-0.19299395382404327,0.16116002202033997,-0.21011510491371155,1.0381273031234741,-0.11823348701000214,1.3483115434646606,-0.8738532662391663,0.8399999737739563,0.020792340859770775,-0.014060581102967262,0.0698709562420845,0.015493820421397686,0.061579421162605286,-0.40842100977897644,-0.07236732542514801,-0.0,0.284737229347229,-0.15987958014011383,-0.09283730387687683,0.5912415385246277,-0.8064161539077759,0.011242593638598919,-0.8060453534126282,-0.5913200378417969,-0.025128865614533424,-0.19069916009902954,0.15990644693374634,-0.202278733253479,1.035703420639038,-0.11213704198598862,1.2911275625228882,-0.8903868198394775,0.0
76,-0.1909269243478775,0.16307558119297028,-0.20508939027786255,1.0415633916854858,-0.11343596130609512,1.3351058959960938,-0.8793985843658447,0.8399999737739563,-0.009669414721429348,-0.01642923802137375,-0.007675718050450087,-0.09351261705160141,-0.025969229638576508,-0.41710227727890015,-0.06587222218513489,-0.0,0.28484833240509033,-0.16003695130348206,-0.09257291257381439,0.5889452695846558,-0.8080533742904663,0.013898373581469059,-0.8075459003448486,-0.5890786051750183,-0.02925749309360981,-0.19671499729156494,0.15573501586914062,-0.21104303002357483,1.024497628211975,-0.12104792147874832,1.2902588844299316,-0.8928349614143372,0.0
77,-0.18976300954818726,0.16311393678188324,-0.20264461636543274,1.0413888692855835,-0.11159326881170273,1.3181458711624146,-0.8830015063285828,0.8399999737739563,-0.04996684938669205,-0.06713004410266876,-0.04815983399748802,-0.11662013828754425,-0.056296661496162415,-0.10461362451314926,-0.08272935450077057,-0.0,0.28477737307548523,-0.15992344915866852,-0.09280446916818619,0.5904058218002319,-0.807020366191864,0.01179504580795765,-0.8065531849861145,-0.5904790759086609,-0.028398023918271065,-0.20296621322631836,0.1533888578414917,-0.21678011119365692,1.022318959236145,-0.1259140968322754,1.3159353733062744,-0.9022579193115234,0.0
78,-0.18989531695842743,0.16217820346355438,-0.20243561267852783,1.0385241508483887,-0.11185404658317566,1.305490493774414,-0.8863091468811035,0.8399999737739563,-0.07113905996084213,-0.03916769474744797,-0.1462530493736267,-0.175204336643219,-0.14416085183620453,0.01838536188006401,-0.0669291540980339,-0.0,0.28561532497406006,-0.16082842648029327,-0.09140824526548386,0.5878555178642273,-0.8088457584381104,0.013943726196885109,-0.8081735372543335,-0.5879552364349365,-0.03411990776658058,-0.20497865974903107,0.15045225620269775,-0.2239522635936737,1.0170804262161255,-0.13469034433364868,1.327652096748352,-0.907509982585907,0.0
79,-0.19192975759506226,0.16010348498821259,-0.20516610145568848,1.0327372550964355,-0.115021713078022,1.2981868982315063,-0.8896283507347107,0.8410000205039978,-0.039487507194280624,-0.05348801985383034,-0.09072568267583847,-0.025205904617905617,-0.08086121082305908,0.3315598666667938,-0.11344270408153534,-0.0,0.2853144109249115,-0.16060835123062134,-0.09189797937870026,0.5904542803764343,-0.8069857358932495,0.01173752173781395,-0.8066427707672119,-0.5905522704124451,-0.023988895118236542,-0.20284384489059448,0.156033456325531,-0.22054219245910645,1.0309017896652222,-0.12920527160167694,1.361732006072998,-0.9216132760047913,0.0
80,-0.19485199451446533,0.1578523814678192,-0.20946699380874634,1.0278457403182983,-0.119217149913311,1.3001196384429932,-0.8936741948127747,0.8399999737739563,-0.06548524647951126,-0.0388261079788208,-0.11456425487995148,-0.06232191249728203,-0.13387711346149445,0.40366119146347046,-0.1394922137260437,-0.0,0.2847925126552582,-0.1599777191877365,-0.0926954597234726,0.5896439552307129,-0.8075791597366333,0.011656050570309162,-0.8070634603500366,-0.5897007584571838,-0.03002532385289669,-0.20185120403766632,0.15331625938415527,-0.22258539497852325,1.0260257720947266,-0.13353872299194336,1.3731173276901245,-0.9272216558456421,0.0
81,-0.1970801055431366,0.15572014451026917,-0.2136969417333603,1.0246492624282837,-0.12363501638174057,1.309975504875183,-0.8984909057617188,0.8399999737739563,-0.01128900796175003,-0.0012693522730842233,-0.02443457953631878,0.11171074211597443,0.005888255313038826,0.4979178309440613,-0.21149039268493652,-0.0,0.28480467200279236,-0.15998445451259613,-0.09268306940793991,0.5887125730514526,-0.8082373142242432,0.01303558237850666,-0.8076758980751038,-0.5888054370880127,-0.031109463423490524,-0.19728535413742065,0.16389507055282593,-0.21265047788619995,1.0423036813735962,-0.12098703533411026,1.3794326782226562,-0.9358662962913513,0.0
82,-0.1994750201702118,0.1545063853263855,-0.21776007115840912,1.0240434408187866,-0.12777484953403473,1.331000566482544,-0.9079287052154541,0.8410000205039978,0.01842786744236946,0.024119338020682335,-0.0004004885267931968,0.023475201800465584,-0.01900138147175312,0.1634531170129776,-0.16077274084091187,-0.0,0.28518927097320557,-0.160398930311203,-0.09207771718502045,0.5897874236106873,-0.807445228099823,0.013526813127100468,-0.8069344162940979,-0.5899073481559753,-0.029429737478494644,-0.19507025182247162,0.16257038712501526,-0.20651769638061523,1.03666090965271,-0.11958888918161392,1.3451123237609863,-0.9355454444885254,0.0
83,-0.20030337572097778,0.15425710380077362,-0.21945512294769287,1.0253089666366577,-0.1297747790813446,1.3469769954681396,-0.917182445526123,0.8399999737739563,0.032575104385614395,0.08137493580579758,0.08734152466058731,0.23557129502296448,0.1437549889087677,0.08704259246587753,-0.07079487293958664,-0.0,0.28524500131607056,-0.16044151782989502,-0.09201119095087051,0.5897434949874878,-0.8074871301651001,0.012928451411426067,-0.8069533109664917,-0.589838445186615,-0.03028133511543274,-0.18912330269813538,0.17212823033332825,-0.19470663368701935,1.0555516481399536,-0.10488630831241608,1.3310227394104004,-0.9440270662307739,0.0
84,-0.20022860169410706,0.15585245192050934,-0.2187226563692093,1.030142903327942,-0.12869715690612793,1.3574810028076172,-0.9243442416191101,0.8399999737739563,0.06228373199701309,0.05947066470980644,0.11798926442861557,0.09023214876651764,0.05834246799349785,-0.27501797676086426,-0.06540072709321976,-0.0,0.28488966822624207,-0.16004224121570587,-0.09253262728452682,0.5880526304244995,-0.8087403178215027,0.011539816856384277,-0.8081448674201965,-0.5880840420722961,-0.03254309296607971,-0.18600046634674072,0.16642947494983673,-0.19412726163864136,1.044267177581787,-0.10943242162466049,1.3005738258361816,-0.9418976902961731,0.0
85,-0.1989688128232956,0.15834516286849976,-0.2153804898262024,1.0366910696029663,-0.12564069032669067,1.3589823246002197,-0.9294159412384033,0.8399999737739563,0.06355404853820801,0.0904349535703659,0.174526646733284,0.1715596616268158,0.2500787675380707,-0.4460917115211487,-0.08186237514019012,-0.0,0.28446200489997864,-0.15963764488697052,-0.0932668149471283,0.5910441279411316,-0.8065854907035828,0.009308909066021442,-0.8062657713890076,-0.5910822749137878,-0.02360583283007145,-0.1829829066991806,0.16910885274410248,-0.1896253228187561,1.05235755443573,-0.09727812558412552,1.288976788520813,-0.9443035125732422,0.0
86,-0.19667358696460724,0.16165857017040253,-0.21006524562835693,1.0424684286117554,-0.12016821652650833,1.3510363101959229,-0.9335404634475708,0.8399999737739563,0.08857090026140213,0.01536324992775917,0.0817737877368927,0.02853783220052719,0.123304083943367,-0.47855010628700256,-0.04980280622839928,-0.0,0.2851029932498932,-0.160288006067276,-0.09219963103532791,0.5878347158432007,-0.8088802099227905,0.012771832756698132,-0.8082908987998962,-0.5879120230674744,-0.03201941400766373,-0.18927913904190063,0.16473644971847534,-0.19858011603355408,1.0403763055801392,-0.10584860295057297,1.2892197370529175,-0.9447861909866333,0.0
87,-0.19285781681537628,0.16457121074199677,-0.20347680151462555,1.048479676246643,-0.11201895028352737,1.3330235481262207,-0.9373581409454346,0.8410000205039978,0.07866154611110687,0.011041145771741867,0.11530300974845886,-0.029602868482470512,0.09298323094844818,-0.298252135515213,-0.03674181550741196,-0.0,0.2847946882247925,-0.15998831391334534,-0.0927644670009613,0.591442883014679,-0.8062693476676941,0.011182449758052826,-0.805899441242218,-0.5915197730064392,-0.025109389796853065,-0.1966460645198822,0.16283302009105682,-0.203245609998703,1.0351547002792358,-0.10764198005199432,1.2999001741409302,-0.9473103880882263,0.0
88,-0.18969781696796417,0.16607068479061127,-0.19857381284236908,1.0503627061843872,-0.10653305053710938,1.3172273635864258,-0.9398239850997925,0.8399999737739563,-0.10709714889526367,-0.0437823124229908,-0.12229712307453156,-0.19916227459907532,-0.11224000155925751,-0.05922376364469528,-0.04483296349644661,-0.0,0.283834308385849,-0.1590256690979004,-0.09416685998439789,0.5907787680625916,-0.8067706227302551,0.01007672119885683,-0.8063211441040039,-0.5908025503158569,-0.028258705511689186,-0.2067987024784088,0.1528833508491516,-0.22359973192214966,1.0190331935882568,-0.1302056908607483,1.3340026140213013,-0.9541508555412292,0.0
89,-0.18833449482917786,0.16640815138816833,-0.19630736112594604,1.0480847358703613,-0.10438355803489685,1.305202841758728,-0.9420789480209351,0.8410000205039978,-0.1156337633728981,-0.073513925075531,-0.1643548607826233,-0.12825776636600494,-0.08901768922805786,0.18673992156982422,-0.06431013345718384,-0.0,0.28502076864242554,-0.1602756828069687,-0.09224246442317963,0.5880433917045593,-0.8086764216423035,0.0157295074313879,-0.8079202175140381,-0.5881931185722351,-0.03596826270222664,-0.2089260220527649,0.15482880175113678,-0.22584861516952515,1.0277855396270752,-0.13019795715808868,1.356774926185608,-0.9644443988800049,0.0
90,-0.1909019947052002,0.16530369222164154,-0.19903017580509186,1.0426563024520874,-0.10578139871358871,1.3023842573165894,-0.9445294737815857,0.8410000205039978,-0.0898459255695343,-0.06261057406663895,-0.17980420589447021,-0.12325174361467361,-0.25208044052124023,0.47664064168930054,-0.09582377970218658,-0.0,0.28502076864242554,-0.1602756828069687,-0.09224246442317963,0.5880433917045593,-0.8086764216423035,0.0157295074313879,-0.8079202175140381,-0.5881931185722351,-0.03596826270222664,-0.20731723308563232,0.15540385246276855,-0.2292124330997467,1.028991460800171,-0.1418500542640686,1.390227198600769,-0.9764900207519531,0.0
91,-0.19580881297588348,0.1622050404548645,-0.20617851614952087,1.0366756916046143,-0.1124158650636673,1.3122400045394897,-0.948247492313385,0.8410000205039978,-0.05846023932099342,-0.019664593040943146,-0.11446984857320786,-0.006001346278935671,-0.09081535786390305,0.4551056921482086,-0.17824701964855194,-0.0,0.28502076864242554,-0.1602756828069687,-0.09224246442317963,0.5880433917045593,-0.8086764216423035,0.0157295074313879,-0.8079202175140381,-0.5881931185722351,-0.03596826270222664,-0.20406889915466309,0.16283132135868073,-0.21956878900527954,1.038953423500061,-0.12904664874076843,1.3853888511657715,-0.9805119633674622,0.0
92,-0.20014998316764832,0.15977752208709717,-0.21316197514533997,1.0329021215438843,-0.11955270916223526,1.3292787075042725,-0.9540248513221741,0.8399999737739563,-0.0024343030527234077,0.012273716740310192,-0.07551151514053345,0.02504316158592701,-0.23136749863624573,0.1521393060684204,-0.1864880472421646,-0.0,0.28502076864242554,-0.1602756828069687,-0.09224246442317963,0.5880433917045593,-0.8086764216423035,0.0157295074313879,-0.8079202175140381,-0.5881931185722351,-0.03596826270222664,-0.20215877890586853,0.16936682164669037,-0.2112673819065094,1.0383737087249756,-0.13456261157989502,1.3521522283554077,-0.9797520637512207,0.0
93,-0.2029322385787964,0.15836817026138306,-0.21875716745853424,1.0313278436660767,-0.12751981616020203,1.344482421875,-0.9615739583969116,0.8410000205039978,0.02255282551050186,0.07350823283195496,0.08214955776929855,0.05231698602437973,-0.030202994123101234,0.09806523472070694,-0.06097809597849846,-0.0,0.28502076864242554,-0.1602756828069687,-0.09224246442317963,0.5880433917045593,-0.8086764216423035,0.0157295074313879,-0.8079202175140381,-0.5881931185722351,-0.03596826270222664,-0.19497713446617126,0.1686941534280777,-0.2009465992450714,1.044018030166626,-0.11623089760541916,1.340975046157837,-0.9817752838134766,0.0
94,-0.20407313108444214,0.15855801105499268,-0.22078777849674225,1.0317631959915161,-0.13437287509441376,1.3547906875610352,-0.9678172469139099,0.8399999737739563,0.05312541499733925,0.07003603130578995,0.1458899825811386,0.07695136964321136,0.10342010855674744,-0.1929081231355667,-0.052571654319763184,-0.0,0.28502076864242554,-0.1602756828069687,-0.09224246442317963,0.5880433917045593,-0.8086764216423035,0.0157295074313879,-0.8079202175140381,-0.5881931185722351,-0.03596826270222664,-0.1867852658033371,0.16845014691352844,-0.19230389595031738,1.0460325479507446,-0.10783926397562027,1.308202862739563,-0.9828525185585022,0.0
95,-0.20392931997776031,0.16058477759361267,-0.21913491189479828,1.033542513847351,-0.13615037500858307,1.3576093912124634,-0.9719839096069336,0.8399999737739563,0.10103254020214081,0.022717460989952087,0.14615876972675323,0.05784013494849205,0.2953323721885681,-0.2517526149749756,-0.03445352613925934,-0.0,0.28502076864242554,-0.1602756828069687,-0.09224246442317963,0.5880433917045593,-0.8086764216423035,0.0157295074313879,-0.8079202175140381,-0.5881931185722351,-0.03596826270222664,-0.18298101425170898,0.16429020464420319,-0.18954423069953918,1.045919418334961,-0.09933293610811234,1.3063864707946777,-0.9855214357376099,0.0
96,-0.20146729052066803,0.16320404410362244,-0.21357806026935577,1.0367025136947632,-0.13102497160434723,1.3524476289749146,-0.9757364392280579,0.8399999737739563,0.1324591040611267,-0.007711633574217558,0.1296357363462448,0.039028722792863846,0.12855641543865204,-0.46983280777931213,-0.04929473623633385,-0.0,0.28502076864242554,-0.1602756828069687,-0.09224246442317963,0.5880433917045593,-0.8086764216423035,0.0157295074313879,-0.8079202175140381,-0.5881931185722351,-0.03596826270222664,-0.18637067079544067,0.16549518704414368,-0.19269712269306183,1.0408228635787964,-0.10731702297925949,1.2895119190216064,-0.98533695936203,0.0
97,-0.1971261203289032,0.16482047736644745,-0.207173690199852,1.0393928289413452,-0.12314414232969284,1.3393205404281616,-0.9783231019973755,0.8410000205039978,0.0817883238196373,-0.0019836837891489267,0.09878672659397125,0.00841378141194582,0.22463594377040863,-0.24083280563354492,-0.02523466944694519,-0.0,0.28502076864242554,-0.1602756828069687,-0.09224246442317963,0.5880433917045593,-0.8086764216423035,0.0157295074313879,-0.8079202175140381,-0.5881931185722351,-0.03596826270222664,-0.19211411476135254,0.16269001364707947,-0.19649909436702728,1.0392740964889526,-0.10141386091709137,1.3031866550445557,-0.9885889291763306,0.0
98,-0.1924915760755539,0.16537079215049744,-0.20177599787712097,1.0412852764129639,-0.11543780565261841,1.3255549669265747,-0.9804112315177917,0.8399999737739563,-0.03582194074988365,-0.027829134836792946,-0.014911416918039322,-0.04017319530248642,0.07680010050535202,-0.15288661420345306,-0.05047779530286789,-0.0,0.28502076864242554,-0.1602756828069687,-0.09224246442317963,0.5880433917045593,-0.8086764216423035,0.0157295074313879,-0.8079202175140381,-0.5881931185722351,-0.03596826270222664,-0.201008141040802,0.16019359230995178,-0.20793835818767548,1.032582402229309,-0.11268173158168793,1.3103588819503784,-0.9918479919433594,0.0
99,-0.18938718736171722,0.16544750332832336,-0.19784517586231232,1.0418586730957031,-0.10770078748464584,1.3133100271224976,-0.9824763536453247,0.8410000205039978,-0.1119217723608017,-0.005343127995729446,-0.05509958788752556,-0.07147117704153061,-0.059727784246206284,0.09508350491523743,-0.057712845504283905,-0.0,0.28502076864242554,-0.1602756828069687,-0.09224246442317963,0.5880433917045593,-0.8086764216423035,0.0157295074313879,-0.8079202175140381,-0.5881931185722351,-0.03596826270222664,-0.20696565508842468,0.15777717530727386,-0.21666792035102844,1.0309839248657227,-0.12526053190231323,1.3408551216125488,-0.9983736872673035,0.0
100,-0.1900717318058014,0.1650601625442505,-0.19727760553359985,1.0407350063323975,-0.10456763207912445,1.3072699308395386,-0.9852585792541504,0.8410000205039978,-0.10695313662290573,-0.08971839398145676,-0.17715272307395935,-0.06438422948122025,-0.16648006439208984,0.13982918858528137,-0.06551732122898102,-0.0,0.28502076864242554,-0.1602756828069687,-0.09224246442317963,0.5880433917045593,-0.8086764216423035,0.0157295074313879,-0.8079202175140381,-0.5881931185722351,-0.03596826270222664,-0.20977333188056946,0.15704147517681122,-0.2227003574371338,1.0284314155578613,-0.13495373725891113,1.3483787775039673,-1.005298376083374,0.0
101,-0.1933908760547638,0.16396720707416534,-0.2004452645778656,1.038163661956787,-0.10647168755531311,1.3077991008758545,-0.9877992868423462,0.8410000205039978,-0.09122124314308167,0.020124526694417,-0.10791024565696716,-0.051696375012397766,-0.1653432846069336,0.39547091722488403,-0.09635055065155029,-0.0,0.28502076864242554,-0.1602756828069687,-0.09224246442317963,0.5880433917045593,-0.8086764216423035,0.0157295074313879,-0.8079202175140381,-0.5881931185722351,-0.03596826270222664,-0.20718204975128174,0.16025158762931824,-0.2213408350944519,1.0343950986862183,-0.13396042585372925,1.3790606260299683,-1.0135700702667236,0.0
102,-0.1979103684425354,0.16230091452598572,-0.2058851420879364,1.0355923175811768,-0.11207455396652222,1.3157355785369873,-0.9913350939750671,0.8399999737739563,-0.061244916170835495,-0.06479109078645706,-0.12816090881824493,-0.0221130158752203,-0.24966275691986084,0.4048618674278259,-0.11579638719558716,-0.0,0.28502076864242554,-0.1602756828069687,-0.09224246442317963,0.5880433917045593,-0.8086764216423035,0.0157295074313879,-0.8079202175140381,-0.5881931185722351,-0.03596826270222664,-0.20754732191562653,0.1619243323802948,-0.22093017399311066,1.034748911857605,-0.13950705528259277,1.38420832157135,-1.0196267366409302,0.0
103,-0.2019907534122467,0.16120220720767975,-0.21177755296230316,1.0333412885665894,-0.12068785727024078,1.3303793668746948,-0.99623042345047,0.8410000205039978,0.017270419746637344,-0.024096406996250153,-0.015432233922183514,0.026386260986328125,-0.02111477218568325,0.3862007260322571,-0.16865122318267822,-0.0,0.28502076864242554,-0.1602756828069687,-0.09224246442317963,0.5880433917045593,-0.8086764216423035,0.0157295074313879,-0.8079202175140381,-0.5881931185722351,-0.03596826270222664,-0.20249292254447937,0.1669047772884369,-0.21020552515983582,1.043703556060791,-0.12041136622428894,1.3829039335250854,-1.0238869190216064,0.0
104,-0.20421311259269714,0.15972191095352173,-0.21575823426246643,1.0327889919281006,-0.1269579976797104,1.345885992050171,-1.0016396045684814,0.8410000205039978,0.01464123371988535,0.055657319724559784,0.015428067184984684,0.05636073276400566,-0.07530161738395691,0.14519938826560974,-0.18327367305755615,-0.0,0.28502076864242554,-0.1602756828069687,-0.09224246442317963,0.5880433917045593,-0.8086764216423035,0.0157295074313879,-0.8079202175140381,-0.5881931185722351,-0.03596826270222664,-0.19901080429553986,0.1733779013156891,-0.20208671689033508,1.0462777614593506,-0.12043149024248123,1.3542230129241943,-1.0233707427978516,0.0
105,-0.20463304221630096,0.159507155418396,-0.21771788597106934,1.033412218093872,-0.13199712336063385,1.3613063097000122,-1.0093458890914917,0.8410000205039978,0.03358137980103493,0.08004047721624374,0.10559730231761932,0.06641897559165955,0.1803315430879593,0.04306008294224739,-0.02886085771024227,-0.0,0.28502076864242554,-0.1602756828069687,-0.09224246442317963,0.5880433917045593,-0.8086764216423035,0.0157295074313879,-0.8079202175140381,-0.5881931185722351,-0.03596826270222664,-0.19042930006980896,0.16870227456092834,-0.1933704912662506,1.0498664379119873,-0.10348803550004959,1.339751958847046,-1.0251432657241821,0.0
106,-0.20437610149383545,0.16079378128051758,-0.21695473790168762,1.0355559587478638,-0.13253402709960938,1.3689762353897095,-1.014362096786499,0.8410000205039978,0.06517636775970459,0.05373751372098923,0.14378303289413452,0.08293884247541428,0.24177248775959015,-0.2764958143234253,-0.03670062497258186,-0.0,0.28502076864242554,-0.1602756828069687,-0.09224246442317963,0.5880433917045593,-0.8086764216423035,0.0157295074313879,-0.8079202175140381,-0.5881931185722351,-0.03596826270222664,-0.1850060373544693,0.16809743642807007,-0.18860796093940735,1.0504804849624634,-0.10010399669408798,1.3120087385177612,-1.0253195762634277,0.0
107,-0.2026580423116684,0.16362781822681427,-0.21279573440551758,1.0388309955596924,-0.12671256065368652,1.3688745498657227,-1.0183944702148438,0.8399999737739563,0.10830022394657135,0.0061906990595161915,0.14796534180641174,0.05660826340317726,0.17087134718894958,-0.4628964066505432,-0.022488154470920563,-0.0,0.28502076864242554,-0.1602756828069687,-0.09224246442317963,0.5880433917045593,-0.8086764216423035,0.0157295074313879,-0.8079202175140381,-0.5881931185722351,-0.03596826270222664,-0.18673467636108398,0.16689810156822205,-0.19088776409626007,1.0470575094223022,-0.10301146656274796,1.3011503219604492,-1.0258241891860962,0.0
108,-0.19897456467151642,0.1655472069978714,-0.20656201243400574,1.0422747135162354,-0.11895829439163208,1.3575941324234009,-1.0208277702331543,0.8399999737739563,0.09246689081192017,-0.005774358287453651,0.11256321519613266,0.0329429917037487,0.10272053629159927,-0.5024717450141907,-0.006623675115406513,-0.0,0.28502076864242554,-0.1602756828069687,-0.09224246442317963,0.5880433917045593,-0.8086764216423035,0.0157295074313879,-0.8079202175140381,-0.5881931185722351,-0.03596826270222664,-0.19211405515670776,0.1660696566104889,-0.19563378393650055,1.0429624319076538,-0.10633659362792969,1.294562578201294,-1.0259029865264893,0.0
109,-0.19508400559425354,0.16654813289642334,-0.20105119049549103,1.0446696281433105,-0.11287030577659607,1.3411977291107178,-1.022170066833496,0.8399999737739563,0.026082031428813934,-0.01101228129118681,0.027399832382798195,-0.03346843644976616,0.0106855733320117,-0.22607769072055817,-0.08165697753429413,-0.0,0.28502076864242554,-0.1602756828069687,-0.09224246442317963,0.5880433917045593,-0.8086764216423035,0.0157295074313879,-0.8079202175140381,-0.5881931185722351,-0.03596826270222664,-0.20126831531524658,0.16559891402721405,-0.2034914642572403,1.0370086431503296,-0.1143907755613327,1.311897873878479,-1.030570387840271,0.0
110,-0.19169390201568604,0.1669047772884369,-0.19665057957172394,1.0458259582519531,-0.10847161710262299,1.3235551118850708,-1.0238229036331177,0.8399999737739563,-0.07625890523195267,-0.007097987458109856,-0.06517401337623596,-0.0564681701362133,-0.05182619392871857,-0.17635029554367065,-0.02098955027759075,-0.0,0.28502076864242554,-0.1602756828069687,-0.09224246442317963,0.5880433917045593,-0.8086764216423035,0.0157295074313879,-0.8079202175140381,-0.5881931185722351,-0.03596826270222664,-0.2063644975423813,0.1616290807723999,-0.2119215428829193,1.0317813158035278,-0.12172441184520721,1.3119512796401978,-1.0312557220458984,0.0
111,-0.19084830582141876,0.16691245138645172,-0.19534479081630707,1.0453561544418335,-0.10709870606660843,1.310247778892517,-1.0259877443313599,0.8399999737739563,-0.11351598799228668,-0.036126233637332916,-0.10048605501651764,-0.08728881925344467,-0.09725412726402283,0.1259901076555252,-0.02448204532265663,-0.0,0.28502076864242554,-0.1602756828069687,-0.09224246442317963,0.5880433917045593,-0.8086764216423035,0.0157295074313879,-0.8079202175140381,-0.5881931185722351,-0.03596826270222664,-0.20971742272377014,0.15835067629814148,-0.21879616379737854,1.0306885242462158,-0.12792222201824188,1.3475263118743896,-1.039966344833374,0.0
112,-0.19291150569915771,0.16657496988773346,-0.19700339436531067,1.0430264472961426,-0.10842368006706238,1.3040485382080078,-1.0276674032211304,0.8399999737739563,-0.12689854204654694,-0.041201066225767136,-0.20761315524578094,-0.09796067327260971,-0.15549823641777039,0.2631642818450928,-0.05466211214661598,-0.0,0.28502076864242554,-0.1602756828069687,-0.09224246442317963,0.5880433917045593,-0.8086764216423035,0.0157295074313879,-0.8079202175140381,-0.5881931185722351,-0.03596826270222664,-0.2100352793931961,0.1582827866077423,-0.22408586740493774,1.0295770168304443,-0.13377544283866882,1.3660407066345215,-1.046755313873291,0.0
113,-0.19691327214241028,0.16543982923030853,-0.20178557932376862,1.0395193099975586,-0.11249831318855286,1.3061692714691162,-1.0292531251907349,0.8399999737739563,-0.043249573558568954,-0.0314159169793129,-0.03480897471308708,-0.0029622786678373814,-0.10627847909927368,0.49943506717681885,-0.10707114636898041,-0.0,0.28502076864242554,-0.1602756828069687,-0.09224246442317963,0.5880433917045593,-0.8086764216423035,0.0157295074313879,-0.8079202175140381,-0.5881931185722351,-0.03596826270222664,-0.2072743922472,0.16431871056556702,-0.217247873544693,1.0405936241149902,-0.1288582682609558,1.3876701593399048,-1.0564227104187012,0.0
114,-0.2015746682882309,0.16359329223632812,-0.20763197541236877,1.036771535873413,-0.11780013889074326,1.3178563117980957,-1.032319188117981,0.8410000205039978,-0.014737511985003948,-0.0005831514135934412,-0.10187173634767532,0.03720741719007492,-0.084538035094738,0.47689709067344666,-0.15382806956768036,-0.0,0.28502076864242554,-0.1602756828069687,-0.09224246442317963,0.5880433917045593,-0.8086764216423035,0.0157295074313879,-0.8079202175140381,-0.5881931185722351,-0.03596826270222664,-0.20514774322509766,0.1695302426815033,-0.21487702429294586,1.0442322492599487,-0.12629354000091553,1.3904310464859009,-1.0599651336669922,0.0
115,-0.20446045696735382,0.1622510701417923,-0.21186767518520355,1.0361963510513306,-0.12265902012586594,1.336154818534851,-1.0374637842178345,0.8399999737739563,0.016166575253009796,0.06476691365242004,0.020927689969539642,0.055757660418748856,0.014017063193023205,0.13873931765556335,-0.22512339055538177,-0.0,0.28502076864242554,-0.1602756828069687,-0.09224246442317963,0.5880433917045593,-0.8086764216423035,0.0157295074313879,-0.8079202175140381,-0.5881931185722351,-0.03596826270222664,-0.20175638794898987,0.1753690242767334,-0.20113182067871094,1.0479954481124878,-0.11397875845432281,1.3517693281173706,-1.0569288730621338,0.0
116,-0.2060001939535141,0.16240063309669495,-0.21496440470218658,1.0373162031173706,-0.12571930885314941,1.353327751159668,-1.0459773540496826,0.8410000205039978,0.02372843213379383,0.05415402725338936,0.03867994248867035,0.04227115213871002,0.03312666714191437,0.18706588447093964,-0.02088606357574463,-0.0,0.28502076864242554,-0.1602756828069687,-0.09224246442317963,0.5880433917045593,-0.8086764216423035,0.0157295074313879,-0.8079202175140381,-0.5881931185722351,-0.03596826270222664,-0.19875097274780273,0.17139214277267456,-0.20068538188934326,1.0490479469299316,-0.11160425841808319,1.361931324005127,-1.0623060464859009,0.0
117,-0.20619003474712372,0.16386941075325012,-0.21539007127285004,1.0392106771469116,-0.12630030512809753,1.3638278245925903,-1.0513310432434082,0.8410000205039978,0.04970251023769379,0.029818445444107056,0.11080286651849747,0.05494429171085358,0.10652055591344833,0.017063474282622337,-0.028345853090286255,-0.0,0.28502076864242554,-0.1602756828069687,-0.09224246442317963,0.5880433917045593,-0.8086764216423035,0.0157295074313879,-0.8079202175140381,-0.5881931185722351,-0.03596826270222664,-0.19515709578990936,0.1720430999994278,-0.19413405656814575,1.0513904094696045,-0.10578098893165588,1.3417737483978271,-1.064430594444275,0.0
118,-0.2055649310350418,0.16615696251392365,-0.21348410844802856,1.0414042472839355,-0.1246551126241684,1.371436357498169,-1.0548686981201172,0.8399999737739563,0.06582555919885635,0.021822825074195862,0.14383524656295776,0.05337719991803169,0.15105903148651123,-0.31234464049339294,-0.04644268751144409,-0.0,0.28502076864242554,-0.1602756828069687,-0.09224246442317963,0.5880433917045593,-0.8086764216423035,0.0157295074313879,-0.8079202175140381,-0.5881931185722351,-0.03596826270222664,-0.19094111025333405,0.17124134302139282,-0.19036443531513214,1.0509073734283447,-0.10245996713638306,1.3149261474609375,-1.0625327825546265,0.0
119,-0.20345762372016907,0.16819332540035248,-0.20861947536468506,1.0441672801971436,-0.1197463721036911,1.3693443536758423,-1.0578562021255493,0.8399999737739563,0.09399000555276871,0.004821391310542822,0.09269942343235016,0.02713240310549736,0.08595740795135498,-0.406963586807251,-0.01789424940943718,-0.0,0.28502076864242554,-0.1602756828069687,-0.09224246442317963,0.5880433917045593,-0.8086764216423035,0.0157295074313879,-0.8079202175140381,-0.5881931185722351,-0.03596826270222664,-0.19315844774246216,0.17060241103172302,-0.19348609447479248,1.0475943088531494,-0.10575415939092636,1.3097766637802124,-1.0632859468460083,0.0
120,-0.20059867203235626,0.16943201422691345,-0.20340585708618164,1.0463091135025024,-0.11479353159666061,1.3592853546142578,-1.0597736835479736,0.8399999737739563,0.045197222381830215,-0.0024805262219160795,0.03861571103334427,-0.008701162412762642,0.032293424010276794,-0.47014719247817993,-0.01230748649686575,-0.0,0.28502076864242554,-0.1602756828069687,-0.09224246442317963,0.5880433917045593,-0.8086764216423035,0.0157295074313879,-0.8079202175140381,-0.5881931185722351,-0.03596826270222664,-0.19765019416809082,0.16822780668735504,-0.19867216050624847,1.0422379970550537,-0.11036879569292068,1.3021396398544312,-1.0627014636993408,0.0
121,-0.1970359981060028,0.17023544013500214,-0.1984836906194687,1.0479063987731934,-0.11016474664211273,1.3405516147613525,-1.06125009059906,0.8399999737739563,-0.022593511268496513,-0.023122934624552727,-0.01636866293847561,-0.05135153979063034,-0.02235928364098072,-0.1546335071325302,0.0010867788223549724,-0.0,0.28502076864242554,-0.1602756828069687,-0.09224246442317963,0.5880433917045593,-0.8086764216423035,0.0157295074313879,-0.8079202175140381,-0.5881931185722351,-0.03596826270222664,-0.20545285940170288,0.1650932878255844,-0.20606893301010132,1.0375176668167114,-0.11679431796073914,1.3226838111877441,-1.0671732425689697,0.0
122,-0.19531986117362976,0.17039650678634644,-0.196339949965477,1.0479849576950073,-0.1083143800497055,1.326283574104309,-1.0620189905166626,0.8410000205039978,-0.07499656826257706,-0.03491287678480148,-0.07992972433567047,-0.06488188356161118,-0.07080525159835815,-0.060267750173807144,-0.026086097583174706,-0.0,0.28502076864242554,-0.1602756828069687,-0.09224246442317963,0.5880433917045593,-0.8086764216423035,0.0157295074313879,-0.8079202175140381,-0.5881931185722351,-0.03596826270222664,-0.2093776911497116,0.16376206278800964,-0.21169953048229218,1.0345828533172607,-0.12295258045196533,1.3295066356658936,-1.0700178146362305,0.0
123,-0.19538696110248566,0.1701088845729828,-0.19638022780418396,1.046508550643921,-0.10836615413427353,1.3160865306854248,-1.0627515316009521,0.8399999737739563,-0.11247958242893219,-0.0429077222943306,-0.11542441695928574,-0.08619381487369537,-0.10398460179567337,0.24582868814468384,-0.05858876556158066,-0.0,0.28502076864242554,-0.1602756828069687,-0.09224246442317963,0.5880433917045593,-0.8086764216423035,0.0157295074313879,-0.8079202175140381,-0.5881931185722351,-0.03596826270222664,-0.21147756278514862,0.16175879538059235,-0.21803393959999084,1.0351969003677368,-0.12815022468566895,1.3682117462158203,-1.078532338142395,0.0
124,-0.1978873610496521,0.16888362169265747,-0.19901099801063538,1.0435901880264282,-0.11079367995262146,1.3145025968551636,-1.0641454458236694,0.8399999737739563,-0.08930238336324692,-0.02727806568145752,-0.11844591051340103,-0.057178597897291183,-0.11889620125293732,0.293771356344223,-0.08076600730419159,-0.0,0.28502076864242554,-0.1602756828069687,-0.09224246442317963,0.5880433917045593,-0.8086764216423035,0.0157295074313879,-0.8079202175140381,-0.5881931185722351,-0.03596826270222664,-0.21076402068138123,0.16410741209983826,-0.21706682443618774,1.0369232892990112,-0.12877880036830902,1.3725388050079346,-1.082154393196106,0.0
125,-0.202015683054924,0.16710612177848816,-0.20381426811218262,1.0404224395751953,-0.11528057605028152,1.32132887840271,-1.0665078163146973,0.8399999737739563,-0.027488095685839653,-0.004412618465721607,-0.058497827500104904,0.003107649041339755,-0.035789430141448975,0.48284852504730225,-0.10953805595636368,-0.0,0.28502076864242554,-0.1602756828069687,-0.09224246442317963,0.5880433917045593,-0.8086764216423035,0.0157295074313879,-0.8079202175140381,-0.5881931185722351,-0.03596826270222664,-0.20760610699653625,0.1681976318359375,-0.2132893055677414,1.0450420379638672,-0.1220933124423027,1.3938766717910767,-1.0905689001083374,0.0
126,-0.20559176802635193,0.16565458476543427,-0.20845073461532593,1.038395643234253,-0.11923440545797348,1.3355623483657837,-1.0701587200164795,0.8399999737739563,0.0017945211147889495,0.027036311104893684,-0.02727457694709301,0.0342293456196785,-0.08865967392921448,0.30768904089927673,-0.09798334538936615,-0.0,0.28502076864242554,-0.1602756828069687,-0.09224246442317963,0.5880433917045593,-0.8086764216423035,0.0157295074313879,-0.8079202175140381,-0.5881931185722351,-0.03596826270222664,-0.20653654634952545,0.17285460233688354,-0.20710688829421997,1.046804428100586,-0.12230411916971207,1.3776898384094238,-1.089586853981018,0.0
127,-0.2073386013507843,0.1651100218296051,-0.21131353080272675,1.037841558456421,-0.12217006832361221,1.3509020805358887,-1.0742831230163574,0.8399999737739563,0.02389553375542164,0.07032066583633423,0.04708638787269592,0.0825473740696907,0.043667566031217575,0.17245271801948547,-0.1867009550333023,-0.0,0.28502076864242554,-0.1602756828069687,-0.09224246442317963,0.5880433917045593,-0.8086764216423035,0.0157295074313879,-0.8079202175140381,-0.5881931185722351,-0.03596826270222664,-0.20247848331928253,0.1783757507801056,-0.19731959700584412,1.054021954536438,-0.11037919670343399,1.3620569705963135,-1.0920677185058594,0.0
128,-0.20806723833084106,0.16566991806030273,-0.2124985307455063,1.0392355918884277,-0.12413164228200912,1.3648574352264404,-1.0802081823349,0.8410000205039978,0.047279875725507736,0.08735169470310211,0.13061317801475525,0.10382293909788132,0.08446895331144333,-0.10736343264579773,-0.03033619560301304,-0.0,0.28502076864242554,-0.1602756828069687,-0.09224246442317963,0.5880433917045593,-0.8086764216423035,0.0157295074313879,-0.8079202175140381,-0.5881931185722351,-0.03596826270222664,-0.19619378447532654,0.1767444610595703,-0.18955785036087036,1.054834008216858,-0.10493314266204834,1.3280699253082275,-1.0896092653274536,0.0
129,-0.20787166059017181,0.16788652539253235,-0.21088017523288727,1.0421653985977173,-0.12370213121175766,1.3710412979125977,-1.0851092338562012,0.8410000205039978,0.06979950517416,0.05653304234147072,0.12042456865310669,0.07507939636707306,0.172186940908432,-0.308135062456131,0.008206733502447605,-0.0,0.28502076864242554,-0.1602756828069687,-0.09224246442317963,0.5880433917045593,-0.8086764216423035,0.0157295074313879,-0.8079202175140381,-0.5881931185722351,-0.03596826270222664,-0.19256477057933807,0.17339669167995453,-0.18826773762702942,1.053609848022461,-0.10013747215270996,1.3160696029663086,-1.0904903411865234,0.0
130,-0.2063223272562027,0.1711232215166092,-0.2065773606300354,1.0459870100021362,-0.11987292766571045,1.3685083389282227,-1.088234782218933,0.8399999737739563,0.09244692325592041,-0.011196611449122429,0.10081165283918381,0.02077525481581688,0.11619521677494049,-0.5124489068984985,0.0013473581057041883,-0.0,0.28502076864242554,-0.1602756828069687,-0.09224246442317963,0.5880433917045593,-0.8086764216423035,0.0157295074313879,-0.8079202175140381,-0.5881931185722351,-0.03596826270222664,-0.19463717937469482,0.1706543266773224,-0.19198788702487946,1.0478229522705078,-0.10421059280633926,1.3040269613265991,-1.0900169610977173,0.0
131,-0.20335599780082703,0.17325928807258606,-0.2013905793428421,1.0490434169769287,-0.11480120569467545,1.3556325435638428,-1.0895999670028687,0.8399999737739563,0.06375578045845032,-0.04398469999432564,0.06995244324207306,-0.011122741736471653,0.09378721565008163,-0.4091131091117859,0.00595542136579752,-0.0,0.28502076864242554,-0.1602756828069687,-0.09224246442317963,0.5880433917045593,-0.8086764216423035,0.0157295074313879,-0.8079202175140381,-0.5881931185722351,-0.03596826270222664,-0.20050521194934845,0.1690649390220642,-0.19625484943389893,1.0440318584442139,-0.10631169378757477,1.3072034120559692,-1.0911809206008911,0.0
132,-0.19979716837406158,0.17376551032066345,-0.19667167961597443,1.0505582094192505,-0.10963360965251923,1.337516188621521,-1.0900870561599731,0.8410000205039978,0.004203979857265949,-0.04212624207139015,-0.019711775705218315,-0.061115287244319916,-0.023864755406975746,-0.18914297223091125,-0.007384811993688345,-0.0,0.28502076864242554,-0.1602756828069687,-0.09224246442317963,0.5880433917045593,-0.8086764216423035,0.0157295074313879,-0.8079202175140381,-0.5881931185722351,-0.03596826270222664,-0.20800064504146576,0.1671914905309677,-0.20496299862861633,1.0375957489013672,-0.11640475690364838,1.320263385772705,-1.0938917398452759,0.0
133,-0.1976572573184967,0.17316150665283203,-0.194311261177063,1.0500596761703491,-0.10685518383979797,1.321982741355896,-1.0903074741363525,0.8399999737739563,-0.10557472705841064,-0.029776114970445633,-0.10212009400129318,-0.09242978692054749,-0.06215635687112808,0.08553999662399292,-0.030599240213632584,-0.0,0.28502076864242554,-0.1602756828069687,-0.09224246442317963,0.5880433917045593,-0.8086764216423035,0.0157295074313879,-0.8079202175140381,-0.5881931185722351,-0.03596826270222664,-0.21322791278362274,0.16388565301895142,-0.2136935293674469,1.0357356071472168,-0.12303291261196136,1.3498746156692505,-1.099339246749878,0.0
134,-0.19868502020835876,0.17141468822956085,-0.19531601667404175,1.0469475984573364,-0.10687052458524704,1.31451416015625,-1.0909498929977417,0.8399999737739563,-0.07839787751436234,-0.0357104167342186,-0.1057496964931488,-0.06079481542110443,-0.12551143765449524,0.24260027706623077,-0.05289055407047272,-0.0,0.28502076864242554,-0.1602756828069687,-0.09224246442317963,0.5880433917045593,-0.8086764216423035,0.0157295074313879,-0.8079202175140381,-0.5881931185722351,-0.03596826270222664,-0.21370811760425568,0.16517683863639832,-0.21544399857521057,1.0375769138336182,-0.12822166085243225,1.3671895265579224,-1.1055409908294678,0.0
135,-0.2019447386264801,0.16966210305690765,-0.1989688128232956,1.0432603359222412,-0.1101340651512146,1.3169358968734741,-1.0922422409057617,0.8399999737739563,-0.05101842060685158,-0.014308128505945206,-0.08652094751596451,-0.011416696943342686,-0.1076662614941597,0.4492065906524658,-0.08448662608861923,-0.0,0.28502076864242554,-0.1602756828069687,-0.09224246442317963,0.5880433917045593,-0.8086764216423035,0.0157295074313879,-0.8079202175140381,-0.5881931185722351,-0.03596826270222664,-0.21170634031295776,0.16825492680072784,-0.2146642804145813,1.0434601306915283,-0.12729337811470032,1.3908170461654663,-1.1136754751205444,0.0
136,-0.20531374216079712,0.1681262105703354,-0.2031891793012619,1.0408960580825806,-0.11415885388851166,1.3266383409500122,-1.0943591594696045,0.8410000205039978,-0.02227601408958435,0.014841715805232525,-0.057256560772657394,0.023616628721356392,-0.08024042099714279,0.46806392073631287,-0.13453280925750732,-0.0,0.28502076864242554,-0.1602756828069687,-0.09224246442317963,0.5880433917045593,-0.8086764216423035,0.0157295074313879,-0.8079202175140381,-0.5881931185722351,-0.03596826270222664,-0.21009986102581024,0.17240458726882935,-0.2106512188911438,1.0478014945983887,-0.12441588938236237,1.3958929777145386,-1.1169880628585815,0.0
137,-0.20842772722244263,0.1671367883682251,-0.20778153836727142,1.03977632522583,-0.11919605731964111,1.3455063104629517,-1.0990723371505737,0.8399999737739563,0.01121586188673973,0.05334540456533432,-0.013447578996419907,0.09865476191043854,-0.022985883057117462,0.24778352677822113,-0.16500388085842133,-0.0,0.28502076864242554,-0.1602756828069687,-0.09224246442317963,0.5880433917045593,-0.8086764216423035,0.0157295074313879,-0.8079202175140381,-0.5881931185722351,-0.03596826270222664,-0.2068936675786972,0.180093914270401,-0.20024314522743225,1.0551245212554932,-0.11546862125396729,1.3735250234603882,-1.1172924041748047,0.0
138,-0.20981597900390625,0.16724608838558197,-0.21032601594924927,1.0407254695892334,-0.12217198312282562,1.361271858215332,-1.104874610900879,0.8399999737739563,0.027269385755062103,0.09886083006858826,0.07011720538139343,0.07150005549192429,0.0494808591902256,0.1676807552576065,-0.0328117199242115,-0.0,0.28502076864242554,-0.1602756828069687,-0.09224246442317963,0.5880433917045593,-0.8086764216423035,0.0157295074313879,-0.8079202175140381,-0.5881931185722351,-0.03596826270222664,-0.20266084372997284,0.17777815461158752,-0.19493696093559265,1.055464506149292,-0.10813971608877182,1.364434838294983,-1.117308259010315,0.0
139,-0.21022439002990723,0.16912713646888733,-0.21083799004554749,1.0437626838684082,-0.12328603863716125,1.3748743534088135,-1.1101361513137817,0.8399999737739563,0.05527815967798233,0.05703205242753029,0.12496372312307358,0.05910458043217659,0.1094609722495079,-0.20809443295001984,-0.014284499920904636,-0.0,0.28502076864242554,-0.1602756828069687,-0.09224246442317963,0.5880433917045593,-0.8086764216423035,0.0157295074313879,-0.8079202175140381,-0.5881931185722351,-0.03596826270222664,-0.19624333083629608,0.17608462274074554,-0.1883324831724167,1.0547356605529785,-0.1031162291765213,1.3278865814208984,-1.1157487630844116,0.0
140,-0.20978721976280212,0.17217016220092773,-0.20883998274803162,1.0467405319213867,-0.12202625721693039,1.3797006607055664,-1.113039255142212,0.8399999737739563,0.0776439905166626,-0.0045121172443032265,0.11120790988206863,0.03064507059752941,0.1241316944360733,-0.3641692101955414,0.0036146051716059446,-0.0,0.28502076864242554,-0.1602756828069687,-0.09224246442317963,0.5880433917045593,-0.8086764216423035,0.0157295074313879,-0.8079202175140381,-0.5881931185722351,-0.03596826270222664,-0.19525980949401855,0.1737067997455597,-0.18900346755981445,1.0531284809112549,-0.10290936380624771,1.321344017982483,-1.1163064241409302,0.0
141,-0.20771825313568115,0.17456893622875214,-0.2045275717973709,1.049668550491333,-0.11805516481399536,1.374690294265747,-1.1147974729537964,0.8399999737739563,0.10497933626174927,-0.026829717680811882,0.08186939358711243,0.0006073966505937278,0.08159181475639343,-0.5332491993904114,-0.001252092537470162,-0.0,0.28502076864242554,-0.1602756828069687,-0.09224246442317963,0.5880433917045593,-0.8086764216423035,0.0157295074313879,-0.8079202175140381,-0.5881931185722351,-0.03596826270222664,-0.19685453176498413,0.17273807525634766,-0.19232679903507233,1.048954725265503,-0.10562721639871597,1.3094781637191772,-1.115086555480957,0.0
142,-0.2038583755493164,0.1755065768957138,-0.19919507205486298,1.0516033172607422,-0.11304862797260284,1.3578625917434692,-1.115623950958252,0.8410000205039978,0.03122973069548607,-0.027566151693463326,0.04910339042544365,-0.03029954805970192,0.0507584847509861,-0.29206082224845886,0.013008655048906803,-0.0,0.28502076864242554,-0.1602756828069687,-0.09224246442317963,0.5880433917045593,-0.8086764216423035,0.0157295074313879,-0.8079202175140381,-0.5881931185722351,-0.03596826270222664,-0.20394901931285858,0.17056596279144287,-0.19721856713294983,1.0450855493545532,-0.10882186144590378,1.320060133934021,-1.1165847778320312,0.0
143,-0.20028804242610931,0.17541837692260742,-0.19525082409381866,1.052159309387207,-0.10915423929691315,1.3399839401245117,-1.1158348321914673,0.8399999737739563,-0.03352845832705498,0.0029951739124953747,-0.04586479812860489,-0.05492895096540451,-0.03089888021349907,-0.13679026067256927,-0.00782671570777893,-0.0,0.28502076864242554,-0.1602756828069687,-0.09224246442317963,0.5880433917045593,-0.8086764216423035,0.0157295074313879,-0.8079202175140381,-0.5881931185722351,-0.03596826270222664,-0.20934531092643738,0.16989845037460327,-0.20480942726135254,1.0407440662384033,-0.1163124293088913,1.3280971050262451,-1.1186697483062744,0.0
144,-0.19863517582416534,0.17499077320098877,-0.19353660941123962,1.051302194595337,-0.10734989494085312,1.326231837272644,-1.1158368587493896,0.8410000205039978,-0.11239522695541382,-0.04715319722890854,-0.08748916536569595,-0.08303938806056976,-0.06481359899044037,0.1825529783964157,-0.02961033396422863,-0.0,0.28502076864242554,-0.1602756828069687,-0.09224246442317963,0.5880433917045593,-0.8086764216423035,0.0157295074313879,-0.8079202175140381,-0.5881931185722351,-0.03596826270222664,-0.21437828242778778,0.16497939825057983,-0.2131626158952713,1.0392664670944214,-0.12337659299373627,1.3652111291885376,-1.1257134675979614,0.0
145,-0.19974347949028015,0.1742851436138153,-0.19456245005130768,1.0488728284835815,-0.10772188007831573,1.3214036226272583,-1.1162030696868896,0.8399999737739563,-0.09946607053279877,-0.04735465720295906,-0.1428392380475998,-0.06389810144901276,-0.12880706787109375,0.21767085790634155,-0.054750315845012665,-0.0,0.28502076864242554,-0.1602756828069687,-0.09224246442317963,0.5880433917045593,-0.8086764216423035,0.0157295074313879,-0.8079202175140381,-0.5881931185722351,-0.03596826270222664,-0.21481232345104218,0.16678839921951294,-0.21507614850997925,1.0390039682388306,-0.12837624549865723,1.3689250946044922,-1.128757119178772,0.0
146,-0.20327545702457428,0.17274349927902222,-0.19866010546684265,1.0456476211547852,-0.11097200214862823,1.3246231079101562,-1.11739182472229,0.8410000205039978,-0.021450283005833626,-0.02620948851108551,-0.05003123730421066,0.007403794676065445,-0.09709610044956207,0.4382716417312622,-0.08445219695568085,-0.0,0.28502076864242554,-0.1602756828069687,-0.09224246442317963,0.5880433917045593,-0.8086764216423035,0.0157295074313879,-0.8079202175140381,-0.5881931185722351,-0.03596826270222664,-0.2123008668422699,0.1717802882194519,-0.21157315373420715,1.047635555267334,-0.12528324127197266,1.3936585187911987,-1.137279987335205,0.0
147,-0.20721204578876495,0.17065727710723877,-0.20377017557621002,1.0434789657592773,-0.11580787599086761,1.337119221687317,-1.1200321912765503,0.8399999737739563,-0.1013299897313118,0.006203960161656141,-0.14056460559368134,-0.05138273164629936,-0.09777781367301941,0.3048122823238373,-0.11536131799221039,-0.0,0.28502076864242554,-0.1602756828069687,-0.09224246442317963,0.5880433917045593,-0.8086764216423035,0.0157295074313879,-0.8079202175140381,-0.5881931185722351,-0.03596826270222664,-0.21201692521572113,0.1699843406677246,-0.21140721440315247,1.0427663326263428,-0.12512698769569397,1.3854249715805054,-1.1352484226226807,0.0
148,-0.20959354937076569,0.16943584382534027,-0.20769907534122467,1.0424914360046387,-0.1200915202498436,1.350898265838623,-1.1233417987823486,0.8410000205039978,0.026917044073343277,0.015059188939630985,0.040350575000047684,0.06062706559896469,0.011825487948954105,0.27605822682380676,-0.09385251253843307,-0.0,0.28502076864242554,-0.1602756828069687,-0.09224246442317963,0.5880433917045593,-0.8086764216423035,0.0157295074313879,-0.8079202175140381,-0.5881931185722351,-0.03596826270222664,-0.2075275331735611,0.1773783266544342,-0.19944339990615845,1.0544919967651367,-0.11300194263458252,1.3789082765579224,-1.138734221458435,0.0
149,-0.21200381219387054,0.16919615864753723,-0.21107575297355652,1.0420984029769897,-0.12304060161113739,1.3657280206680298,-1.127849817276001,0.8410000205039978,0.04146373271942139,0.041581328958272934,0.07808224856853485,-0.014127777889370918,0.04265882074832916,-0.0057649435475468636,-0.03590073436498642,-0.0,0.28502076864242554,-0.1602756828069687,-0.09224246442317963,0.5880433917045593,-0.8086764216423035,0.0157295074313879,-0.8079202175140381,-0.5881931185722351,-0.03596826270222664,-0.20195168256759644,0.17391332983970642,-0.1935693621635437,1.0483003854751587,-0.10879769921302795,1.346456527709961,-1.1348600387573242,0.0
150,-0.21228185296058655,0.16970045864582062,-0.2108437418937683,1.0424396991729736,-0.12365035712718964,1.376193642616272,-1.132114291191101,0.8410000205039978,0.0572725273668766,0.0405307374894619,0.0967196375131607,0.17762407660484314,0.10371377319097519,-0.09365203231573105,-0.0027438101824373007,-0.0,0.28502076864242554,-0.1602756828069687,-0.09224246442317963,0.5880433917045593,-0.8086764216423035,0.0157295074313879,-0.8079202175140381,-0.5881931185722351,-0.03596826270222664,-0.19894252717494965,0.18262645602226257,-0.1859396994113922,1.0640143156051636,-0.1024138331413269,1.3368431329727173,-1.1416339874267578,0.0
151,-0.21094729006290436,0.17139743268489838,-0.20780645310878754,1.0454462766647339,-0.12132062017917633,1.3784064054489136,-1.134374976158142,0.8410000205039978,0.07737764716148376,0.03323248028755188,0.12105657160282135,0.06532339006662369,0.10981078445911407,-0.4218841791152954,-0.018374405801296234,-0.0,0.28502076864242554,-0.1602756828069687,-0.09224246442317963,0.5880433917045593,-0.8086764216423035,0.0157295074313879,-0.8079202175140381,-0.5881931185722351,-0.03596826270222664,-0.1960810124874115,0.1762506365776062,-0.18701636791229248,1.055022120475769,-0.10274869203567505,1.3149986267089844,-1.136016607284546,0.0
152,-0.20882080495357513,0.1727607548236847,-0.20393507182598114,1.049956202507019,-0.11794586479663849,1.372456431388855,-1.1355618238449097,0.8399999737739563,0.06481240689754486,0.06883186846971512,0.1396220177412033,0.1313198059797287,0.11013836413621902,-0.4080527126789093,-0.026628762483596802,-0.0,0.28502076864242554,-0.1602756828069687,-0.09224246442317963,0.5880433917045593,-0.8086764216423035,0.0157295074313879,-0.8079202175140381,-0.5881931185722351,-0.03596826270222664,-0.19838760793209076,0.18127010762691498,-0.18560633063316345,1.0610337257385254,-0.10102728009223938,1.311327338218689,-1.1371954679489136,0.0
153,-0.20566272735595703,0.17508664727210999,-0.19824208319187164,1.0548456907272339,-0.11317134648561478,1.358451247215271,-1.1368792057037354,0.8410000205039978,0.03586306422948837,0.011123151518404484,0.06000730022788048,-0.04016566276550293,0.06839222460985184,-0.4029322564601898,0.006361025385558605,-0.0,0.28502076864242554,-0.1602756828069687,-0.09224246442317963,0.5880433917045593,-0.8086764216423035,0.0157295074313879,-0.8079202175140381,-0.5881931185722351,-0.03596826270222664,-0.20368170738220215,0.17247360944747925,-0.1956576406955719,1.0456851720809937,-0.10663678497076035,1.3130742311477661,-1.133999228477478,0.0
154,-0.2026331126689911,0.176705002784729,-0.19343113899230957,1.0581897497177124,-0.10891839116811752,1.3412131071090698,-1.1373374462127686,0.8410000205039978,-0.009386563673615456,0.02375834621489048,0.029185550287365913,0.015015537850558758,0.037903305143117905,-0.1332182139158249,0.025005150586366653,-0.0,0.28502076864242554,-0.1602756828069687,-0.09224246442317963,0.5880433917045593,-0.8086764216423035,0.0157295074313879,-0.8079202175140381,-0.5881931185722351,-0.03596826270222664,-0.20995163917541504,0.17557133734226227,-0.19840629398822784,1.050307035446167,-0.10853663831949234,1.3273546695709229,-1.1383684873580933,0.0
155,-0.2009054571390152,0.17821213603019714,-0.19022895395755768,1.0592635869979858,-0.1057104542851448,1.3265386819839478,-1.137333631515503,0.8399999737739563,-0.06904004514217377,-0.04566505178809166,-0.07270240038633347,-0.15646992623806,-0.049998097121715546,0.06388456374406815,-0.003972264938056469,-0.0,0.28502076864242554,-0.1602756828069687,-0.09224246442317963,0.5880433917045593,-0.8086764216423035,0.0157295074313879,-0.8079202175140381,-0.5881931185722351,-0.03596826270222664,-0.2164839655160904,0.16540782153606415,-0.21223802864551544,1.0358372926712036,-0.12080207467079163,1.353867769241333,-1.1416411399841309,0.0
