isri-aist/RoboManipBaselines/robo_manip_baselines/rollout_debug_log_expanded.csv
step_idx,obs_0,obs_1,obs_2,obs_3,obs_4,obs_5,obs_6,obs_7,obs_8,obs_9,obs_10,obs_11,obs_12,obs_13,obs_14,obs_15,obs_16,obs_17,obs_18,obs_19,obs_20,obs_21,obs_22,obs_23,direct_joint_command_0,direct_joint_command_1,direct_joint_command_2,direct_joint_command_3,direct_joint_command_4,direct_joint_command_5,direct_joint_command_6,direct_joint_command_7
0,-1.5339808669523336e-05,-0.523614764213562,-9.58738019107841e-06,0.7854058146476746,-1.1504856047395151e-05,1.308997631072998,5.7524280236975756e-06,0.47699999809265137,0.0,0.0,0.0,0.0,0.0,0.0,0.0,-0.0,-0.004516995511949062,-0.47795775532722473,-0.005998285952955484,0.857609748840332,-0.03215895593166351,1.2798911333084106,0.0500529482960701,0.009999999776482582,-0.008802986703813076,-0.4686850309371948,0.0036138237919658422,0.7457916736602783,-0.013245047070086002,1.2566725015640259,-0.07876096665859222,463.0
1,-1.5339808669523336e-05,-0.523614764213562,-9.58738019107841e-06,0.7854058146476746,-1.1504856047395151e-05,1.3089936971664429,0.0,0.30000001192092896,-0.0277561005204916,0.03213752061128616,0.01625443994998932,-0.03213752061128616,-0.029484326019883156,-0.03213752061128616,-0.03213752061128616,-0.0,-0.004516995511949062,-0.47795775532722473,-0.005998285952955484,0.857609748840332,-0.03215895593166351,1.2798911333084106,0.0500529482960701,0.009999999776482582,0.00030809734016656876,-0.45705243945121765,0.006656975951045752,0.7239654660224915,-0.00812296662479639,1.2465132474899292,-0.10000000149011612,640.0
2,-0.0031389081850647926,-0.5040622353553772,0.001255946815945208,0.7708733081817627,-0.004870389122515917,1.2901564836502075,-0.028813911601901054,0.37599998712539673,-0.01132759265601635,0.3210236132144928,0.03405781462788582,-0.2632671594619751,-0.03487199917435646,-0.30261942744255066,-0.41944456100463867,-0.0,-0.004516995511949062,-0.47795775532722473,-0.005998285952955484,0.857609748840332,-0.03215895593166351,1.2798911333084106,0.0500529482960701,0.009999999776482582,-0.0042580896988511086,-0.449722021818161,0.0029637166298925877,0.7259563207626343,-0.015399929136037827,1.2297955751419067,-0.12881390750408173,564.0
3,-0.004492646083235741,-0.49217966198921204,0.001959660556167364,0.7624114751815796,-0.006962355226278305,1.2791175842285156,-0.047083623707294464,0.34299999475479126,0.06441979855298996,0.16942954063415527,0.00570253748446703,-0.3791123926639557,-0.00634660292416811,-0.16035957634449005,-0.3936878740787506,-0.0,-0.004516995511949062,-0.47795775532722473,-0.005998285952955484,0.857609748840332,-0.03215895593166351,1.2798911333084106,0.0500529482960701,0.009999999776482582,-0.005353426560759544,-0.43858325481414795,0.00412879278883338,0.7144436240196228,-0.015971865504980087,1.2186046838760376,-0.14708362519741058,597.0
4,-0.004741918295621872,-0.482438862323761,0.0026767964009195566,0.7531289458274841,-0.008191457018256187,1.2701092958450317,-0.0625806674361229,0.31299999356269836,-0.011745590716600418,0.19336077570915222,0.0017830104334279895,-0.23552967607975006,-0.041574008762836456,-0.25400209426879883,-0.5580417513847351,-0.0,-0.004516995511949062,-0.47795775532722473,-0.005998285952955484,0.857609748840332,-0.03215895593166351,1.2798911333084106,0.0500529482960701,0.009999999776482582,-0.004332359880208969,-0.4290529787540436,0.005788493901491165,0.7017466425895691,-0.01674584113061428,1.2079514265060425,-0.162580668926239,627.0
5,-0.004703568760305643,-0.4727632999420166,0.0033153160475194454,0.7419558167457581,-0.009508763439953327,1.2604566812515259,-0.08106129616498947,0.28200000524520874,-0.0006975596188567579,0.27503257989883423,0.014471008442342281,-0.1120593398809433,-0.036356594413518906,-0.3536100387573242,-0.6045377254486084,-0.0,-0.004516995511949062,-0.47795775532722473,-0.005998285952955484,0.857609748840332,-0.03215895593166351,1.2798911333084106,0.0500529482960701,0.009999999776482582,-0.002903046552091837,-0.42118895053863525,0.005790771450847387,0.6894803643226624,-0.016544979065656662,1.1963615417480469,-0.1810612976551056,658.0
6,-0.004642209503799677,-0.46320658922195435,0.0036738840863108635,0.7327768802642822,-0.010943035595119,1.2492069005966187,-0.10153035074472427,0.25099998712539673,0.011202124878764153,0.28779342770576477,0.010459965094923973,-0.27985239028930664,-0.023495657369494438,-0.31585824489593506,-0.48301640152931213,-0.0,-0.004516995511949062,-0.47795775532722473,-0.005998285952955484,0.857609748840332,-0.03215895593166351,1.2798911333084106,0.0500529482960701,0.009999999776482582,-5.868682637810707e-05,-0.4144684672355652,0.006537075154483318,0.680946946144104,-0.01568075641989708,1.183749794960022,-0.2015303522348404,689.0
7,-0.004492646083235741,-0.452936589717865,0.004068884067237377,0.7240906953811646,-0.012325535528361797,1.2372187376022339,-0.12249603867530823,0.2199999988079071,0.031761765480041504,0.19084079563617706,0.013281446881592274,-0.2924530506134033,-0.008005603216588497,-0.35704684257507324,-0.5066418051719666,-0.0,-0.004516995511949062,-0.47795775532722473,-0.005998285952955484,0.857609748840332,-0.03215895593166351,1.2798911333084106,0.0500529482960701,0.009999999776482582,0.0004907418042421341,-0.4063114523887634,0.0068083880469202995,0.6697618961334229,-0.015259082429111004,1.1708648204803467,-0.22249603271484375,720.0
8,-0.004095728509128094,-0.4430558383464813,0.004506068769842386,0.7141063809394836,-0.013443424366414547,1.2249411344528198,-0.14306288957595825,0.18799999356269836,0.026298116892576218,0.2215089648962021,0.011166246607899666,-0.2352169156074524,-0.001896227477118373,-0.32835066318511963,-0.5222982168197632,-0.0,-0.004516995511949062,-0.47795775532722473,-0.005998285952955484,0.857609748840332,-0.03215895593166351,1.2798911333084106,0.0500529482960701,0.009999999776482582,0.0019333036616444588,-0.3988340497016907,0.0079405028373003,0.659399151802063,-0.014732255600392818,1.1574689149856567,-0.24306288361549377,752.0
9,-0.0033977674320340157,-0.4338788092136383,0.004952840507030487,0.7039610147476196,-0.014191240072250366,1.2119100093841553,-0.16369876265525818,0.15700000524520874,0.03001290187239647,0.20522379875183105,0.017155667766928673,-0.2992393374443054,0.002871529199182987,-0.3101854920387268,-0.524324893951416,-0.0,-0.004516995511949062,-0.47795775532722473,-0.005998285952955484,0.857609748840332,-0.03215895593166351,1.2798911333084106,0.0500529482960701,0.009999999776482582,0.003642055206000805,-0.3931473195552826,0.008861295878887177,0.6499646306037903,-0.013540439307689667,1.1435037851333618,-0.2636987566947937,783.0
10,-0.0024601216427981853,-0.42488008737564087,0.0054667238146066666,0.6935663819313049,-0.014595827087759972,1.1984224319458008,-0.18453405797481537,0.12600000202655792,0.03473213315010071,0.155674546957016,0.01922440156340599,-0.2533645033836365,0.011985582299530506,-0.353775292634964,-0.5185306072235107,-0.0,-0.004516995511949062,-0.47795775532722473,-0.005998285952955484,0.857609748840332,-0.03215895593166351,1.2798911333084106,0.0500529482960701,0.009999999776482582,0.005150154698640108,-0.38645660877227783,0.009424248710274696,0.6388908624649048,-0.012233516201376915,1.1292760372161865,-0.2845340669155121,790.0
11,-0.0013249758630990982,-0.41657164692878723,0.006084151100367308,0.6828630566596985,-0.014712792821228504,1.1855812072753906,-0.2054268717765808,0.09399999678134918,0.05652505159378052,0.18615275621414185,0.017424464225769043,-0.23140667378902435,0.019154107198119164,-0.33294767141342163,-0.5143909454345703,-0.0,-0.004516995511949062,-0.47795775532722473,-0.005998285952955484,0.857609748840332,-0.03215895593166351,1.2798911333084106,0.0500529482960701,0.009999999776482582,0.007085157558321953,-0.3815085291862488,0.010396748781204224,0.6298438906669617,-0.010479708202183247,1.115575909614563,-0.30542686581611633,790.0
12,2.4927187041612342e-05,-0.409091591835022,0.006734175607562065,0.672602653503418,-0.014712792821228504,1.1716046333312988,-0.22630243003368378,0.06300000101327896,0.034076377749443054,0.15903909504413605,0.01975107565522194,-0.2932654023170471,0.02796301804482937,-0.36019209027290344,-0.5145889520645142,-0.0,-0.004516995511949062,-0.47795775532722473,-0.005998285952955484,0.857609748840332,-0.03215895593166351,1.2798911333084106,0.0500529482960701,0.009999999776482582,0.009663415141403675,-0.3779582381248474,0.01172044686973095,0.6210497617721558,-0.008737114258110523,1.1010687351226807,-0.3263024389743805,790.0
13,0.0015512381214648485,-0.40176108479499817,0.0074225496500730515,0.6621888279914856,-0.014296701177954674,1.1582436561584473,-0.24713772535324097,0.05000000074505806,0.04462767764925957,0.10506214946508408,0.024419564753770828,-0.22636936604976654,0.033581096678972244,-0.33366674184799194,-0.5109922289848328,-0.0,-0.004516995511949062,-0.47795775532722473,-0.005998285952955484,0.857609748840332,-0.03215895593166351,1.2798911333084106,0.0500529482960701,0.009999999776482582,0.010331881232559681,-0.37169936299324036,0.012488095089793205,0.6117137670516968,-0.007940305396914482,1.0885423421859741,-0.3471377193927765,790.0
14,0.0029222334269434214,-0.39605849981307983,0.008101335726678371,0.6530808210372925,-0.013568060472607613,1.1461962461471558,-0.2653307318687439,0.05000000074505806,0.035927239805459976,0.1348036676645279,0.023137154057621956,-0.20032398402690887,0.029475798830389977,-0.3716951906681061,-0.541817843914032,-0.0,-0.004516995511949062,-0.47795775532722473,-0.005998285952955484,0.857609748840332,-0.03215895593166351,1.2798911333084106,0.0500529482960701,0.009999999776482582,0.011643152683973312,-0.3682119846343994,0.012930183671414852,0.6052453517913818,-0.007296817377209663,1.0769819021224976,-0.3653307259082794,790.0
15,0.004513738676905632,-0.390338659286499,0.008933520875871181,0.6435452103614807,-0.012519200332462788,1.1322236061096191,-0.2863290309906006,0.05000000074505806,0.05778717249631882,0.14230170845985413,0.020078711211681366,-0.24095383286476135,0.02623433992266655,-0.341513991355896,-0.5412424206733704,-0.0,-0.004516995511949062,-0.47795775532722473,-0.005998285952955484,0.857609748840332,-0.03215895593166351,1.2798911333084106,0.0500529482960701,0.009999999776482582,0.012959418818354607,-0.3648165464401245,0.013572386465966702,0.5989691019058228,-0.00619798619300127,1.0642287731170654,-0.3863290250301361,790.0
16,0.0061915297992527485,-0.38458049297332764,0.009809806942939758,0.6342301368713379,-0.01139364205300808,1.1182758808135986,-0.30762067437171936,0.04899999871850014,0.028349261730909348,0.08918968588113785,0.018323246389627457,-0.19846312701702118,0.026189671829342842,-0.3182235360145569,-0.5011411905288696,-0.0,-0.004516995511949062,-0.47795775532722473,-0.005998285952955484,0.857609748840332,-0.03215895593166351,1.2798911333084106,0.0500529482960701,0.009999999776482582,0.014284901320934296,-0.35896313190460205,0.01490812748670578,0.5906082987785339,-0.005460930988192558,1.0519659519195557,-0.4076206684112549,790.0
17,0.00806298665702343,-0.3787686228752136,0.010712938383221626,0.6240943074226379,-0.01013194303959608,1.1029244661331177,-0.33136287331581116,0.04899999871850014,0.04708485305309296,0.11991520971059799,0.022896626964211464,-0.1530326008796692,0.022310860455036163,-0.2904362678527832,-0.47343549132347107,-0.0,-0.004516995511949062,-0.47795775532722473,-0.005998285952955484,0.857609748840332,-0.03215895593166351,1.2798911333084106,0.0500529482960701,0.009999999776482582,0.01571582816541195,-0.3542841374874115,0.015487046912312508,0.58353590965271,-0.004257644526660442,1.0381864309310913,-0.4313628673553467,790.0
18,0.009627646766602993,-0.3741762638092041,0.011508691124618053,0.6160600781440735,-0.009067744016647339,1.089841604232788,-0.3518645167350769,0.05000000074505806,0.024568213149905205,0.11052415519952774,0.0188544150441885,-0.17298224568367004,0.04012485593557358,-0.26175642013549805,-0.4918912649154663,-0.0,-0.004516995511949062,-0.47795775532722473,-0.005998285952955484,0.857609748840332,-0.03215895593166351,1.2798911333084106,0.0500529482960701,0.009999999776482582,0.016869567334651947,-0.35146138072013855,0.016714099794626236,0.5779114961624146,-0.0034977123141288757,1.0267562866210938,-0.4518645107746124,790.0
19,0.011153957806527615,-0.3694228529930115,0.012344710528850555,0.6087391972541809,-0.007982452400028706,1.077531337738037,-0.3719865083694458,0.05000000074505806,0.04403313249349594,0.08467792719602585,0.0233427993953228,-0.12820690870285034,0.018146907910704613,-0.3099805414676666,-0.5360774397850037,-0.0,-0.004516995511949062,-0.47795775532722473,-0.005998285952955484,0.857609748840332,-0.03215895593166351,1.2798911333084106,0.0500529482960701,0.009999999776482582,0.017153263092041016,-0.3479957580566406,0.01650586724281311,0.5720360279083252,-0.0029020505025982857,1.0155963897705078,-0.4719865024089813,790.0
20,0.012565219774842262,-0.36503180861473083,0.013197987340390682,0.6019800901412964,-0.006895243655890226,1.0656315088272095,-0.3923673629760742,0.05000000074505806,0.015573821030557156,0.11371321976184845,0.013733508996665478,-0.17176097631454468,0.01742137409746647,-0.2956932783126831,-0.5359899997711182,-0.0,-0.004516995511949062,-0.47795775532722473,-0.005998285952955484,0.857609748840332,-0.03215895593166351,1.2798911333084106,0.0500529482960701,0.009999999776482582,0.019037792459130287,-0.34586769342422485,0.017903223633766174,0.5680285692214966,-0.002023890148848295,1.0050612688064575,-0.49236735701560974,790.0
21,0.013865268789231777,-0.3609265089035034,0.014014831744134426,0.5956428050994873,-0.005961433053016663,1.0537374019622803,-0.41321223974227905,0.05000000074505806,0.026720868423581123,0.07341557741165161,0.02131902612745762,-0.1590094268321991,0.019096992909908295,-0.32230740785598755,-0.5199204087257385,-0.0,-0.004516995511949062,-0.47795775532722473,-0.005998285952955484,0.857609748840332,-0.03215895593166351,1.2798911333084106,0.0500529482960701,0.009999999776482582,0.01971154659986496,-0.34248673915863037,0.01795288920402527,0.5626362562179565,-0.0011719241738319397,0.9946864247322083,-0.513212263584137,790.0
22,0.014981240034103394,-0.35687488317489624,0.014791409485042095,0.5892921686172485,-0.0051177432760596275,1.0417301654815674,-0.4342431128025055,0.05000000074505806,0.023079607635736465,0.06855457276105881,0.014152316376566887,-0.14567099511623383,0.03388168290257454,-0.26504263281822205,-0.5104124546051025,-0.0,-0.004516995511949062,-0.47795775532722473,-0.005998285952955484,0.857609748840332,-0.03215895593166351,1.2798911333084106,0.0500529482960701,0.009999999776482582,0.020322374999523163,-0.3392106294631958,0.019182566553354263,0.5580908060073853,-0.0005847355350852013,0.9848592877388,-0.534243106842041,790.0
23,0.01587670110166073,-0.3537052869796753,0.015437599271535873,0.5837966799736023,-0.004352670628577471,1.031435251235962,-0.4525684416294098,0.05000000074505806,0.02076483704149723,0.09765443950891495,0.019975928589701653,-0.13415779173374176,0.01487430278211832,-0.26084521412849426,-0.536051869392395,-0.0,-0.004516995511949062,-0.47795775532722473,-0.005998285952955484,0.857609748840332,-0.03215895593166351,1.2798911333084106,0.0500529482960701,0.009999999776482582,0.020802980288863182,-0.3374518156051636,0.019688602536916733,0.5549407005310059,-0.00020190002396702766,0.9759696125984192,-0.5525684356689453,790.0
24,0.016850778833031654,-0.3504072427749634,0.016154734417796135,0.5777853727340698,-0.0034322820138186216,1.0201202630996704,-0.47357437014579773,0.05000000074505806,0.018755102530121803,0.06350569427013397,0.018436376005411148,-0.11755280196666718,0.013803450390696526,-0.26073941588401794,-0.539884090423584,-0.0,-0.004516995511949062,-0.47795775532722473,-0.005998285952955484,0.857609748840332,-0.03215895593166351,1.2798911333084106,0.0500529482960701,0.009999999776482582,0.02108636684715748,-0.3346335291862488,0.020271053537726402,0.5499457716941833,0.00032315333373844624,0.9665644764900208,-0.5735743641853333,790.0
25,0.01776924915611744,-0.3469921946525574,0.01686803624033928,0.5720885396003723,-0.002634611912071705,1.0091886520385742,-0.4948200285434723,0.04899999871850014,0.01438361220061779,0.0807374119758606,0.016801925376057625,-0.08752860873937607,0.013356207869946957,-0.24029706418514252,-0.5029652118682861,-0.0,-0.004516995511949062,-0.47795775532722473,-0.005998285952955484,0.857609748840332,-0.03215895593166351,1.2798911333084106,0.0500529482960701,0.009999999776482582,0.022052893415093422,-0.3316534161567688,0.02122950181365013,0.5458499193191528,0.0010124994441866875,0.9575168490409851,-0.5948200225830078,790.0
26,0.018557332456111908,-0.34383219480514526,0.017567915841937065,0.5670072436332703,-0.0019443206256255507,0.998634934425354,-0.515916109085083,0.05000000074505806,0.017528604716062546,0.0555318184196949,0.019026532769203186,-0.12039205431938171,0.0144806494936347,-0.22746804356575012,-0.5041816830635071,-0.0,-0.004516995511949062,-0.47795775532722473,-0.005998285952955484,0.857609748840332,-0.03215895593166351,1.2798911333084106,0.0500529482960701,0.009999999776482582,0.02228926122188568,-0.3298068642616272,0.021815000101923943,0.5423624515533447,0.001477678888477385,0.9490160346031189,-0.6142099499702454,790.0
27,0.019266799092292786,-0.3408466875553131,0.01830422505736351,0.5625491142272949,-0.0013192234328016639,0.988548994064331,-0.5367130041122437,0.05000000074505806,0.013870352879166603,0.052895206958055496,0.017932040616869926,-0.11294101178646088,0.013830303214490414,-0.22734646499156952,-0.5149146914482117,-0.0,-0.004516995511949062,-0.47795775532722473,-0.005998285952955484,0.857609748840332,-0.03215895593166351,1.2798911333084106,0.0500529482960701,0.009999999776482582,0.02256542444229126,-0.32785701751708984,0.022517342120409012,0.539148211479187,0.0017888458678498864,0.9407649636268616,-0.6293618679046631,790.0
28,0.01985738053917885,-0.33854955434799194,0.018969589844346046,0.5585530996322632,-0.0008034224156290293,0.9800718426704407,-0.5548044443130493,0.05000000074505806,0.01247981283813715,0.06859850138425827,0.030440011993050575,-0.10979516059160233,0.012777515687048435,-0.21582317352294922,-0.4990471303462982,-0.0,-0.004516995511949062,-0.47795775532722473,-0.005998285952955484,0.857609748840332,-0.03215895593166351,1.2798911333084106,0.0500529482960701,0.009999999776482582,0.022896047681570053,-0.32645130157470703,0.023147540166974068,0.5367858409881592,0.0022151728626340628,0.9339126348495483,-0.641765296459198,790.0
29,0.020478643476963043,-0.33597439527511597,0.01975191943347454,0.554043173789978,-0.0002473544154781848,0.9706761837005615,-0.5753520727157593,0.04899999871850014,0.012386675924062729,0.047427356243133545,0.016683481633663177,-0.10130394250154495,0.0229742843657732,-0.26873043179512024,-0.46868711709976196,-0.0,-0.004516995511949062,-0.47795775532722473,-0.005998285952955484,0.857609748840332,-0.03215895593166351,1.2798911333084106,0.0500529482960701,0.009999999776482582,0.02380191534757614,-0.32457101345062256,0.02369075082242489,0.5323678851127625,0.002770153107121587,0.9258480668067932,-0.6548320651054382,790.0
30,0.021067308261990547,-0.33338770270347595,0.02059561014175415,0.5496042370796204,0.00035089810262434185,0.961146354675293,-0.5953571200370789,0.05000000074505806,0.017201611772179604,0.0685020461678505,0.015987075865268707,-0.0791655033826828,0.011363820172846317,-0.23279856145381927,-0.37329262495040894,-0.0,-0.004516995511949062,-0.47795775532722473,-0.005998285952955484,0.857609748840332,-0.03215895593166351,1.2798911333084106,0.0500529482960701,0.009999999776482582,0.024500282481312752,-0.322074294090271,0.025200918316841125,0.5293782353401184,0.0031826552003622055,0.9185791611671448,-0.6640524864196777,790.0
31,0.021638715639710426,-0.33093908429145813,0.021379856392741203,0.5454337000846863,0.0009702428360469639,0.9514400959014893,-0.6139183044433594,0.05000000074505806,0.019613970071077347,0.05421796813607216,0.02963990718126297,-0.1404363214969635,0.02038574032485485,-0.2365262806415558,-0.3309297263622284,-0.0,-0.004516995511949062,-0.47795775532722473,-0.005998285952955484,0.857609748840332,-0.03215895593166351,1.2798911333084106,0.0500529482960701,0.009999999776482582,0.025000156834721565,-0.32150352001190186,0.025894930586218834,0.526839017868042,0.00392012158408761,0.9107509255409241,-0.6737623810768127,790.0
32,0.022265730425715446,-0.3285652697086334,0.022183280438184738,0.5411539077758789,0.0015819176333025098,0.94183349609375,-0.6305447220802307,0.05000000074505806,0.016098471358418465,0.032618582248687744,0.02324540540575981,-0.0803210586309433,0.012654071673750877,-0.20212897658348083,-0.24749965965747833,-0.0,-0.004516995511949062,-0.47795775532722473,-0.005998285952955484,0.857609748840332,-0.03215895593166351,1.2798911333084106,0.0500529482960701,0.009999999776482582,0.025081312283873558,-0.31833314895629883,0.027699414640665054,0.5227104425430298,0.0040047867223620415,0.9036110043525696,-0.6789876818656921,790.0
33,0.022948352620005608,-0.3264080882072449,0.02308257669210434,0.5368683338165283,0.0021897575352340937,0.9324973225593567,-0.6449085474014282,0.05000000074505806,0.01038625743240118,0.05876656621694565,0.03942261263728142,-0.10417298972606659,0.008554905652999878,-0.21977078914642334,-0.1870460957288742,-0.0,-0.004516995511949062,-0.47795775532722473,-0.005998285952955484,0.857609748840332,-0.03215895593166351,1.2798911333084106,0.0500529482960701,0.009999999776482582,0.026052607223391533,-0.317761093378067,0.028478048741817474,0.5205064415931702,0.004700401797890663,0.8958520293235779,-0.6844552159309387,790.0
34,0.023604128509759903,-0.3244541883468628,0.024089250713586807,0.5329394340515137,0.0027343207038939,0.923546552658081,-0.656890869140625,0.05000000074505806,0.01757899671792984,0.04202178865671158,0.026848817244172096,-0.0828508511185646,0.012932420708239079,-0.18605126440525055,-0.1370963454246521,-0.0,-0.004516995511949062,-0.47795775532722473,-0.005998285952955484,0.857609748840332,-0.03215895593166351,1.2798911333084106,0.0500529482960701,0.009999999776482582,0.026217136532068253,-0.31580790877342224,0.029944945126771927,0.5172998309135437,0.004948528949171305,0.889207124710083,-0.6883923411369324,790.0
35,0.02412184700369835,-0.32261916995048523,0.025117017328739166,0.529520571231842,0.0031676702201366425,0.9160012602806091,-0.6653488278388977,0.04899999871850014,0.012262341566383839,0.04604892060160637,0.03662572801113129,-0.08376015722751617,0.010876907967031002,-0.21147207915782928,-0.12934719026088715,-0.0,-0.004516995511949062,-0.47795775532722473,-0.005998285952955484,0.857609748840332,-0.03215895593166351,1.2798911333084106,0.0500529482960701,0.009999999776482582,0.026686709374189377,-0.31498944759368896,0.030424199998378754,0.5149866938591003,0.005364652723073959,0.8827260732650757,-0.693252444267273,790.0
36,0.02468942105770111,-0.3206940293312073,0.02635570801794529,0.5258735418319702,0.0036316995974630117,0.9076545238494873,-0.6732546091079712,0.05000000074505806,0.012243155390024185,0.030227981507778168,0.021734686568379402,-0.06711903214454651,0.010854918509721756,-0.16872338950634003,-0.12708121538162231,-0.0,-0.004516995511949062,-0.47795775532722473,-0.005998285952955484,0.857609748840332,-0.03215895593166351,1.2798911333084106,0.0500529482960701,0.009999999776482582,0.026544198393821716,-0.3131777048110962,0.03189884126186371,0.5122572183609009,0.005349885672330856,0.8765540719032288,-0.6970296502113342,790.0
37,0.02522631362080574,-0.31897595524787903,0.027590561658143997,0.5225352048873901,0.00407463638111949,0.8996356129646301,-0.6798813939094543,0.04899999871850014,0.0036334162577986717,0.04103527590632439,0.031907323747873306,-0.050138626247644424,0.0048780860379338264,-0.15820308029651642,-0.10209503769874573,-0.0,-0.004516995511949062,-0.47795775532722473,-0.005998285952955484,0.857609748840332,-0.03215895593166351,1.2798911333084106,0.0500529482960701,0.009999999776482582,0.026890497654676437,-0.311879962682724,0.032959166914224625,0.5102386474609375,0.005693126004189253,0.870107114315033,-0.7000218629837036,790.0
38,0.02568267285823822,-0.3172847628593445,0.028758304193615913,0.5195132493972778,0.004471553955227137,0.8921785950660706,-0.6855935454368591,0.04899999871850014,0.006131712347269058,0.03439830243587494,0.027796899899840355,-0.07229288667440414,0.006673349533230066,-0.1491052657365799,-0.07743916660547256,-0.0,-0.004516995511949062,-0.47795775532722473,-0.005998285952955484,0.857609748840332,-0.03215895593166351,1.2798911333084106,0.0500529482960701,0.009999999776482582,0.027308128774166107,-0.31105759739875793,0.03384144604206085,0.5084283947944641,0.006102433893829584,0.8642210960388184,-0.7023481130599976,790.0
39,0.026041241362690926,-0.3157660961151123,0.029899202287197113,0.5166140794754028,0.004807112272828817,0.8852200508117676,-0.6904102563858032,0.04899999871850014,0.008765258826315403,0.027185633778572083,0.025630837306380272,-0.034420158714056015,0.008917161263525486,-0.15200822055339813,-0.0664837583899498,-0.0,-0.004516995511949062,-0.47795775532722473,-0.005998285952955484,0.857609748840332,-0.03215895593166351,1.2798911333084106,0.0500529482960701,0.009999999776482582,0.027290450409054756,-0.30947574973106384,0.03452671319246292,0.5059699416160583,0.0062511689029634,0.8586292862892151,-0.704613983631134,790.0
40,0.026319274678826332,-0.3145159184932709,0.030877115204930305,0.5143591165542603,0.0050870636478066444,0.8794043660163879,-0.693955659866333,0.04899999871850014,0.004372923169285059,0.03886019065976143,0.02290724404156208,-0.07186603546142578,0.006816474255174398,-0.16727757453918457,-0.050282545387744904,-0.0,-0.004516995511949062,-0.47795775532722473,-0.005998285952955484,0.857609748840332,-0.03215895593166351,1.2798911333084106,0.0500529482960701,0.009999999776482582,0.028044814243912697,-0.30948472023010254,0.03506604582071304,0.5050040483474731,0.006671653129160404,0.8536877632141113,-0.7061924934387207,790.0
41,0.026614567264914513,-0.31319093704223633,0.03195665404200554,0.5120312571525574,0.005399612244218588,0.8728216290473938,-0.697328507900238,0.05000000074505806,0.01347864605486393,0.015140928328037262,0.017747169360518456,-0.04380267485976219,0.009233562275767326,-0.13114768266677856,-0.0630469098687172,-0.0,-0.004516995511949062,-0.47795775532722473,-0.005998285952955484,0.857609748840332,-0.03215895593166351,1.2798911333084106,0.0500529482960701,0.009999999776482582,0.02735726349055767,-0.3079065680503845,0.035867299884557724,0.5030877590179443,0.006589306052774191,0.8489096760749817,-0.7084178328514099,790.0
42,0.026917528361082077,-0.31183528900146484,0.03292497992515564,0.5096440315246582,0.005708326119929552,0.8665093183517456,-0.7003312706947327,0.04899999871850014,-0.004997365176677704,0.030906084924936295,0.03000916726887226,-0.044698458164930344,0.0025938537437468767,-0.11817185580730438,-0.03272215649485588,-0.0,-0.004516995511949062,-0.47795775532722473,-0.005998285952955484,0.857609748840332,-0.03215895593166351,1.2798911333084106,0.0500529482960701,0.009999999776482582,0.027834031730890274,-0.30706310272216797,0.036856040358543396,0.50203937292099,0.006937828380614519,0.8438341617584229,-0.7092714905738831,790.0
43,0.02720131352543831,-0.3106924593448639,0.03384728729724884,0.5076057314872742,0.005995947401970625,0.8606993556022644,-0.7028585076332092,0.04899999871850014,0.003967118915170431,0.023612340912222862,0.027165940031409264,-0.03204357996582985,0.00592721626162529,-0.11026094108819962,-0.06248205900192261,-0.0,-0.004516995511949062,-0.47795775532722473,-0.005998285952955484,0.857609748840332,-0.03215895593166351,1.2798911333084106,0.0500529482960701,0.009999999776482582,0.027527686208486557,-0.30628183484077454,0.03716912865638733,0.5005359053611755,0.007018167059868574,0.8392124176025391,-0.7121948003768921,790.0
44,0.02735854685306549,-0.309798926115036,0.03467755392193794,0.5060391426086426,0.006210704799741507,0.8559478521347046,-0.7048872113227844,0.04899999871850014,-0.0019732911605387926,0.03636769577860832,0.010496794246137142,-0.040376581251621246,0.004380495753139257,-0.14624349772930145,-0.049277856945991516,-0.0,-0.004516995511949062,-0.47795775532722473,-0.005998285952955484,0.857609748840332,-0.03215895593166351,1.2798911333084106,0.0500529482960701,0.009999999776482582,0.02841990441083908,-0.3060310482978821,0.03762714937329292,0.49932852387428284,0.007281397935003042,0.8349288105964661,-0.7127791047096252,790.0
45,0.027469761669635773,-0.3087155520915985,0.03552316129207611,0.5043364763259888,0.006427379325032234,0.8506211042404175,-0.7069522738456726,0.04899999871850014,0.01331155002117157,0.00814836099743843,0.017187468707561493,-0.03267398104071617,0.00564904510974884,-0.10314947366714478,-0.047104768455028534,-0.0,-0.004516995511949062,-0.47795775532722473,-0.005998285952955484,0.857609748840332,-0.03215895593166351,1.2798911333084106,0.0500529482960701,0.009999999776482582,0.027577660977840424,-0.30485397577285767,0.038137197494506836,0.49818745255470276,0.007339106872677803,0.8312479257583618,-0.7140936255455017,790.0
46,0.027582891285419464,-0.30775296688079834,0.03621728718280792,0.5027775168418884,0.006640219129621983,0.8454439043998718,-0.7090480923652649,0.04899999871850014,-0.008227195590734482,0.02556079812347889,0.016743050888180733,-0.017507100477814674,0.003504374995827675,-0.10822729021310806,-0.03077048249542713,-0.0,-0.004516995511949062,-0.47795775532722473,-0.005998285952955484,0.857609748840332,-0.03215895593166351,1.2798911333084106,0.0500529482960701,0.009999999776482582,0.02804909646511078,-0.3040880262851715,0.03892693668603897,0.4972158670425415,0.007483103312551975,0.8269543647766113,-0.714570939540863,790.0
47,0.027728620916604996,-0.30690544843673706,0.036863476037979126,0.5013835430145264,0.006843471899628639,0.8406156897544861,-0.7107585072517395,0.04899999871850014,0.004062566440552473,0.017506130039691925,0.012974594719707966,-0.027863407507538795,0.0031231625471264124,-0.07495245337486267,-0.01328311301767826,-0.0,-0.004516995511949062,-0.47795775532722473,-0.005998285952955484,0.857609748840332,-0.03215895593166351,1.2798911333084106,0.0500529482960701,0.009999999776482582,0.02788514271378517,-0.3034834861755371,0.03945697844028473,0.49661996960639954,0.007667230442166328,0.8235395550727844,-0.714966356754303,790.0
48,0.027788061648607254,-0.3061806559562683,0.03740803897380829,0.5002407431602478,0.006998787168413401,0.836775004863739,-0.7120106220245361,0.04899999871850014,-6.551417027367279e-05,0.030555391684174538,0.016463959589600563,-0.003116430714726448,0.0047468217089772224,-0.12886446714401245,0.00527294771745801,-0.0,-0.004516995511949062,-0.47795775532722473,-0.005998285952955484,0.857609748840332,-0.03215895593166351,1.2798911333084106,0.0500529482960701,0.009999999776482582,0.02839699760079384,-0.30303463339805603,0.03925240784883499,0.4954942762851715,0.00793430395424366,0.8198044300079346,-0.7149704694747925,790.0
49,0.027809154242277145,-0.30531010031700134,0.03799670562148094,0.4990902245044708,0.007177112624049187,0.8324952125549316,-0.7129827737808228,0.05000000074505806,0.0074251131154596806,0.00949041172862053,0.00088253163266927,-0.02727864310145378,0.005336066707968712,-0.06882786005735397,-0.023712774738669395,-0.0,-0.004516995511949062,-0.47795775532722473,-0.005998285952955484,0.857609748840332,-0.03215895593166351,1.2798911333084106,0.0500529482960701,0.009999999776482582,0.02774781361222267,-0.30246061086654663,0.040075283497571945,0.4949955940246582,0.0077823009341955185,0.8171338438987732,-0.7165209054946899,790.0
50,0.02786284312605858,-0.30454888939857483,0.03851058706641197,0.498022198677063,0.007357355207204819,0.8283630609512329,-0.7137631773948669,0.04899999871850014,-0.008838481269776821,0.016322607174515724,0.017407119274139404,-0.021537747234106064,0.00019352423259988427,-0.10607454180717468,-0.028473524376749992,-0.0,-0.004516995511949062,-0.47795775532722473,-0.005998285952955484,0.857609748840332,-0.03215895593166351,1.2798911333084106,0.0500529482960701,0.009999999776482582,0.028011474758386612,-0.3021930158138275,0.04000982269644737,0.4941917955875397,0.008008833974599838,0.8132007718086243,-0.7176371812820435,790.0
51,0.027943378314375877,-0.30388543009757996,0.03893435001373291,0.49700209498405457,0.0075126709416508675,0.8244839906692505,-0.7144822478294373,0.05000000074505806,0.0015712050953879952,0.0069695389829576015,0.0024122141767293215,-0.015841439366340637,0.003005228703841567,-0.05549708753824234,-0.022693859413266182,-0.0,-0.004516995511949062,-0.47795775532722473,-0.005998285952955484,0.857609748840332,-0.03215895593166351,1.2798911333084106,0.0500529482960701,0.009999999776482582,0.027623092755675316,-0.3013196587562561,0.0407106876373291,0.4936385452747345,0.007947866804897785,0.8108206391334534,-0.717462956905365,790.0
52,0.02798556163907051,-0.30240321159362793,0.039908427745103836,0.49455347657203674,0.00792109314352274,0.8144325613975525,-0.7172913551330566,0.04899999871850014,0.0,-0.0010961389634758234,0.0,0.0,0.0,0.0,0.011156486347317696,-0.0,-0.004516995511949062,-0.47795775532722473,-0.005998285952955484,0.857609748840332,-0.03215895593166351,1.2798911333084106,0.0500529482960701,0.009999999776482582,0.02731785550713539,-0.2996236979961395,0.04193941876292229,0.49216458201408386,0.008219116367399693,0.8034551739692688,-0.7180747389793396,790.0
53,0.02799706719815731,-0.3022843301296234,0.039967868477106094,0.4943655729293823,0.007955607958137989,0.8137959837913513,-0.7174389958381653,0.04899999871850014,-0.006644624285399914,0.02771786041557789,0.020120924338698387,-0.02133704349398613,0.002158436691388488,-0.06270833313465118,-0.006291260942816734,-0.0,-0.004516995511949062,-0.47795775532722473,-0.005998285952955484,0.857609748840332,-0.03215895593166351,1.2798911333084106,0.0500529482960701,0.009999999776482582,0.0278263371437788,-0.30084070563316345,0.041021812707185745,0.4925794303417206,0.00852890033274889,0.8020383715629578,-0.719201385974884,790.0
54,0.02799706719815731,-0.30206766724586487,0.04013277217745781,0.4941259026527405,0.007978617213666439,0.812940776348114,-0.7175137400627136,0.04899999871850014,0.0020744565408676863,0.0041104997508227825,0.0016037686727941036,-0.01109055895358324,0.006811069790273905,-0.17881590127944946,-0.026218652725219727,-0.0,-0.004516995511949062,-0.47795775532722473,-0.005998285952955484,0.857609748840332,-0.03215895593166351,1.2798911333084106,0.0500529482960701,0.009999999776482582,0.028477458283305168,-0.3008544445037842,0.039906855672597885,0.49063947796821594,0.008622749708592892,0.8000137209892273,-0.7199967503547668,790.0
55,0.02799706719815731,-0.3016189634799957,0.04045107215642929,0.4936733543872833,0.00805723387748003,0.810263991355896,-0.7177687883377075,0.04899999871850014,0.013535875827074051,3.568019383237697e-05,-0.021463710814714432,-0.04077335074543953,0.004560706205666065,-0.0633048340678215,-0.02543731778860092,-0.0,-0.004516995511949062,-0.47795775532722473,-0.005998285952955484,0.857609748840332,-0.03215895593166351,1.2798911333084106,0.0500529482960701,0.009999999776482582,0.027943266555666924,-0.30033963918685913,0.04136107861995697,0.49130910634994507,0.00847696978598833,0.7992916703224182,-0.7200262546539307,790.0
56,0.02799706719815731,-0.30130642652511597,0.04058913141489029,0.49303868412971497,0.008206796832382679,0.806755006313324,-0.7183287143707275,0.05000000074505806,-0.0059564923867583275,0.010092382319271564,0.006715354043990374,-0.0218900665640831,-0.0007225198205560446,-0.028699347749352455,-0.007121672388166189,-0.0,-0.004516995511949062,-0.47795775532722473,-0.005998285952955484,0.857609748840332,-0.03215895593166351,1.2798911333084106,0.0500529482960701,0.009999999776482582,0.027443846687674522,-0.29980817437171936,0.041736580431461334,0.4915889799594879,0.008485195226967335,0.796901524066925,-0.7194401025772095,790.0
57,0.02799706719815731,-0.3010801672935486,0.040594883263111115,0.4922371804714203,0.00831417553126812,0.804085910320282,-0.7188540697097778,0.04899999871850014,-0.010648589581251144,0.011888543143868446,0.010821784846484661,0.007864084094762802,-0.00011261970939813182,-0.05118803307414055,0.009707444347441196,-0.0,-0.004516995511949062,-0.47795775532722473,-0.005998285952955484,0.857609748840332,-0.03215895593166351,1.2798911333084106,0.0500529482960701,0.009999999776482582,0.02762485109269619,-0.2992306351661682,0.0415949672460556,0.49055540561676025,0.008648118004202843,0.79445880651474,-0.7193031311035156,790.0
58,0.02799706719815731,-0.30072352290153503,0.04084032028913498,0.49172136187553406,0.008373617194592953,0.8016890287399292,-0.7192394733428955,0.04899999871850014,0.000647867564111948,0.01420408021658659,-0.00023292067635338753,-0.016882602125406265,0.002694715978577733,-0.06080078333616257,0.005270293448120356,-0.0,-0.004516995511949062,-0.47795775532722473,-0.005998285952955484,0.857609748840332,-0.03215895593166351,1.2798911333084106,0.0500529482960701,0.009999999776482582,0.02785622887313366,-0.2995741069316864,0.04147668182849884,0.490379273891449,0.008813641034066677,0.7924323081970215,-0.7198062539100647,790.0
59,0.02799706719815731,-0.30033618211746216,0.0411451980471611,0.4915027916431427,0.008431142196059227,0.799336314201355,-0.7193737030029297,0.04899999871850014,0.004455314949154854,-0.003867765888571739,-0.002142987446859479,-0.007077147718518972,0.003872833214700222,-0.05144288018345833,-0.008795974776148796,-0.0,-0.004516995511949062,-0.47795775532722473,-0.005998285952955484,0.857609748840332,-0.03215895593166351,1.2798911333084106,0.0500529482960701,0.009999999776482582,0.027425279840826988,-0.29897764325141907,0.041620902717113495,0.4898598790168762,0.008725842460989952,0.7906977534294128,-0.7204961776733398,790.0
60,0.027970222756266594,-0.29994502663612366,0.04131969064474106,0.49114421010017395,0.008517428301274776,0.7969854474067688,-0.7194446325302124,0.05000000074505806,-0.006625118665397167,0.008676997385919094,0.0019983737729489803,-0.012329927645623684,-0.0005333268200047314,-0.037190306931734085,-0.016627337783575058,-0.0,-0.004516995511949062,-0.47795775532722473,-0.005998285952955484,0.857609748840332,-0.03215895593166351,1.2798911333084106,0.0500529482960701,0.009999999776482582,0.027337899431586266,-0.2989259362220764,0.04189600795507431,0.4901367425918579,0.008670254610478878,0.788952112197876,-0.7206010222434998,790.0
61,0.027903109788894653,-0.29970917105674744,0.04141172766685486,0.4908316731452942,0.008590292185544968,0.7950526475906372,-0.7196229696273804,0.05000000074505806,-0.004499349743127823,0.004570723045617342,0.006595965940505266,0.003034063382074237,-0.001272422494366765,-0.06035993620753288,-0.006443162448704243,-0.0,-0.004516995511949062,-0.47795775532722473,-0.005998285952955484,0.857609748840332,-0.03215895593166351,1.2798911333084106,0.0500529482960701,0.009999999776482582,0.027304723858833313,-0.2985926866531372,0.04160007834434509,0.48959559202194214,0.008759569376707077,0.7871590256690979,-0.720302402973175,790.0
62,0.02778230980038643,-0.2994445562362671,0.04152294248342514,0.4905152916908264,0.008622889406979084,0.7929185032844543,-0.7199240326881409,0.04899999871850014,-0.0009895551484078169,0.005144570488482714,-0.0037095167208462954,-0.007590359076857567,0.0009642733493819833,-0.0029731381218880415,0.0037483996711671352,-0.0,-0.004516995511949062,-0.47795775532722473,-0.005998285952955484,0.857609748840332,-0.03215895593166351,1.2798911333084106,0.0500529482960701,0.009999999776482582,0.027101654559373856,-0.29823970794677734,0.04237533360719681,0.48980528116226196,0.008805599994957447,0.7861230969429016,-0.7203226685523987,790.0
63,0.02764425054192543,-0.29920294880867004,0.041620735079050064,0.4903005361557007,0.008638229221105576,0.7911160588264465,-0.7201464772224426,0.04899999871850014,-0.0053015537559986115,0.01251879334449768,0.011203564703464508,-0.0003975575673393905,0.001654188265092671,-0.06860527396202087,0.00227609695866704,-0.0,-0.004516995511949062,-0.47795775532722473,-0.005998285952955484,0.857609748840332,-0.03215895593166351,1.2798911333084106,0.0500529482960701,0.009999999776482582,0.02732519432902336,-0.2985157370567322,0.041556622833013535,0.48939353227615356,0.008982185274362564,0.7838485836982727,-0.7206661105155945,790.0
64,0.027523450553417206,-0.29897668957710266,0.041724275797605515,0.49013179540634155,0.008663156069815159,0.7896185517311096,-0.7202346324920654,0.05000000074505806,0.002330264775082469,-0.0031208456493914127,-0.006784477271139622,-0.005453975405544043,0.002479380927979946,-0.006274266168475151,-0.00418288167566061,-0.0,-0.004516995511949062,-0.47795775532722473,-0.005998285952955484,0.857609748840332,-0.03215895593166351,1.2798911333084106,0.0500529482960701,0.009999999776482582,0.026708699762821198,-0.29791688919067383,0.04229658469557762,0.48940208554267883,0.008737505413591862,0.7835277318954468,-0.7205806970596313,790.0
65,0.027402648702263832,-0.2987139821052551,0.04190260171890259,0.4899553954601288,0.008714928291738033,0.7880653738975525,-0.7203017473220825,0.04899999871850014,-0.016573823988437653,0.014866039156913757,0.009348914958536625,-0.004747349303215742,-0.003753477707505226,-0.06556382775306702,-0.0017255345592275262,-0.0,-0.004516995511949062,-0.47795775532722473,-0.005998285952955484,0.857609748840332,-0.03215895593166351,1.2798911333084106,0.0500529482960701,0.009999999776482582,0.027267659083008766,-0.29820603132247925,0.04193168878555298,0.4892188608646393,0.00895152147859335,0.781385064125061,-0.7208869457244873,790.0
66,0.027272261679172516,-0.2984992265701294,0.04200231283903122,0.4897732138633728,0.008757112547755241,0.7864757776260376,-0.7203784584999084,0.04899999871850014,0.008394245989620686,-0.004194232169538736,-0.005409435834735632,-0.0026378475595265627,0.003021325683221221,-0.005347303580492735,-0.004341330844908953,-0.0,-0.004516995511949062,-0.47795775532722473,-0.005998285952955484,0.857609748840332,-0.03215895593166351,1.2798911333084106,0.0500529482960701,0.009999999776482582,0.026470109820365906,-0.2976057529449463,0.042304255068302155,0.48914003372192383,0.008877789601683617,0.7809837460517883,-0.7210444808006287,790.0
67,0.027105441316962242,-0.2982921600341797,0.0420675054192543,0.4896121621131897,0.008776287548244,0.785060703754425,-0.7204858660697937,0.04899999871850014,-0.007337861694395542,0.01022239588201046,0.005323406308889389,-0.004060155712068081,0.0005937289097346365,-0.05607995763421059,-0.007669151294976473,-0.0,-0.004516995511949062,-0.47795775532722473,-0.005998285952955484,0.857609748840332,-0.03215895593166351,1.2798911333084106,0.0500529482960701,0.009999999776482582,0.026848888024687767,-0.29793667793273926,0.04190990328788757,0.4889790713787079,0.008991795592010021,0.7791383862495422,-0.7213084697723389,790.0
68,0.027001896873116493,-0.29814451932907104,0.04210393875837326,0.4894760251045227,0.008791627362370491,0.7837817072868347,-0.7206239104270935,0.05000000074505806,0.005732991266995668,-0.005065507255494595,-0.005854198709130287,-0.0025287833996117115,0.001592398388311267,-0.0016596295172348619,-0.004037960432469845,-0.0,-0.004516995511949062,-0.47795775532722473,-0.005998285952955484,0.857609748840332,-0.03215895593166351,1.2798911333084106,0.0500529482960701,0.009999999776482582,0.02617998607456684,-0.29736587405204773,0.042362600564956665,0.48902463912963867,0.008810596540570259,0.7789314985275269,-0.7208900451660156,790.0
69,0.026840828359127045,-0.2979700267314911,0.04214228689670563,0.48934561014175415,0.00882614217698574,0.7825065851211548,-0.7208060622215271,0.04899999871850014,-0.018809840083122253,0.015612619929015636,0.009938821196556091,-0.000986258382909,-0.0035460807848721743,-0.04488549754023552,0.010130270384252071,-0.0,-0.004516995511949062,-0.47795775532722473,-0.005998285952955484,0.857609748840332,-0.03215895593166351,1.2798911333084106,0.0500529482960701,0.009999999776482582,0.026761077344417572,-0.297568142414093,0.0422472283244133,0.48900163173675537,0.009019298478960991,0.7772119641304016,-0.7207291126251221,790.0
70,0.026714274659752846,-0.2978319525718689,0.042157627642154694,0.48923057317733765,0.00884915143251419,0.7813829779624939,-0.7209019660949707,0.04899999871850014,0.00935901515185833,-0.0031067077070474625,-0.0017706997459754348,-0.00041004011291079223,0.0031086010858416557,-0.004652522038668394,0.0024465431924909353,-0.0,-0.004516995511949062,-0.47795775532722473,-0.005998285952955484,0.857609748840332,-0.03215895593166351,1.2798911333084106,0.0500529482960701,0.009999999776482582,0.02601631172001362,-0.29720908403396606,0.04224081337451935,0.48888295888900757,0.008975334465503693,0.7769414782524109,-0.7211583852767944,790.0
71,0.02657046541571617,-0.29768240451812744,0.042201727628707886,0.48916155099868774,0.008862573653459549,0.7802152037620544,-0.7209153771400452,0.04899999871850014,-0.01707952842116356,0.008252909407019615,-0.0014061250258237123,-0.003241138532757759,0.0010599569650366902,-0.03351444751024246,-0.011406497098505497,-0.0,-0.004516995511949062,-0.47795775532722473,-0.005998285952955484,0.857609748840332,-0.03215895593166351,1.2798911333084106,0.0500529482960701,0.009999999776482582,0.026422832161188126,-0.29733771085739136,0.04240025579929352,0.4886699318885803,0.008942361921072006,0.7755265831947327,-0.7216626405715942,790.0
72,0.02646883763372898,-0.2975539267063141,0.04222282022237778,0.4890810251235962,0.00887791346758604,0.7790014743804932,-0.720924973487854,0.05000000074505806,0.0070488848723471165,-0.002133322414010763,0.0025794922839850187,-0.003491164417937398,-0.00045487075112760067,-0.008702225983142853,-0.009338931180536747,-0.0,-0.004516995511949062,-0.47795775532722473,-0.005998285952955484,0.857609748840332,-0.03215895593166351,1.2798911333084106,0.0500529482960701,0.009999999776482582,0.025674330070614815,-0.2972014248371124,0.04207804799079895,0.4889364242553711,0.008886243216693401,0.7750167846679688,-0.721427321434021,790.0
73,0.02635378949344158,-0.29745230078697205,0.042236242443323135,0.48900240659713745,0.008891335688531399,0.7781098484992981,-0.7210304141044617,0.04899999871850014,-0.01914786547422409,0.0019429837120696902,-0.007332990877330303,0.0049439603462815285,-0.0016071293503046036,-0.03657405823469162,0.0010087162954732776,-0.0,-0.004516995511949062,-0.47795775532722473,-0.005998285952955484,0.857609748840332,-0.03215895593166351,1.2798911333084106,0.0500529482960701,0.009999999776482582,0.026371730491518974,-0.29685652256011963,0.04252929612994194,0.4882432520389557,0.008919051848351955,0.7738396525382996,-0.7211061120033264,790.0
74,0.026221483945846558,-0.29735833406448364,0.04224199429154396,0.4889199435710907,0.008895170874893665,0.7770456671714783,-0.721189558506012,0.04899999871850014,0.013730261474847794,0.00620860094204545,0.008780823089182377,-0.014397249557077885,0.00046490938984788954,-0.00789356604218483,0.005786688067018986,-0.0,-0.004516995511949062,-0.47795775532722473,-0.005998285952955484,0.857609748840332,-0.03215895593166351,1.2798911333084106,0.0500529482960701,0.009999999776482582,0.02563716471195221,-0.2974036931991577,0.04190908744931221,0.4892129600048065,0.009118949063122272,0.7734284400939941,-0.721388041973114,790.0
75,0.026089178398251534,-0.2972739636898041,0.04224391281604767,0.48885858058929443,0.008899006061255932,0.7760849595069885,-0.721256673336029,0.04899999871850014,-0.012528210878372192,-0.011714897118508816,-0.012675975449383259,0.014882850460708141,0.004398061893880367,-0.014521121047437191,-0.004558272194117308,-0.0,-0.004516995511949062,-0.47795775532722473,-0.005998285952955484,0.857609748840332,-0.03215895593166351,1.2798911333084106,0.0500529482960701,0.009999999776482582,0.025798724964261055,-0.2963675260543823,0.04265693575143814,0.4879012405872345,0.008847112767398357,0.7725632190704346,-0.7214713096618652,790.0
76,0.026041241362690926,-0.29719534516334534,0.04224391281604767,0.4887588620185852,0.008910510689020157,0.7751243114471436,-0.7212719917297363,0.05000000074505806,0.0034365698229521513,0.01738240197300911,0.013602462597191334,-0.02774350717663765,-0.005181409418582916,-0.02043377421796322,-0.002289579017087817,-0.0,-0.004516995511949062,-0.47795775532722473,-0.005998285952955484,0.857609748840332,-0.03215895593166351,1.2798911333084106,0.0500529482960701,0.009999999776482582,0.02566005475819111,-0.2977409362792969,0.04178241640329361,0.4894564747810364,0.009074363857507706,0.7717196941375732,-0.7215266227722168,790.0
77,0.025949202477931976,-0.2971608340740204,0.04224391281604767,0.48874354362487793,0.008935438469052315,0.7743458151817322,-0.7212969660758972,0.04899999871850014,-0.001271784771233797,-0.000757036090362817,-0.005832558032125235,0.004514592699706554,0.0025759453419595957,-0.018970366567373276,-0.0015379269607365131,-0.0,-0.004516995511949062,-0.47795775532722473,-0.005998285952955484,0.857609748840332,-0.03215895593166351,1.2798911333084106,0.0500529482960701,0.009999999776482582,0.025674648582935333,-0.2967573404312134,0.04223699867725372,0.4883144497871399,0.00899364985525608,0.7711249589920044,-0.7215290069580078,790.0
78,0.025851411744952202,-0.2970035970211029,0.04224391281604767,0.48861122131347656,0.008948860689997673,0.7735078930854797,-0.7213563919067383,0.04899999871850014,-0.00026956587680615485,-0.012303795665502548,0.002957211108878255,0.014078368432819843,-0.00034276116639375687,-0.016115382313728333,-0.0006314855418168008,-0.0,-0.004516995511949062,-0.47795775532722473,-0.005998285952955484,0.857609748840332,-0.03215895593166351,1.2798911333084106,0.0500529482960701,0.009999999776482582,0.025274841114878654,-0.29637786746025085,0.04212099313735962,0.4880722463130951,0.008940314874053001,0.7705177068710327,-0.7215715050697327,790.0
79,0.025791969150304794,-0.2969997823238373,0.04224391281604767,0.48861122131347656,0.008954612538218498,0.772748589515686,-0.7214139103889465,0.04899999871850014,-0.014124618843197823,0.025547949597239494,-0.0004779710725415498,-0.018438884988427162,-0.0015471178339794278,-0.03394098952412605,-0.0014410796575248241,-0.0,-0.004516995511949062,-0.47795775532722473,-0.005998285952955484,0.857609748840332,-0.03215895593166351,1.2798911333084106,0.0500529482960701,0.009999999776482582,0.026088979095220566,-0.29741889238357544,0.04218533635139465,0.4888848662376404,0.009130625054240227,0.7695502638816833,-0.7216705679893494,790.0
80,0.025701848790049553,-0.29699018597602844,0.04224391281604767,0.48860931396484375,0.008958447724580765,0.7720583081245422,-0.721461832523346,0.04899999871850014,0.017703605815768242,-0.022808585315942764,0.001041040406562388,0.01765242964029312,0.0033880125265568495,-0.005296668503433466,-0.001812304137274623,-0.0,-0.004516995511949062,-0.47795775532722473,-0.005998285952955484,0.857609748840332,-0.03215895593166351,1.2798911333084106,0.0500529482960701,0.009999999776482582,0.024787021800875664,-0.29625678062438965,0.04187324643135071,0.48799940943717957,0.00895928218960762,0.7695890665054321,-0.7217674255371094,790.0
81,0.025621313601732254,-0.2969326674938202,0.04224391281604767,0.48858439922332764,0.008964200504124165,0.7713354229927063,-0.7215193510055542,0.04899999871850014,-0.012483391910791397,0.007214877288788557,-0.005590116139501333,-0.010263623669743538,-0.0022009529639035463,-0.004071338102221489,-0.002240218222141266,-0.0,-0.004516995511949062,-0.47795775532722473,-0.005998285952955484,0.857609748840332,-0.03215895593166351,1.2798911333084106,0.0500529482960701,0.009999999776482582,0.025562327355146408,-0.2968083620071411,0.04253144562244415,0.48859813809394836,0.008982022292912006,0.7688469290733337,-0.7216974496841431,790.0
82,0.025607891380786896,-0.296930730342865,0.04222665727138519,0.4885786473751068,0.00897570513188839,0.7706259489059448,-0.72157883644104,0.05000000074505806,0.006446938030421734,-0.003242787905037403,0.014636067673563957,0.00582111906260252,-0.00029423009254969656,-0.018409347161650658,0.0006204611854627728,-0.0,-0.004516995511949062,-0.47795775532722473,-0.005998285952955484,0.857609748840332,-0.03215895593166351,1.2798911333084106,0.0500529482960701,0.009999999776482582,0.024894848465919495,-0.2967855632305145,0.041656702756881714,0.48860499262809753,0.009018218144774437,0.7682609558105469,-0.72156822681427,790.0
83,0.02546791546046734,-0.29685020446777344,0.04221706837415695,0.48849618434906006,0.008983374573290348,0.7701235413551331,-0.7216190695762634,0.05000000074505806,-0.005855209659785032,-0.001438983716070652,-0.013712112791836262,0.002094690455123782,0.0005807229317724705,-0.0177816953510046,0.0028542799409478903,-0.0,-0.004516995511949062,-0.47795775532722473,-0.005998285952955484,0.857609748840332,-0.03215895593166351,1.2798911333084106,0.0500529482960701,0.009999999776482582,0.025417519733309746,-0.29650890827178955,0.042317360639572144,0.48810750246047974,0.008929201401770115,0.7678384184837341,-0.7211771011352539,790.0
84,0.02537587657570839,-0.2967792749404907,0.04219597578048706,0.4884559214115143,0.008987209759652615,0.769519567489624,-0.7216382622718811,0.04899999871850014,0.016244562342762947,0.007354674395173788,0.021160969510674477,-0.015559199266135693,-0.0019468836253508925,-0.01296973880380392,0.011710426770150661,-0.0,-0.004516995511949062,-0.47795775532722473,-0.005998285952955484,0.857609748840332,-0.03215895593166351,1.2798911333084106,0.0500529482960701,0.009999999776482582,0.02485533431172371,-0.2972164750099182,0.04143575578927994,0.4891318678855896,0.009247458539903164,0.7673903703689575,-0.7215977907180786,790.0
85,0.025285756215453148,-0.29673707485198975,0.04216529801487923,0.4884309768676758,0.008989127352833748,0.7689021229743958,-0.7216382622718811,0.04899999871850014,-0.015937821939587593,-0.02198576182126999,-0.02777833677828312,0.03336435928940773,0.00846121832728386,-0.012271959334611893,-0.011622313410043716,-0.0,-0.004516995511949062,-0.47795775532722473,-0.005998285952955484,0.857609748840332,-0.03215895593166351,1.2798911333084106,0.0500529482960701,0.009999999776482582,0.025184622034430504,-0.29551491141319275,0.042743925005197525,0.4869617521762848,0.008771220222115517,0.7669066786766052,-0.7218554615974426,790.0
86,0.025230148807168007,-0.29671216011047363,0.04213845357298851,0.4884156584739685,0.00899871438741684,0.7684323191642761,-0.7216324806213379,0.04899999871850014,0.005564525257796049,0.024009445682168007,0.02041975036263466,-0.02921062894165516,-0.006909387651830912,0.007330884225666523,-0.004715047776699066,-0.0,-0.004516995511949062,-0.47795775532722473,-0.005998285952955484,0.857609748840332,-0.03215895593166351,1.2798911333084106,0.0500529482960701,0.009999999776482582,0.024825358763337135,-0.29748088121414185,0.04174123331904411,0.4896594285964966,0.009166479110717773,0.766669511795044,-0.7222696542739868,790.0
87,0.025140028446912766,-0.2967044711112976,0.04200039431452751,0.4884118139743805,0.00904856901615858,0.7679951786994934,-0.7216286659240723,0.05000000074505806,-0.003255491377785802,0.01250462606549263,0.0008203210891224444,-0.014741343446075916,0.0032393529545515776,-0.0174025259912014,-0.006852256134152412,-0.0,-0.004516995511949062,-0.47795775532722473,-0.005998285952955484,0.857609748840332,-0.03215895593166351,1.2798911333084106,0.0500529482960701,0.009999999776482582,0.025079157203435898,-0.2971052825450897,0.041796181350946426,0.4887361526489258,0.009109641425311565,0.7661096453666687,-0.721837043762207,790.0
88,0.0250786691904068,-0.2965012192726135,0.04200039431452751,0.48817020654678345,0.009056239388883114,0.767617404460907,-0.7216286659240723,0.04899999871850014,0.0015520298620685935,-0.031421855092048645,-0.006232391111552715,0.0689258724451065,0.0010532238520681858,-0.010169695131480694,0.0023496386129409075,-0.0,-0.004516995511949062,-0.47795775532722473,-0.005998285952955484,0.857609748840332,-0.03215895593166351,1.2798911333084106,0.0500529482960701,0.009999999776482582,0.024318553507328033,-0.29477888345718384,0.04206840321421623,0.48670294880867004,0.008758089505136013,0.7659946084022522,-0.7213822603225708,790.0
89,0.0250556580722332,-0.29643794894218445,0.04200039431452751,0.48814529180526733,0.009058156982064247,0.7672300934791565,-0.7216343879699707,0.05000000074505806,-0.012780660763382912,0.02605309523642063,0.0010757651180028915,-0.0569780170917511,-0.00512012979015708,-0.007352964021265507,0.009071674197912216,-0.0,-0.004516995511949062,-0.47795775532722473,-0.005998285952955484,0.857609748840332,-0.03215895593166351,1.2798911333084106,0.0500529482960701,0.009999999776482582,0.025503169745206833,-0.2976217269897461,0.04208455607295036,0.4893679916858673,0.009234333410859108,0.7655388116836548,-0.7212177515029907,790.0
90,0.02498663030564785,-0.29642453789711,0.04200039431452751,0.4882239103317261,0.009058156982064247,0.7668178081512451,-0.72166508436203,0.04899999871850014,0.011321592144668102,0.017900990322232246,0.0005484756547957659,-0.0174556877464056,0.00500055868178606,-0.007976223714649677,0.004476114176213741,-0.0,-0.004516995511949062,-0.47795775532722473,-0.005998285952955484,0.857609748840332,-0.03215895593166351,1.2798911333084106,0.0500529482960701,0.009999999776482582,0.024974754080176353,-0.2970554530620575,0.041651707142591476,0.4888710379600525,0.009278493002057076,0.7652678489685059,-0.7217521667480469,790.0
91,0.024881169199943542,-0.2960832118988037,0.04200039431452751,0.48809733986854553,0.009058156982064247,0.7665263414382935,-0.7216669917106628,0.04899999871850014,0.0002509517362341285,-0.07265084236860275,-0.0059547340497374535,0.06296896189451218,0.003675684565678239,-0.008744223974645138,-0.005213877186179161,-0.0,-0.004516995511949062,-0.47795775532722473,-0.005998285952955484,0.857609748840332,-0.03215895593166351,1.2798911333084106,0.0500529482960701,0.009999999776482582,0.023766644299030304,-0.2941191494464874,0.042060736566782,0.4859190583229065,0.00865897722542286,0.7652207612991333,-0.7217443585395813,790.0
92,0.024854322895407677,-0.29606980085372925,0.04200039431452751,0.4880704879760742,0.009058156982064247,0.7662004232406616,-0.7216669917106628,0.04899999871850014,-0.021248696371912956,0.06322751194238663,0.003975792787969112,-0.0551019087433815,-0.008762638084590435,-0.004616342950612307,-0.002298871986567974,-0.0,-0.004516995511949062,-0.47795775532722473,-0.005998285952955484,0.857609748840332,-0.03215895593166351,1.2798911333084106,0.0500529482960701,0.009999999776482582,0.025727158412337303,-0.29780998826026917,0.04220636561512947,0.48997294902801514,0.009288066998124123,0.7645521759986877,-0.7219956517219543,790.0
93,0.024798717349767685,-0.29618293046951294,0.04200039431452751,0.48808008432388306,0.009058156982064247,0.765874445438385,-0.7216669917106628,0.04899999871850014,0.006074326112866402,0.04441859573125839,0.002865246497094631,-0.0441286601126194,0.004758509341627359,-0.00894724577665329,-0.0034559029154479504,-0.0,-0.004516995511949062,-0.47795775532722473,-0.005998285952955484,0.857609748840332,-0.03215895593166351,1.2798911333084106,0.0500529482960701,0.009999999776482582,0.02521369978785515,-0.2977575659751892,0.04161573573946953,0.4895867109298706,0.009400011971592903,0.7644004225730896,-0.7221931219100952,790.0
94,0.02466641180217266,-0.295872300863266,0.04200039431452751,0.487702339887619,0.009058156982064247,0.7656078934669495,-0.7216669917106628,0.04899999871850014,0.006003240589052439,-0.07828223705291748,-0.006268405821174383,0.09386798739433289,0.00763868261128664,-0.008276984095573425,-0.005088196601718664,-0.0,-0.004516995511949062,-0.47795775532722473,-0.005998285952955484,0.857609748840332,-0.03215895593166351,1.2798911333084106,0.0500529482960701,0.009999999776482582,0.023353522643446922,-0.2934504747390747,0.0419623963534832,0.48523348569869995,0.008585119619965553,0.7645390629768372,-0.7216873168945312,790.0
95,0.024649154394865036,-0.2958090305328369,0.04200039431452751,0.48766016960144043,0.009058156982064247,0.7653260231018066,-0.721672773361206,0.04899999871850014,-0.020485829561948776,0.03880944475531578,0.001945274998433888,-0.05009613558650017,-0.010498755611479282,-0.0015397591050714254,0.004636120516806841,-0.0,-0.004516995511949062,-0.47795775532722473,-0.005998285952955484,0.857609748840332,-0.03215895593166351,1.2798911333084106,0.0500529482960701,0.009999999776482582,0.025379549711942673,-0.29717499017715454,0.04227830842137337,0.48918417096138,0.009202474728226662,0.7639488577842712,-0.7216472029685974,790.0
96,0.024647235870361328,-0.2959892749786377,0.04200039431452751,0.4879938066005707,0.009058156982064247,0.7650192379951477,-0.721749484539032,0.04899999871850014,-0.011983913369476795,0.06672639399766922,0.003999579697847366,-0.09014780819416046,0.0012709734728559852,-0.0068242475390434265,0.0021800552494823933,-0.0,-0.004516995511949062,-0.47795775532722473,-0.005998285952955484,0.857609748840332,-0.03215895593166351,1.2798911333084106,0.0500529482960701,0.009999999776482582,0.02576211839914322,-0.29857170581817627,0.04192473366856575,0.49041101336479187,0.009556198492646217,0.7636203765869141,-0.7220845222473145,790.0
97,0.02456670254468918,-0.29574573040008545,0.04200039431452751,0.48766398429870605,0.009058156982064247,0.7648140788078308,-0.7218050956726074,0.04899999871850014,0.022471094503998756,-0.08054422587156296,-0.0015312450705096126,0.09050486236810684,0.008146485313773155,-0.011183321475982666,-0.004436752758920193,-0.0,-0.004516995511949062,-0.47795775532722473,-0.005998285952955484,0.857609748840332,-0.03215895593166351,1.2798911333084106,0.0500529482960701,0.009999999776482582,0.023053325712680817,-0.29357123374938965,0.04151781275868416,0.4853690564632416,0.008662151172757149,0.7639263868331909,-0.7218822240829468,790.0
98,0.024545609951019287,-0.2955980896949768,0.04200039431452751,0.4873571991920471,0.009060073643922806,0.7645801305770874,-0.7218415141105652,0.04899999871850014,-0.007786552421748638,-0.04395979270339012,-0.004691252019256353,0.042750295251607895,-0.0076123508624732494,0.00045624232734553516,0.0007574711926281452,-0.0,-0.004516995511949062,-0.47795775532722473,-0.005998285952955484,0.857609748840332,-0.03215895593166351,1.2798911333084106,0.0500529482960701,0.009999999776482582,0.02394493669271469,-0.2943733036518097,0.04225892201066017,0.48631006479263306,0.008682239800691605,0.7636500000953674,-0.7215844988822937,790.0
99,0.024545609951019287,-0.29623469710350037,0.041998475790023804,0.4879765510559082,0.009079248644411564,0.7643001675605774,-0.7218683362007141,0.04899999871850014,-0.008770983666181564,0.10776327550411224,0.005860691890120506,-0.10187637805938721,-0.004734261427074671,-0.0028198305517435074,0.003915390931069851,-0.0,-0.004516995511949062,-0.47795775532722473,-0.005998285952955484,0.857609748840332,-0.03215895593166351,1.2798911333084106,0.0500529482960701,0.009999999776482582,0.02604687213897705,-0.29942840337753296,0.04185045510530472,0.4914197027683258,0.009671078063547611,0.7630123496055603,-0.7221494913101196,790.0
100,0.024545609951019287,-0.2963114082813263,0.04198313504457474,0.4880915880203247,0.009086919017136097,0.7640835046768188,-0.721877932548523,0.04899999871850014,0.020065665245056152,-0.03300069645047188,-0.00170031376183033,0.04828665405511856,0.009724345989525318,-0.00920889899134636,-0.004588226322084665,-0.0,-0.004516995511949062,-0.47795775532722473,-0.005998285952955484,0.857609748840332,-0.03215895593166351,1.2798911333084106,0.0500529482960701,0.009999999776482582,0.023698464035987854,-0.29527613520622253,0.04149208962917328,0.48703426122665405,0.00896234530955553,0.763260543346405,-0.7221039533615112,790.0
101,0.024545609951019287,-0.2957860231399536,0.041952457278966904,0.48771002888679504,0.009086919017136097,0.763945460319519,-0.721877932548523,0.04899999871850014,-0.0020666385535150766,-0.11676067858934402,-0.003992012236267328,0.08759387582540512,-0.0023418180644512177,-0.001738378661684692,-0.0017057316144928336,-0.0,-0.004516995511949062,-0.47795775532722473,-0.005998285952955484,0.857609748840332,-0.03215895593166351,1.2798911333084106,0.0500529482960701,0.009999999776482582,0.022923484444618225,-0.2928125560283661,0.04214174672961235,0.4846078157424927,0.008416508324444294,0.7633529901504517,-0.7216222286224365,790.0
102,0.024413304403424263,-0.2964916527271271,0.041699349880218506,0.48810502886772156,0.00908883661031723,0.763427734375,-0.7220140695571899,0.04899999871850014,-0.013548508286476135,0.027741318568587303,0.01077415980398655,-0.02773241326212883,-0.009126019664108753,0.001328306389041245,0.007702705450356007,-0.0,-0.004516995511949062,-0.47795775532722473,-0.005998285952955484,0.857609748840332,-0.03215895593166351,1.2798911333084106,0.0500529482960701,0.009999999776482582,0.02473253197968006,-0.29713761806488037,0.04186328500509262,0.4891691207885742,0.009183473885059357,0.7625828385353088,-0.7217931747436523,790.0
103,0.02406432293355465,-0.295872300863266,0.0416514128446579,0.48750102519989014,0.00908883661031723,0.7633740305900574,-0.7220293879508972,0.04899999871850014,0.013011082075536251,0.02725369483232498,-0.0007707635522820055,-0.027413584291934967,0.006758993491530418,-0.008403318002820015,-3.18786951538641e-05,-0.0,-0.004516995511949062,-0.47795775532722473,-0.005998285952955484,0.857609748840332,-0.03215895593166351,1.2798911333084106,0.0500529482960701,0.009999999776482582,0.02446121536195278,-0.29707440733909607,0.04131033271551132,0.48865658044815063,0.009339533746242523,0.7624994516372681,-0.7221971750259399,790.0
104,0.02375560998916626,-0.29491546750068665,0.0416514128446579,0.4865250289440155,0.00908883661031723,0.7633107304573059,-0.7220293879508972,0.04899999871850014,0.008860930800437927,-0.09145498275756836,-0.008048073388636112,0.1018126830458641,0.006703690160065889,-0.0066954162903130054,-0.00534971896559,-0.0,-0.004516995511949062,-0.47795775532722473,-0.005998285952955484,0.857609748840332,-0.03215895593166351,1.2798911333084106,0.0500529482960701,0.009999999776482582,0.022578075528144836,-0.2925618290901184,0.04170285165309906,0.4841183125972748,0.008506238460540771,0.7627471685409546,-0.721842348575592,790.0
105,0.023724930360913277,-0.29476016759872437,0.0416514128446579,0.48646557331085205,0.00908883661031723,0.7631841897964478,-0.7220293879508972,0.04899999871850014,-0.01795012876391411,0.04413101077079773,0.0016467225505039096,-0.053537964820861816,-0.008496112190186977,0.00020589660562109202,0.0021530266385525465,-0.0,-0.004516995511949062,-0.47795775532722473,-0.005998285952955484,0.857609748840332,-0.03215895593166351,1.2798911333084106,0.0500529482960701,0.009999999776482582,0.02480546571314335,-0.2967320680618286,0.04196801781654358,0.4885677397251129,0.00923369824886322,0.7622323036193848,-0.7219626307487488,790.0
106,0.023724930360913277,-0.2950880527496338,0.0416514128446579,0.4870063066482544,0.009086919017136097,0.7629963159561157,-0.7220274806022644,0.04899999871850014,0.0025551801081746817,0.06536146998405457,0.0031622599344700575,-0.09502875059843063,0.003891559084877372,-0.0048074861988425255,-0.00019536878971848637,-0.0,-0.004516995511949062,-0.47795775532722473,-0.005998285952955484,0.857609748840332,-0.03215895593166351,1.2798911333084106,0.0500529482960701,0.009999999776482582,0.025009872391819954,-0.2982255816459656,0.041393354535102844,0.48988598585128784,0.009606254287064075,0.7620624303817749,-0.7223995923995972,790.0
107,0.02371917851269245,-0.29489055275917053,0.0416514128446579,0.48664581775665283,0.00904856901615858,0.762840986251831,-0.7220121622085571,0.04899999871850014,0.028197236359119415,-0.08019185066223145,-0.005243626423180103,0.09284508228302002,0.008896845392882824,-0.006705114617943764,-0.006334130652248859,-0.0,-0.004516995511949062,-0.47795775532722473,-0.005998285952955484,0.857609748840332,-0.03215895593166351,1.2798911333084106,0.0500529482960701,0.009999999776482582,0.022448183968663216,-0.2930351495742798,0.04124302417039871,0.48469656705856323,0.008618841879069805,0.762404203414917,-0.7220340967178345,790.0
108,0.02371917851269245,-0.29481959342956543,0.0416514128446579,0.4862891733646393,0.009035146795213223,0.7627144455909729,-0.7220044732093811,0.04899999871850014,-0.014035448431968689,-0.053395435214042664,-0.0033519130665808916,0.08256176859140396,-0.007022721227258444,0.00100600381847471,0.0013516724575310946,-0.0,-0.004516995511949062,-0.47795775532722473,-0.005998285952955484,0.857609748840332,-0.03215895593166351,1.2798911333084106,0.0500529482960701,0.009999999776482582,0.023158567026257515,-0.2930629253387451,0.04216115176677704,0.4849494695663452,0.008472851477563381,0.7621728181838989,-0.7214791774749756,790.0
109,0.023797795176506042,-0.29540058970451355,0.0416514128446579,0.48699671030044556,0.009035146795213223,0.7625783085823059,-0.7220044732093811,0.05000000074505806,-0.009528609924018383,0.08464659750461578,0.009340446442365646,-0.10240534693002701,0.018957072868943214,-0.001947565353475511,0.008138270117342472,-0.0,-0.004516995511949062,-0.47795775532722473,-0.005998285952955484,0.857609748840332,-0.03215895593166351,1.2798911333084106,0.0500529482960701,0.009999999776482582,0.025276824831962585,-0.2989012598991394,0.041488878428936005,0.49041202664375305,0.009752689860761166,0.7617881298065186,-0.7218832969665527,790.0
110,0.0238112173974514,-0.2956652045249939,0.0416514128446579,0.4874281585216522,0.009035146795213223,0.7624306082725525,-0.7220044732093811,0.05000000074505806,0.01667593978345394,-0.019285783171653748,-0.003700489178299904,-0.011973957531154156,-0.013286900706589222,-0.005039404612034559,-0.001017424976453185,-0.0,-0.004516995511949062,-0.47795775532722473,-0.005998285952955484,0.857609748840332,-0.03215895593166351,1.2798911333084106,0.0500529482960701,0.009999999776482582,0.023628775030374527,-0.2958776354789734,0.041345126926898956,0.4876475930213928,0.008856258355081081,0.7619360089302063,-0.7217229604721069,790.0
111,0.023815052583813667,-0.29544854164123535,0.0416514128446579,0.4868241548538208,0.009037064388394356,0.7623347640037537,-0.7219833731651306,0.04899999871850014,0.0074866400100290775,-0.06626131385564804,-0.003270596032962203,0.11637052893638611,-0.00551262591034174,-0.0009166387608274817,0.001050141523592174,-0.0,-0.004516995511949062,-0.47795775532722473,-0.005998285952955484,0.857609748840332,-0.03215895593166351,1.2798911333084106,0.0500529482960701,0.009999999776482582,0.02267676778137684,-0.29282522201538086,0.04175534099340439,0.48477160930633545,0.008403057232499123,0.7619912624359131,-0.7214958667755127,790.0
112,0.023912843316793442,-0.29572272300720215,0.0416514128446579,0.4871750473976135,0.009109928272664547,0.7622408270835876,-0.7219220399856567,0.04899999871850014,-0.020956719294190407,0.06382299959659576,0.0024774339981377125,-0.05519133061170578,-0.012034841813147068,-8.864738629199564e-05,0.003595255548134446,-0.0,-0.004516995511949062,-0.47795775532722473,-0.005998285952955484,0.857609748840332,-0.03215895593166351,1.2798911333084106,0.0500529482960701,0.009999999776482582,0.02510557696223259,-0.2975395917892456,0.041996248066425323,0.4894011318683624,0.00928810890763998,0.7614589929580688,-0.721868097782135,790.0
113,0.02394735813140869,-0.29597583413124084,0.0416514128446579,0.4879458546638489,0.009136772714555264,0.7621219158172607,-0.721843421459198,0.04899999871850014,0.007701320573687553,0.04187473654747009,0.003280083881691098,-0.09325781464576721,0.004576868377625942,-0.00518712867051363,-0.002144385827705264,-0.0,-0.004516995511949062,-0.47795775532722473,-0.005998285952955484,0.857609748840332,-0.03215895593166351,1.2798911333084106,0.0500529482960701,0.009999999776482582,0.024804294109344482,-0.29844245314598083,0.041273124516010284,0.4900240898132324,0.009603499434888363,0.7614728808403015,-0.72242671251297,790.0
114,0.02394735813140869,-0.2955942749977112,0.0416514128446579,0.4874741733074188,0.009136772714555264,0.7620279788970947,-0.7217935919761658,0.04899999871850014,0.014705008827149868,-0.07486405223608017,-0.007314674090594053,0.08035528659820557,0.009536745958030224,-0.004708867520093918,-0.010779191739857197,-0.0,-0.004516995511949062,-0.47795775532722473,-0.005998285952955484,0.857609748840332,-0.03215895593166351,1.2798911333084106,0.0500529482960701,0.009999999776482582,0.02280149608850479,-0.2936393618583679,0.04150471091270447,0.4853491187095642,0.00869464036077261,0.761749804019928,-0.7220891714096069,790.0
115,0.02394735813140869,-0.29544854164123535,0.0416514128446579,0.48708298802375793,0.009136772714555264,0.7619531750679016,-0.7217878103256226,0.05000000074505806,-0.01222063135355711,-0.047320302575826645,-0.00010238633694825694,0.06020892411470413,-0.007047285791486502,0.0013024156214669347,0.0003957097651436925,-0.0,-0.004516995511949062,-0.47795775532722473,-0.005998285952955484,0.857609748840332,-0.03215895593166351,1.2798911333084106,0.0500529482960701,0.009999999776482582,0.023289017379283905,-0.2939665913581848,0.041981205344200134,0.48595988750457764,0.008599295280873775,0.7616381645202637,-0.7212428450584412,790.0
116,0.02394735813140869,-0.2960602045059204,0.0416514128446579,0.48764097690582275,0.009136772714555264,0.7618304491043091,-0.7217878103256226,0.05000000074505806,-0.006262092851102352,0.10056883096694946,0.005743013694882393,-0.10171672701835632,-0.006054429337382317,-0.0003748870803974569,0.011158495210111141,-0.0,-0.004516995511949062,-0.47795775532722473,-0.005998285952955484,0.857609748840332,-0.03215895593166351,1.2798911333084106,0.0500529482960701,0.009999999776482582,0.025489650666713715,-0.2992238700389862,0.041539669036865234,0.4911562502384186,0.009636118076741695,0.7611700296401978,-0.7214851379394531,790.0
117,0.02394735813140869,-0.29620593786239624,0.0416514128446579,0.4878346621990204,0.009136772714555264,0.7617384195327759,-0.7217993140220642,0.04899999871850014,0.019334755837917328,-0.004709762055426836,-0.001927828066982329,0.0005574503447860479,0.008955336175858974,-0.005369856022298336,0.0027031146455556154,-0.0,-0.004516995511949062,-0.47795775532722473,-0.005998285952955484,0.857609748840332,-0.03215895593166351,1.2798911333084106,0.0500529482960701,0.009999999776482582,0.023841150104999542,-0.29636824131011963,0.041247084736824036,0.48796769976615906,0.009237146936357021,0.7613641619682312,-0.7218939065933228,790.0
118,0.02394735813140869,-0.2957304120063782,0.0416514128446579,0.4873495399951935,0.009136772714555264,0.7616847157478333,-0.721801221370697,0.04899999871850014,-0.0006598181207664311,-0.10073637217283249,-0.003711300902068615,0.11630947887897491,0.0002956029202323407,-0.0007362159085460007,-0.0025276190135627985,-0.0,-0.004516995511949062,-0.47795775532722473,-0.005998285952955484,0.857609748840332,-0.03215895593166351,1.2798911333084106,0.0500529482960701,0.009999999776482582,0.022482499480247498,-0.29252347350120544,0.04189610481262207,0.4843517243862152,0.008407860063016415,0.7615541219711304,-0.721543550491333,790.0
119,0.023958861827850342,-0.2960352897644043,0.0416514128446579,0.48778289556503296,0.009136772714555264,0.7616156935691833,-0.721801221370697,0.04899999871850014,-0.020629553124308586,0.05092321336269379,0.00475626066327095,-0.039011456072330475,-0.009515652433037758,0.0015721366507932544,0.0021143690682947636,-0.0,-0.004516995511949062,-0.47795775532722473,-0.005998285952955484,0.857609748840332,-0.03215895593166351,1.2798911333084106,0.0500529482960701,0.009999999776482582,0.024837449193000793,-0.2973000407218933,0.041972048580646515,0.48940199613571167,0.009245953522622585,0.7610417604446411,-0.721854567527771,790.0
120,0.023976119235157967,-0.2965127229690552,0.0416514128446579,0.48856136202812195,0.009136772714555264,0.761533260345459,-0.721801221370697,0.04899999871850014,0.003766752779483795,0.07551106065511703,0.0028345915488898754,-0.12354906648397446,0.003497237339615822,-0.00377293536439538,-0.001727149705402553,-0.0,-0.004516995511949062,-0.47795775532722473,-0.005998285952955484,0.857609748840332,-0.03215895593166351,1.2798911333084106,0.0500529482960701,0.009999999776482582,0.025318080559372902,-0.29968351125717163,0.041318587958812714,0.49138587713241577,0.009776762686669827,0.7609508037567139,-0.7224981188774109,790.0
121,0.023976119235157967,-0.2961752712726593,0.0416514128446579,0.48800531029701233,0.009136772714555264,0.7614642381668091,-0.721801221370697,0.04899999871850014,0.019542861729860306,-0.07730557769536972,-0.005447996314615011,0.07858407497406006,0.009806370362639427,-0.0044240159913897514,-0.009646986611187458,-0.0,-0.004516995511949062,-0.47795775532722473,-0.005998285952955484,0.857609748840332,-0.03215895593166351,1.2798911333084106,0.0500529482960701,0.009999999776482582,0.022700445726513863,-0.29401564598083496,0.041384197771549225,0.4857127070426941,0.008724949322640896,0.7613549828529358,-0.7221164107322693,790.0
122,0.023976119235157967,-0.295868456363678,0.0416514128446579,0.4871692955493927,0.009136772714555264,0.7614297270774841,-0.721801221370697,0.04899999871850014,-0.008273524232208729,-0.053162310272455215,-0.0016900027403607965,0.12251876294612885,-0.005581730045378208,0.0016332048689946532,-0.0004104129911866039,-0.0,-0.004516995511949062,-0.47795775532722473,-0.005998285952955484,0.857609748840332,-0.03215895593166351,1.2798911333084106,0.0500529482960701,0.009999999776482582,0.022959338501095772,-0.29304277896881104,0.042033851146698,0.48510801792144775,0.008449307642877102,0.7612390518188477,-0.7214052081108093,790.0
123,0.02398570626974106,-0.29625964164733887,0.041641827672719955,0.4877963066101074,0.009136772714555264,0.761354923248291,-0.721808910369873,0.04899999871850014,-0.014578117989003658,0.07268631458282471,0.006849019788205624,-0.08100587874650955,-0.009146828204393387,0.00017363409278914332,0.009080620482563972,-0.0,-0.004516995511949062,-0.47795775532722473,-0.005998285952955484,0.857609748840332,-0.03215895593166351,1.2798911333084106,0.0500529482960701,0.009999999776482582,0.025246940553188324,-0.2985018491744995,0.041760463267564774,0.4903663396835327,0.009505047462880611,0.7607861161231995,-0.7217722535133362,790.0
124,0.023987624794244766,-0.2964552044868469,0.04163032025098801,0.48858439922332764,0.009136772714555264,0.7612878084182739,-0.7218376398086548,0.05000000074505806,0.012356535531580448,0.04213537648320198,-0.00020751480769831687,-0.08854503929615021,0.0074182841926813126,-0.004244448617100716,-0.0004820759641006589,-0.0,-0.004516995511949062,-0.47795775532722473,-0.005998285952955484,0.857609748840332,-0.03215895593166351,1.2798911333084106,0.0500529482960701,0.009999999776482582,0.024703752249479294,-0.29869043827056885,0.041176438331604004,0.49043577909469604,0.009564912877976894,0.7609339952468872,-0.7220653295516968,790.0
125,0.023987624794244766,-0.29595091938972473,0.04163032025098801,0.4880724251270294,0.009136772714555264,0.761245608329773,-0.7218415141105652,0.04899999871850014,0.011659588664770126,-0.0825708881020546,-0.009036819450557232,0.08985377848148346,0.00850403867661953,-0.002122294856235385,-0.00467552850022912,-0.0,-0.004516995511949062,-0.47795775532722473,-0.005998285952955484,0.857609748840332,-0.03215895593166351,1.2798911333084106,0.0500529482960701,0.009999999776482582,0.022750776261091232,-0.2934868335723877,0.041630975902080536,0.48545393347740173,0.008640340529382229,0.7612043023109436,-0.7218088507652283,790.0
126,0.023987624794244766,-0.2956959009170532,0.04163032025098801,0.4875642955303192,0.009129103273153305,0.761211097240448,-0.7218453288078308,0.04899999871850014,-0.013980233110487461,-0.048278991132974625,0.00231187604367733,0.04833376407623291,-0.007545718923211098,0.002015397883951664,0.0011851261369884014,-0.0,-0.004516995511949062,-0.47795775532722473,-0.005998285952955484,0.857609748840332,-0.03215895593166351,1.2798911333084106,0.0500529482960701,0.009999999776482582,0.023400504142045975,-0.2942729592323303,0.041995853185653687,0.48634493350982666,0.008700337260961533,0.7610058784484863,-0.7216045260429382,790.0
127,0.023987624794244766,-0.29637277126312256,0.04161114618182182,0.4881395399570465,0.009129103273153305,0.7611497640609741,-0.7218492031097412,0.04899999871850014,-0.004240591544657946,0.10981476306915283,0.005705535877496004,-0.0958942100405693,-0.004348985385149717,-0.0008095417870208621,0.0030609136447310448,-0.0,-0.004516995511949062,-0.47795775532722473,-0.005998285952955484,0.857609748840332,-0.03215895593166351,1.2798911333084106,0.0500529482960701,0.009999999776482582,0.02555083855986595,-0.2994576394557953,0.041472095996141434,0.49150988459587097,0.009693775326013565,0.7605676054954529,-0.7221851944923401,790.0
128,0.023987624794244766,-0.2965031564235687,0.041597723960876465,0.4882795214653015,0.009127185679972172,0.7610979676246643,-0.7218530178070068,0.05000000074505806,0.0200845617800951,0.012752451933920383,-0.0024627321399748325,0.024902665987610817,0.008692899718880653,-0.00515076844021678,-0.004510501865297556,-0.0,-0.004516995511949062,-0.47795775532722473,-0.005998285952955484,0.857609748840332,-0.03215895593166351,1.2798911333084106,0.0500529482960701,0.009999999776482582,0.023745816200971603,-0.296406626701355,0.04114730656147003,0.4883829951286316,0.00910403672605753,0.7609022855758667,-0.7218749523162842,790.0
129,0.023987624794244766,-0.2958281934261322,0.04159197211265564,0.4879362881183624,0.009121432900428772,0.7610634565353394,-0.7218549251556396,0.04899999871850014,-0.0017822454683482647,-0.12035250663757324,-0.004286533687263727,0.06280982494354248,-0.0014558593975380063,0.0005520374979823828,0.0006145632360130548,-0.0,-0.004516995511949062,-0.47795775532722473,-0.005998285952955484,0.857609748840332,-0.03215895593166351,1.2798911333084106,0.0500529482960701,0.009999999776482582,0.022608328610658646,-0.2931976318359375,0.04185757040977478,0.4849546551704407,0.008523344993591309,0.761109471321106,-0.7215936779975891,790.0
130,0.023987624794244766,-0.296106219291687,0.04158046841621399,0.48812994360923767,0.009121432900428772,0.7610040307044983,-0.7218607068061829,0.04899999871850014,-0.02029653824865818,0.02177707850933075,0.004869950003921986,-0.04750489443540573,-0.008210216648876667,0.0028151217848062515,0.0037580151110887527,-0.0,-0.004516995511949062,-0.47795775532722473,-0.005998285952955484,0.857609748840332,-0.03215895593166351,1.2798911333084106,0.0500529482960701,0.009999999776482582,0.024601269513368607,-0.29709598422050476,0.04192804545164108,0.48916345834732056,0.009209513664245605,0.7606528401374817,-0.7218544483184814,790.0
131,0.023989541456103325,-0.2968463599681854,0.04156129062175751,0.4883235991001129,0.009119516238570213,0.7609522342681885,-0.7218626141548157,0.04899999871850014,0.004600471816956997,0.11884128302335739,0.0030662750359624624,-0.03992841765284538,0.0029002276714891195,-0.0028935649897903204,-0.000632558367215097,-0.0,-0.004516995511949062,-0.47795775532722473,-0.005998285952955484,0.857609748840332,-0.03215895593166351,1.2798911333084106,0.0500529482960701,0.009999999776482582,0.025264201685786247,-0.29901430010795593,0.04131239652633667,0.49114298820495605,0.009595772251486778,0.7604396343231201,-0.7222296595573425,790.0
132,0.023989541456103325,-0.29648396372795105,0.04155745729804039,0.48808392882347107,0.009098423644900322,0.7609235048294067,-0.7218645215034485,0.05000000074505806,0.020163729786872864,-0.07027491927146912,-0.005337929353117943,0.06401301175355911,0.007589332759380341,-0.005230928771197796,-0.005369636230170727,-0.0,-0.004516995511949062,-0.47795775532722473,-0.005998285952955484,0.857609748840332,-0.03215895593166351,1.2798911333084106,0.0500529482960701,0.009999999776482582,0.022783203050494194,-0.29454874992370605,0.0412505678832531,0.4861288070678711,0.008709250018000603,0.7609706521034241,-0.7217304706573486,790.0
133,0.023989541456103325,-0.2958070933818817,0.04155745729804039,0.48796311020851135,0.00908883661031723,0.7608947157859802,-0.7218702435493469,0.04899999871850014,-0.008821005001664162,-0.08643610775470734,-0.002649327740073204,0.034505076706409454,-0.00652642548084259,0.0034136215690523386,0.003031016094610095,-0.0,-0.004516995511949062,-0.47795775532722473,-0.005998285952955484,0.857609748840332,-0.03215895593166351,1.2798911333084106,0.0500529482960701,0.009999999776482582,0.023119738325476646,-0.2940428555011749,0.041944969445466995,0.4859755039215088,0.00863230973482132,0.7608893513679504,-0.7215546369552612,790.0
134,0.024022139608860016,-0.2962231934070587,0.041553620249032974,0.48840606212615967,0.00908883661031723,0.760837197303772,-0.7218817472457886,0.04899999871850014,-0.016671769320964813,0.08621399104595184,0.008148754946887493,-0.08682680875062943,-0.007427504751831293,0.0021092109382152557,0.005498761776834726,-0.0,-0.004516995511949062,-0.47795775532722473,-0.005998285952955484,0.857609748840332,-0.03215895593166351,1.2798911333084106,0.0500529482960701,0.009999999776482582,0.025373749434947968,-0.2987768352031708,0.041705626994371414,0.49111559987068176,0.009527228772640228,0.760373055934906,-0.7220080494880676,790.0
135,0.024037478491663933,-0.29666420817375183,0.041551705449819565,0.48858246207237244,0.009086919017136097,0.7607758641242981,-0.7218894362449646,0.04899999871850014,0.012166490778326988,0.040859051048755646,-0.0003620697825681418,0.0007468973053619266,0.008176268078386784,-0.0049844472669065,-0.0033810618333518505,-0.0,-0.004516995511949062,-0.47795775532722473,-0.005998285952955484,0.857609748840332,-0.03215895593166351,1.2798911333084106,0.0500529482960701,0.009999999776482582,0.024298621341586113,-0.2972314953804016,0.04124578461050987,0.4893086552619934,0.00928486604243517,0.7605005502700806,-0.7222221493721008,790.0
136,0.024037478491663933,-0.2961733341217041,0.041551705449819565,0.488114595413208,0.009069661609828472,0.7607585787773132,-0.7218894362449646,0.04899999871850014,0.01118356455117464,-0.1017589420080185,-0.005188422277569771,0.08383386582136154,0.0018804690334945917,-0.0014342868234962225,-0.00421165581792593,-0.0,-0.004516995511949062,-0.47795775532722473,-0.005998285952955484,0.857609748840332,-0.03215895593166351,1.2798911333084106,0.0500529482960701,0.009999999776482582,0.02255438081920147,-0.29342713952064514,0.04155512526631355,0.4852335751056671,0.008518139831721783,0.7608641386032104,-0.7218348383903503,790.0
137,0.024037478491663933,-0.29616567492485046,0.041551705449819565,0.48817020654678345,0.009065826423466206,0.760743260383606,-0.7218894362449646,0.04899999871850014,-0.022084219381213188,0.022212611511349678,0.00013553541793953627,-0.0534396693110466,-0.008072939701378345,0.003215752774849534,0.0016704644076526165,-0.0,-0.004516995511949062,-0.47795775532722473,-0.005998285952955484,0.857609748840332,-0.03215895593166351,1.2798911333084106,0.0500529482960701,0.009999999776482582,0.02473822794854641,-0.29720211029052734,0.04199999198317528,0.4891778528690338,0.00917025376111269,0.7604441046714783,-0.7219305634498596,790.0
138,0.024037478491663933,-0.2967083156108856,0.041551705449819565,0.4884175658226013,0.009061991237103939,0.7606991529464722,-0.7218894362449646,0.04899999871850014,0.00412769103422761,0.10290931165218353,0.004345887340605259,-0.043863408267498016,0.003135083010420203,-0.0026220795698463917,-0.00012330958270467818,-0.0,-0.004516995511949062,-0.47795775532722473,-0.005998285952955484,0.857609748840332,-0.03215895593166351,1.2798911333084106,0.0500529482960701,0.009999999776482582,0.02514667622745037,-0.2987954318523407,0.04129626229405403,0.49096474051475525,0.00953767355531454,0.7602752447128296,-0.7222413420677185,790.0
139,0.024035561829805374,-0.29628071188926697,0.041551705449819565,0.4881165325641632,0.00902555976063013,0.7606799602508545,-0.7218894362449646,0.04899999871850014,0.02031712979078293,-0.0825435146689415,-0.006298097316175699,0.0688353180885315,0.007995572872459888,-0.004605860915035009,-0.004363805986940861,-0.0,-0.004516995511949062,-0.47795775532722473,-0.005998285952955484,0.857609748840332,-0.03215895593166351,1.2798911333084106,0.0500529482960701,0.009999999776482582,0.022763650864362717,-0.2941436469554901,0.04131419584155083,0.48578590154647827,0.008678332902491093,0.7607523798942566,-0.7219654321670532,790.0
140,0.0240298081189394,-0.2958013415336609,0.041551705449819565,0.48798996210098267,0.009015971794724464,0.7606569528579712,-0.7218913435935974,0.04899999871850014,0.00448379572480917,-0.08169334381818771,-0.001880173571407795,0.05444667115807533,-0.004480306059122086,0.0033645399380475283,0.001374503830447793,-0.0,-0.004516995511949062,-0.47795775532722473,-0.005998285952955484,0.857609748840332,-0.03215895593166351,1.2798911333084106,0.0500529482960701,0.009999999776482582,0.0229195449501276,-0.29387953877449036,0.04166929051280022,0.4859618544578552,0.008579673245549202,0.7607409954071045,-0.7216532826423645,790.0
141,0.0240298081189394,-0.2962615489959717,0.041551705449819565,0.4885019361972809,0.009015971794724464,0.7606033086776733,-0.7219086289405823,0.05000000074505806,-0.01805948093533516,0.09904421865940094,0.003222451079636812,-0.10051189363002777,0.016477052122354507,0.002788785146549344,0.005478729028254747,-0.0,-0.004516995511949062,-0.47795775532722473,-0.005998285952955484,0.857609748840332,-0.03215895593166351,1.2798911333084106,0.0500529482960701,0.009999999776482582,0.025604085996747017,-0.2994179129600525,0.041682977229356766,0.49152326583862305,0.009708421304821968,0.7602687478065491,-0.7218738198280334,790.0
142,0.0240298081189394,-0.2965204119682312,0.041551705449819565,0.4886610805988312,0.009015971794724464,0.7605476975440979,-0.7219431400299072,0.04899999871850014,0.011854102835059166,0.010687488131225109,0.0013390887761488557,0.005093435291200876,-0.034456901252269745,-0.004167644772678614,-0.00047615115181542933,-0.0,-0.004516995511949062,-0.47795775532722473,-0.005998285952955484,0.857609748840332,-0.03215895593166351,1.2798911333084106,0.0500529482960701,0.009999999776482582,0.023918824270367622,-0.2962571680545807,0.04137038812041283,0.48885124921798706,0.008742282167077065,0.7603235840797424,-0.72185218334198,790.0
143,0.02401638589799404,-0.2959720194339752,0.041551705449819565,0.4880225658416748,0.009015971794724464,0.7605419158935547,-0.7219488620758057,0.04899999871850014,0.004794728476554155,-0.11460614204406738,-0.002219738671556115,0.10360241681337357,0.015613975934684277,-0.0015419322298839688,-5.546482134377584e-05,-0.0,-0.004516995511949062,-0.47795775532722473,-0.005998285952955484,0.857609748840332,-0.03215895593166351,1.2798911333084106,0.0500529482960701,0.009999999776482582,0.022381527349352837,-0.2928836941719055,0.041637931019067764,0.48468413949012756,0.008520344272255898,0.7607354521751404,-0.7217177152633667,790.0
144,0.02401638589799404,-0.29636701941490173,0.041551705449819565,0.48840606212615967,0.009015971794724464,0.760530412197113,-0.7219488620758057,0.04899999871850014,-0.026125866919755936,0.08460381627082825,0.0015635067829862237,-0.08355214446783066,-0.005469762720167637,0.003964605275541544,0.0015616629971191287,-0.0,-0.004516995511949062,-0.47795775532722473,-0.005998285952955484,0.857609748840332,-0.03215895593166351,1.2798911333084106,0.0500529482960701,0.009999999776482582,0.025490446016192436,-0.2986953854560852,0.041993554681539536,0.4908801317214966,0.00942193903028965,0.760134756565094,-0.7221199870109558,790.0
145,0.02398570626974106,-0.2968847155570984,0.041551705449819565,0.4887588620185852,0.009014054201543331,0.7604901790618896,-0.7219488620758057,0.04899999871850014,0.0032123923301696777,0.04509721323847771,0.003979644272476435,-0.046409767121076584,0.007910791784524918,-0.0049546887166798115,-0.0034918750170618296,-0.0,-0.004516995511949062,-0.47795775532722473,-0.005998285952955484,0.857609748840332,-0.03215895593166351,1.2798911333084106,0.0500529482960701,0.009999999776482582,0.024571940302848816,-0.29821568727493286,0.041306208819150925,0.4900323748588562,0.009398049674928188,0.7602301239967346,-0.7224364876747131,790.0
146,0.023730682209134102,-0.29564985632896423,0.041551705449819565,0.48738789558410645,0.008964200504124165,0.7604882121086121,-0.7219488620758057,0.04899999871850014,0.009371462278068066,-0.08733729273080826,-0.007142762653529644,0.10962599515914917,0.004320395644754171,-0.0017060114769265056,-0.006331971380859613,-0.0,-0.004516995511949062,-0.47795775532722473,-0.005998285952955484,0.857609748840332,-0.03215895593166351,1.2798911333084106,0.0500529482960701,0.009999999776482582,0.02241620607674122,-0.29287827014923096,0.04161929711699486,0.48471152782440186,0.008388672955334187,0.7605966925621033,-0.7218502163887024,790.0
147,0.023749858140945435,-0.2960582971572876,0.041551705449819565,0.4881337881088257,0.008962282910943031,0.7604690790176392,-0.7219488620758057,0.04899999871850014,-0.02398565039038658,0.027187464758753777,0.001750981085933745,-0.0754636600613594,-0.011470342054963112,0.003732993733137846,0.0054107485339045525,-0.0,-0.004516995511949062,-0.47795775532722473,-0.005998285952955484,0.857609748840332,-0.03215895593166351,1.2798911333084106,0.0500529482960701,0.009999999776482582,0.024729296565055847,-0.297539621591568,0.042019616812467575,0.48952609300613403,0.009159477427601814,0.7602059841156006,-0.7218632698059082,790.0
148,0.023826556280255318,-0.29659518599510193,0.041551705449819565,0.4886476695537567,0.008962282910943031,0.760421097278595,-0.7219603657722473,0.04899999871850014,-0.00047873632865957916,0.09030240029096603,0.0045287045650184155,-0.06284572184085846,0.0036421341355890036,-0.0022871973924338818,0.001955210231244564,-0.0,-0.004516995511949062,-0.47795775532722473,-0.005998285952955484,0.857609748840332,-0.03215895593166351,1.2798911333084106,0.0500529482960701,0.009999999776482582,0.025041619315743446,-0.29884982109069824,0.041385259479284286,0.4910604655742645,0.009495789185166359,0.7600762248039246,-0.7222327589988708,790.0
149,0.023826556280255318,-0.2957764267921448,0.041553620249032974,0.4878097176551819,0.008962282910943031,0.7604000568389893,-0.7220063805580139,0.04899999871850014,0.03246762230992317,-0.11141316592693329,-0.005917009897530079,0.09924515336751938,0.008609889075160027,-0.003943095915019512,-0.003770201001316309,-0.0,-0.004516995511949062,-0.47795775532722473,-0.005998285952955484,0.857609748840332,-0.03215895593166351,1.2798911333084106,0.0500529482960701,0.009999999776482582,0.022065961733460426,-0.29300451278686523,0.0411246083676815,0.48478472232818604,0.00848470814526081,0.7606438994407654,-0.721951961517334,790.0
150,0.023855319246649742,-0.2955003082752228,0.04157087951898575,0.4876793324947357,0.008962282910943031,0.7603808641433716,-0.7220409512519836,0.04899999871850014,-0.005719275213778019,-0.029327260330319405,-0.004111092071980238,0.03317536413669586,-0.0052017876878380775,0.004987658467143774,0.0020815993193536997,-0.0,-0.004516995511949062,-0.47795775532722473,-0.005998285952955484,0.857609748840332,-0.03215895593166351,1.2798911333084106,0.0500529482960701,0.009999999776482582,0.023559754714369774,-0.2946934103965759,0.04187994450330734,0.48695218563079834,0.00870814360678196,0.7603675723075867,-0.7217198014259338,790.0
151,0.02402789145708084,-0.2963612675666809,0.041572798043489456,0.48862847685813904,0.008962282910943031,0.7603137493133545,-0.7220600843429565,0.04899999871850014,-0.010894718579947948,0.10113778710365295,0.00555431330576539,-0.12447106093168259,-0.0029191612266004086,8.403358515352011e-05,0.003448168048635125,-0.0,-0.004516995511949062,-0.47795775532722473,-0.005998285952955484,0.857609748840332,-0.03215895593166351,1.2798911333084106,0.0500529482960701,0.009999999776482582,0.02569231390953064,-0.2997972369194031,0.041549790650606155,0.4919419288635254,0.009656423702836037,0.7599249482154846,-0.7223770022392273,790.0
152,0.02377861924469471,-0.2949787676334381,0.0417204424738884,0.48701590299606323,0.008933520875871181,0.7602677345275879,-0.7219105362892151,0.04899999871850014,0.014386377297341824,-0.014489208348095417,-0.0038525976706296206,0.014489208348095417,0.011176243424415588,-0.005254596006125212,-0.007963204756379128,-0.0,-0.004516995511949062,-0.47795775532722473,-0.005998285952955484,0.857609748840332,-0.03215895593166351,1.2798911333084106,0.0500529482960701,0.009999999776482582,0.023585790768265724,-0.29531028866767883,0.041344985365867615,0.4870578944683075,0.00898416992276907,0.7601551413536072,-0.7223198413848877,790.0
153,0.023747939616441727,-0.29491931200027466,0.041777968406677246,0.48704272508621216,0.00890667550265789,0.7602677345275879,-0.721843421459198,0.05000000074505806,0.002462464850395918,-0.10627961158752441,-0.00353169534355402,0.10038069635629654,-0.0013829180970788002,-0.00023066767607815564,-0.0028830235823988914,-0.0,-0.004516995511949062,-0.47795775532722473,-0.005998285952955484,0.857609748840332,-0.03215895593166351,1.2798911333084106,0.0500529482960701,0.009999999776482582,0.022257518023252487,-0.29229649901390076,0.04182165861129761,0.48436686396598816,0.008217116817831993,0.7604792714118958,-0.7213375568389893,790.0
154,0.02376711554825306,-0.2957821786403656,0.041789472103118896,0.4880187213420868,0.00890667550265789,0.7602677345275879,-0.7218415141105652,0.04899999871850014,-0.02692413702607155,0.07592775672674179,0.002546565840020776,-0.08070490509271622,-0.010529404506087303,0.0034838456194847822,0.009553616866469383,-0.0,-0.004516995511949062,-0.47795775532722473,-0.005998285952955484,0.857609748840332,-0.03215895593166351,1.2798911333084106,0.0500529482960701,0.009999999776482582,0.025292636826634407,-0.2981150150299072,0.0421803817152977,0.4904836416244507,0.00928821973502636,0.759910523891449,-0.7216654419898987,790.0
155,0.0237997118383646,-0.29680994153022766,0.041789472103118896,0.4889947175979614,0.00890667550265789,0.7602677345275879,-0.7218415141105652,0.04899999871850014,0.002449111547321081,0.1331271380186081,0.004100308287888765,-0.11503586173057556,0.005023547913879156,-0.003267123131081462,0.0010927369585260749,-0.0,-0.004516995511949062,-0.47795775532722473,-0.005998285952955484,0.857609748840332,-0.03215895593166351,1.2798911333084106,0.0500529482960701,0.009999999776482582,0.025684015825390816,-0.30049294233322144,0.041388802230358124,0.4927135705947876,0.009764125570654869,0.7598476409912109,-0.7224332094192505,790.0
156,0.0237997118383646,-0.2963305711746216,0.041789472103118896,0.48847126960754395,0.00890667550265789,0.7602638602256775,-0.7218415141105652,0.04899999871850014,0.036234986037015915,-0.07636786252260208,-0.005425296723842621,0.08587191253900528,0.010119526647031307,-0.0035840370692312717,-0.007875011302530766,-0.0,-0.004516995511949062,-0.47795775532722473,-0.005998285952955484,0.857609748840332,-0.03215895593166351,1.2798911333084106,0.0500529482960701,0.009999999776482582,0.022350439801812172,-0.2940927743911743,0.04115121066570282,0.4860839247703552,0.008596768602728844,0.7604830265045166,-0.7221342921257019,790.0
157,0.02387065812945366,-0.2953603267669678,0.041789472103118896,0.48773494362831116,0.00890667550265789,0.7602638602256775,-0.7218415141105652,0.05000000074505806,-0.0074308644980192184,-0.14353029429912567,-0.004290304612368345,0.09281427413225174,-0.005509176291525364,0.0035590415354818106,-0.0008876452338881791,-0.0,-0.004516995511949062,-0.47795775532722473,-0.005998285952955484,0.857609748840332,-0.03215895593166351,1.2798911333084106,0.0500529482960701,0.009999999776482582,0.02209380641579628,-0.29203057289123535,0.042114436626434326,0.48412054777145386,0.008079944178462029,0.7605984210968018,-0.7212049961090088,790.0
