isri-aist/RoboManipBaselines/robo_manip_baselines/rollout_debug_log_expanded.csv
step_idx,obs_0,obs_1,obs_2,obs_3,obs_4,obs_5,obs_6,obs_7,obs_8,obs_9,obs_10,obs_11,obs_12,obs_13,obs_14,obs_15,obs_16,obs_17,obs_18,obs_19,obs_20,obs_21,obs_22,obs_23,obs_24,direct_joint_command_0,direct_joint_command_1,direct_joint_command_2,direct_joint_command_3,direct_joint_command_4,direct_joint_command_5,direct_joint_command_6,direct_joint_command_7
0,-3.834952167380834e-06,-0.5236013531684875,-7.669904334761668e-06,0.7853943109512329,-9.58738019107841e-06,1.3089936971664429,-7.669904334761668e-06,0.48399999737739563,0.0,0.0,0.0,0.0,0.0,0.0,0.0,-0.0,0.3246251344680786,-0.1501837521791458,-0.09291581809520721,0.7985507249832153,-0.6018979549407959,0.005963687319308519,-0.6019003987312317,-0.7983816862106323,0.01739402860403061,-0.07207624614238739,-0.5105443000793457,-0.07090416550636292,0.6906067132949829,-0.055436521768569946,1.264656662940979,-0.008585835807025433,324.18743896484375
1,-3.834952167380834e-06,-0.5236013531684875,-7.669904334761668e-06,0.7853943109512329,-7.669904334761668e-06,1.3089936971664429,-7.669904334761668e-06,0.30399999022483826,-0.03182145953178406,0.029622236266732216,-0.029845207929611206,-0.03182145953178406,-0.029845207929611206,-0.03182145953178406,-0.02696124278008938,-0.0,0.3246251344680786,-0.1501837521791458,-0.09291581809520721,0.7985507249832153,-0.6018979549407959,0.005963687319308519,-0.6019003987312317,-0.7983816862106323,0.01739402860403061,-0.06177961453795433,-0.5011310577392578,-0.06906484812498093,0.6904317736625671,-0.055826880037784576,1.2540068626403809,-0.006465453188866377,526.260009765625
2,-0.02230599895119667,-0.5193195939064026,-0.022457478567957878,0.7560760974884033,-0.01807412877678871,1.2942464351654053,-0.0029318206943571568,0.40400001406669617,-0.41416725516319275,0.08886920660734177,-0.4059060513973236,-0.54099440574646,-0.2826336622238159,-0.20898984372615814,-0.011559977196156979,-0.0,0.3134090006351471,-0.1208072081208229,-0.09203362464904785,0.7745633125305176,-0.6324881315231323,0.0032356895972043276,-0.6324126124382019,-0.7743673324584961,0.020234936848282814,-0.07985654473304749,-0.4982343316078186,-0.08379016071557999,0.6579394936561584,-0.0651654601097107,1.2493621110916138,-0.005594173911958933,386.7333068847656
3,-0.03880204260349274,-0.5163858532905579,-0.03851442411541939,0.7323511838912964,-0.029728546738624573,1.285268783569336,-0.004241456743329763,0.375,-0.12080440670251846,0.08206784725189209,-0.11254322528839111,-0.17915849387645721,-0.03273847699165344,-0.16943341493606567,0.001935053733177483,-0.0,0.31350165605545044,-0.12090449035167694,-0.09192203730344772,0.7751558423042297,-0.6317649483680725,0.002541409805417061,-0.6316757202148438,-0.7749643325805664,0.020395353436470032,-0.09420067071914673,-0.49315738677978516,-0.1030404269695282,0.6388128995895386,-0.0710500031709671,1.2335026264190674,-0.006871794816106558,421.5763854980469
4,-0.05570076033473015,-0.5122402906417847,-0.05481104925274849,0.7092456221580505,-0.04010592773556709,1.274738073348999,-0.00518293771892786,0.41600000858306885,-0.12774991989135742,0.09012933820486069,-0.12757766246795654,-0.19419293105602264,-0.011668656952679157,-0.14522939920425415,-0.006272538099437952,-0.0,0.31426239013671875,-0.12148791551589966,-0.09110848605632782,0.7734588980674744,-0.6338444352149963,0.0015997156733646989,-0.6337396502494812,-0.7732797265052795,0.020310016348958015,-0.11284556984901428,-0.48873957991600037,-0.11720311641693115,0.6191551685333252,-0.07831880450248718,1.2225151062011719,-0.0077385688200592995,373.5024108886719
5,-0.06447512656450272,-0.5088367462158203,-0.0633188933134079,0.6961818337440491,-0.04440682753920555,1.2670987844467163,-0.005589442327618599,0.42399999499320984,-0.2044457644224167,0.12194644659757614,-0.3404907286167145,-0.5129945278167725,-0.2286672294139862,-0.2081063687801361,-0.011068548075854778,-0.0,0.315319299697876,-0.12254976481199265,-0.08982564508914948,0.7733635902404785,-0.6338956952095032,0.009217340499162674,-0.6339389085769653,-0.7731267213821411,0.019914058968424797,-0.12312909960746765,-0.48226895928382874,-0.12124733626842499,0.6078044176101685,-0.08342767506837845,1.2149714231491089,-0.007736163213849068,362.87896728515625
6,-0.07372120022773743,-0.5043134689331055,-0.07442682981491089,0.6794019937515259,-0.05040469020605087,1.2578661441802979,-0.006001699715852737,0.4580000042915344,-0.41040074825286865,0.1398419737815857,-0.33350953459739685,-0.5947527885437012,-0.21208487451076508,-0.3206138610839844,-0.00918529648333788,-0.0,0.31568649411201477,-0.12281381338834763,-0.08937732875347137,0.7729558944702148,-0.6344160437583923,0.00744726462289691,-0.6343854069709778,-0.772632360458374,0.024379674345254898,-0.13371829688549042,-0.4785793125629425,-0.12757113575935364,0.5951025485992432,-0.088161401450634,1.2062216997146606,-0.007877517491579056,321.37396240234375
7,-0.0867389440536499,-0.4983922839164734,-0.08855287730693817,0.6566818356513977,-0.05894704535603523,1.24636709690094,-0.0064503890462219715,0.4860000014305115,-0.33567577600479126,0.12002167850732803,-0.2710522413253784,-0.3861781060695648,-0.24904708564281464,-0.30164116621017456,-0.007296298630535603,-0.0,0.315075546503067,-0.12236673384904861,-0.09012216329574585,0.7735638618469238,-0.6336641907691956,0.008284301497042179,-0.6337052583694458,-0.7733977437019348,0.01653839647769928,-0.14518645405769348,-0.4767240881919861,-0.13782857358455658,0.5780870318412781,-0.08989761769771576,1.1930220127105713,-0.008179370313882828,284.2498779296875
8,-0.10291668772697449,-0.4919610619544983,-0.10297037661075592,0.6333270072937012,-0.06912501156330109,1.2325669527053833,-0.0068664816208183765,0.5189999938011169,-0.215675950050354,0.08813059329986572,-0.17053382098674774,-0.26993563771247864,-0.08352921903133392,-0.2208603173494339,-0.0060454015620052814,-0.0,0.3144164979457855,-0.12177757918834686,-0.09092798829078674,0.77253258228302,-0.6349347829818726,0.007154237478971481,-0.6349568367004395,-0.7723758816719055,0.01628841646015644,-0.158952534198761,-0.4745660424232483,-0.14893826842308044,0.5630834102630615,-0.0900285616517067,1.178759217262268,-0.00923781469464302,241.40655517578125
9,-0.11667074263095856,-0.4867320954799652,-0.11411283165216446,0.6153352856636047,-0.07701350748538971,1.2206268310546875,-0.007209709845483303,0.5509999990463257,-0.22252941131591797,0.07094469666481018,-0.1702508181333542,-0.3022441864013672,-0.028615912422537804,-0.24863971769809723,-0.013383499346673489,-0.0,0.3148815929889679,-0.12204939126968384,-0.09038996696472168,0.7738400101661682,-0.6333536505699158,0.0058937398716807365,-0.633293092250824,-0.7735439538955688,0.023865049704909325,-0.17026342451572418,-0.47206753492355347,-0.1544724702835083,0.5537049770355225,-0.09050873667001724,1.1671011447906494,-0.009907743893563747,202.11822509765625
10,-0.12981311976909637,-0.48222219944000244,-0.124564990401268,0.5979361534118652,-0.08276209980249405,1.2078008651733398,-0.007631554268300533,0.5839999914169312,-0.3097625970840454,0.047589682042598724,-0.23155614733695984,-0.2864677906036377,-0.02158224955201149,-0.32330113649368286,-0.01548285037279129,-0.0,0.3148176968097687,-0.12193397432565689,-0.09047989547252655,0.7746130228042603,-0.6324306130409241,0.002481046598404646,-0.6323575377464294,-0.7744499444961548,0.01874144934117794,-0.17975172400474548,-0.47288066148757935,-0.1563418209552765,0.5442477464675903,-0.08915155380964279,1.1563621759414673,-0.010118774138391018,159.00732421875
11,-0.1420830488204956,-0.4788205921649933,-0.13420222699642181,0.5831063389778137,-0.08584731817245483,1.1953046321868896,-0.00812626350671053,0.6169999837875366,-0.24906739592552185,0.02014341950416565,-0.12607574462890625,-0.24272975325584412,0.0017288986127823591,-0.2733445167541504,-0.010811271145939827,-0.0,0.31457820534706116,-0.12189707905054092,-0.09067372977733612,0.7756301760673523,-0.6311507821083069,0.006821183022111654,-0.6310605406761169,-0.775211751461029,0.028448641300201416,-0.19136513769626617,-0.4756752848625183,-0.16297173500061035,0.5373768210411072,-0.0855359211564064,1.1464409828186035,-0.011483301408588886,123.0
12,-0.156002014875412,-0.4761917293071747,-0.1434866487979889,0.5683379769325256,-0.08782998472452164,1.1809197664260864,-0.008726432919502258,0.6480000019073486,-0.19598083198070526,-0.017785510048270226,-0.09548481553792953,-0.14954698085784912,0.033808864653110504,-0.18704520165920258,-0.01936705783009529,-0.0,0.3138405382633209,-0.12117675691843033,-0.09152892976999283,0.7749061584472656,-0.6320714950561523,0.0024526668712496758,-0.6319087147712708,-0.7746055722236633,0.026030227541923523,-0.2019049972295761,-0.48107659816741943,-0.16657638549804688,0.5286439061164856,-0.07949035614728928,1.1367557048797607,-0.012660518288612366,92.0
13,-0.16860750317573547,-0.47471335530281067,-0.15030135214328766,0.5560181736946106,-0.08834962546825409,1.167965292930603,-0.009420559741556644,0.6800000071525574,-0.2238599956035614,-0.060324035584926605,-0.09147904068231583,-0.1557745635509491,0.07861936092376709,-0.1939164251089096,-0.023046527057886124,-0.0,0.31399044394493103,-0.12145186215639114,-0.0914062038064003,0.7721100449562073,-0.6354548931121826,0.006566394120454788,-0.6354503631591797,-0.7719085216522217,0.018975382670760155,-0.21216747164726257,-0.48638981580734253,-0.16772162914276123,0.522876501083374,-0.07487326860427856,1.1275279521942139,-0.013696604408323765,59.99993896484375
14,-0.1791919618844986,-0.4748648405075073,-0.15558208525180817,0.5472438335418701,-0.08747909218072891,1.1576991081237793,-0.010204806923866272,0.7120000123977661,-0.2264043539762497,-0.0844772681593895,-0.05950554832816124,-0.15563176572322845,0.10887856781482697,-0.21313853561878204,0.004834989085793495,-0.0,0.3135053217411041,-0.1210482120513916,-0.09191299974918365,0.7737550139427185,-0.6334635019302368,0.005214872304350138,-0.6334582567214966,-0.77362060546875,0.01554857101291418,-0.2206382155418396,-0.49421370029449463,-0.16845954954624176,0.5182469487190247,-0.06884906440973282,1.1227284669876099,-0.015104524791240692,27.99993896484375
15,-0.1909480094909668,-0.4771159589290619,-0.16046014428138733,0.538128137588501,-0.08418294787406921,1.146773338317871,-0.010943035595119,0.7440000176429749,-0.18768294155597687,-0.15479297935962677,-0.026375213637948036,-0.11053547263145447,0.13833819329738617,-0.13418123126029968,-0.06288477033376694,-0.0,0.3140607476234436,-0.12134284526109695,-0.09129572659730911,0.7686365246772766,-0.6396426558494568,0.007427150849252939,-0.6396821141242981,-0.7685412168502808,0.01229381188750267,-0.22941547632217407,-0.5008910298347473,-0.16931909322738647,0.5121376514434814,-0.06126653403043747,1.1155458688735962,-0.016377966850996017,0.0
16,-0.20223619043827057,-0.4818463623523712,-0.16392309963703156,0.5304793119430542,-0.07933557033538818,1.1370115280151367,-0.012060923501849174,0.7749999761581421,-0.14482221007347107,-0.13129325211048126,-0.018690183758735657,-0.09207145869731903,0.09836112707853317,-0.09688514471054077,-0.022498907521367073,-0.0,0.3140210807323456,-0.12141745537519455,-0.09128271788358688,0.7704083323478699,-0.6375142335891724,0.0068266973830759525,-0.6375435590744019,-0.7703045606613159,0.013004196807742119,-0.23887193202972412,-0.5110360383987427,-0.16889262199401855,0.5067054033279419,-0.05359493941068649,1.110939383506775,-0.018027475103735924,0.0
17,-0.21124641597270966,-0.487604558467865,-0.16600164771080017,0.524711549282074,-0.07423124462366104,1.1299781799316406,-0.01336097251623869,0.8040000200271606,-0.16260795295238495,-0.15100310742855072,-0.003496733261272311,-0.12095890194177628,0.18590906262397766,-0.13174399733543396,-0.02827533707022667,-0.0,0.31558188796043396,-0.12275532633066177,-0.08949749916791916,0.7717658877372742,-0.6358340978622437,0.009610846638679504,-0.6359066963195801,-0.7716718316078186,0.012049693614244461,-0.24687308073043823,-0.5174923539161682,-0.16875320672988892,0.5038484334945679,-0.04799959063529968,1.105150580406189,-0.01948515698313713,0.0
18,-0.22043496370315552,-0.49444034695625305,-0.16737647354602814,0.5187731385231018,-0.06752967089414597,1.1230695247650146,-0.01474539004266262,0.8330000042915344,-0.20526990294456482,-0.18611575663089752,-0.00037000238080509007,-0.09554081410169601,0.12453892827033997,-0.10904252529144287,-0.034269675612449646,-0.0,0.31471261382102966,-0.12195856124162674,-0.09060534089803696,0.7751044631004333,-0.6317834854125977,0.007914658635854721,-0.6317843794822693,-0.7748284935951233,0.022120432928204536,-0.25397270917892456,-0.5284180045127869,-0.16549760103225708,0.4972824156284332,-0.03974065184593201,1.1052477359771729,-0.021108565852046013,0.0
19,-0.22894662618637085,-0.5017171502113342,-0.16804568469524384,0.5137090682983398,-0.0611061230301857,1.1174187660217285,-0.016055027022957802,0.8399999737739563,-0.1364288479089737,-0.1676802635192871,0.028162650763988495,-0.07342220097780228,0.14446096122264862,-0.10173927247524261,-0.030315862968564034,-0.0,0.3143441379070282,-0.12169414013624191,-0.09093859791755676,0.7770108580589294,-0.629463791847229,0.005428477190434933,-0.6293439865112305,-0.7766212821006775,0.028026476502418518,-0.26010429859161377,-0.5352632999420166,-0.16454653441905975,0.4912412166595459,-0.03210374712944031,1.102642297744751,-0.02242199517786503,0.0
20,-0.23816968500614166,-0.5104148387908936,-0.16824126243591309,0.5086967945098877,-0.05389641597867012,1.1115857362747192,-0.017581338062882423,0.8399999737739563,-0.10888295620679855,-0.16205640137195587,0.02890634536743164,-0.13387534022331238,0.1270725131034851,-0.024246016517281532,-0.029481202363967896,-0.0,0.31408724188804626,-0.1214512288570404,-0.09133413434028625,0.7766426801681519,-0.6298924684524536,0.007850953377783298,-0.6298869848251343,-0.7763515114784241,0.022818673402071,-0.2670348584651947,-0.541988730430603,-0.1613980531692505,0.48595407605171204,-0.02526719495654106,1.0996288061141968,-0.023631582036614418,0.0
21,-0.24598148465156555,-0.5193406939506531,-0.16756631433963776,0.5032339096069336,-0.046537142246961594,1.1078524589538574,-0.019096143543720245,0.8399999737739563,-0.17385253310203552,-0.16752009093761444,0.05647481605410576,-0.12480209767818451,0.17882917821407318,-0.05895553529262543,-0.006032838951796293,-0.0,0.3138565123081207,-0.12122838199138641,-0.09147792309522629,0.7767089605331421,-0.6298596262931824,-6.569807010237128e-05,-0.6296869516372681,-0.7764984965324402,0.023331716656684875,-0.27273207902908325,-0.5481666326522827,-0.15808507800102234,0.47905656695365906,-0.019069794565439224,1.0970783233642578,-0.024395130574703217,0.0
22,-0.2527482509613037,-0.5269914269447327,-0.16622599959373474,0.49774226546287537,-0.03951342776417732,1.1052868366241455,-0.02034441940486431,0.8410000205039978,-0.12923836708068848,-0.13989970088005066,0.09107835590839386,-0.14267803728580475,0.13250063359737396,-0.05849955230951309,-0.055352237075567245,-0.0,0.31382790207862854,-0.12121929973363876,-0.09151671826839447,0.7753509879112244,-0.6315222382545471,0.003235858166590333,-0.6313859820365906,-0.7750537991523743,0.02536393329501152,-0.27829408645629883,-0.5535697340965271,-0.1561453938484192,0.4744487404823303,-0.012904535979032516,1.0943801403045654,-0.025460733100771904,0.0
23,-0.26043158769607544,-0.5351809859275818,-0.16375628113746643,0.4911864101886749,-0.03159808740019798,1.1024508476257324,-0.021818960085511208,0.8399999737739563,-0.11056976765394211,-0.10768311470746994,0.03722267225384712,-0.0933830663561821,0.10494869947433472,-0.05387704074382782,-0.019480325281620026,-0.0,0.3146933615207672,-0.12208423763513565,-0.09050861746072769,0.7754955291748047,-0.6313109397888184,0.007293470203876495,-0.6312699317932129,-0.7751542925834656,0.025179296731948853,-0.2853862941265106,-0.558253824710846,-0.15291333198547363,0.4683668315410614,-0.008042316883802414,1.0880451202392578,-0.026118287816643715,0.0
24,-0.2672041058540344,-0.5424002408981323,-0.16083213686943054,0.48464205861091614,-0.02452068217098713,1.0996437072753906,-0.02312859520316124,0.8399999737739563,-0.11565091460943222,-0.09104108065366745,0.05722698196768761,-0.09041375666856766,0.09503500908613205,-0.08471037447452545,-0.014744398184120655,-0.0,0.31446319818496704,-0.1218375638127327,-0.09075287729501724,0.7748216390609741,-0.6321595907211304,0.005059733986854553,-0.6321141719818115,-0.7746010422706604,0.020612675696611404,-0.29115551710128784,-0.564272940158844,-0.14927932620048523,0.4625494182109833,-0.0020793769508600235,1.0848925113677979,-0.026971448212862015,0.0
25,-0.27290859818458557,-0.5479437112808228,-0.15850432217121124,0.47948595881462097,-0.018785512074828148,1.0967464447021484,-0.024112259969115257,0.8399999737739563,-0.14170315861701965,-0.12170680612325668,0.07994972169399261,-0.12736620008945465,0.1251753866672516,-0.09820110350847244,-0.018077204003930092,-0.0,0.31393977999687195,-0.12134650349617004,-0.09139855206012726,0.774982750415802,-0.6319593191146851,0.005404215771704912,-0.631889283657074,-0.774693489074707,0.02378920465707779,-0.29596859216690063,-0.5691205263137817,-0.14576759934425354,0.4583340883255005,0.0030130017548799515,1.0826561450958252,-0.02764025144279003,0.0
26,-0.2794817090034485,-0.5536539554595947,-0.155587837100029,0.47351109981536865,-0.012808739207684994,1.0925202369689941,-0.025109348818659782,0.8399999737739563,-0.10941928625106812,-0.11019479483366013,0.0787486881017685,-0.09585000574588776,0.10438049584627151,-0.0541214719414711,-0.0160028338432312,-0.0,0.31327494978904724,-0.12077847123146057,-0.09218192845582962,0.7735620141029358,-0.6336950659751892,0.00568782864138484,-0.6336792707443237,-0.7733780741691589,0.018354499712586403,-0.3013361692428589,-0.5749850869178772,-0.14202827215194702,0.45215028524398804,0.008820072747766972,1.079832673072815,-0.028382791206240654,0.0
27,-0.2853683531284332,-0.5589653253555298,-0.15253904461860657,0.46815943717956543,-0.00726148160174489,1.0889537334442139,-0.025947285816073418,0.8399999737739563,-0.0855003371834755,-0.09446840733289719,0.07306680083274841,-0.09835349768400192,0.09805557131767273,-0.03379562497138977,-0.014885964803397655,-0.0,0.3144294321537018,-0.12183338403701782,-0.09080222994089127,0.7738871574401855,-0.6332903504371643,0.006479088217020035,-0.6332698464393616,-0.7736479640007019,0.020929640159010887,-0.3077924847602844,-0.5774505734443665,-0.13969996571540833,0.44885146617889404,0.011818785220384598,1.072819709777832,-0.02890678308904171,0.0
28,-0.291220486164093,-0.5647024512290955,-0.14892460405826569,0.46253931522369385,-0.0014112623175606132,1.085655689239502,-0.026773717254400253,0.8399999737739563,-0.1093253344297409,-0.06848224997520447,0.05077435448765755,-0.07594851404428482,0.06941051781177521,-0.11687313765287399,-0.011871262453496456,-0.0,0.3145798444747925,-0.12196148931980133,-0.09064483642578125,0.7743500471115112,-0.6327143907546997,0.007382966578006744,-0.6327247619628906,-0.7741386890411377,0.019200747832655907,-0.31235310435295105,-0.5819700956344604,-0.13538137078285217,0.4435802102088928,0.016312334686517715,1.0686203241348267,-0.029215630143880844,0.0
29,-0.2969364821910858,-0.569948673248291,-0.14546547830104828,0.45716845989227295,0.00392890814691782,1.0818917751312256,-0.027498522773385048,0.8399999737739563,-0.10464359074831009,-0.07802598178386688,0.07822243869304657,-0.09544935077428818,0.0878763273358345,-0.097764752805233,-0.00885926652699709,-0.0,0.3133644759654999,-0.12082000821828842,-0.09197178483009338,0.7762115001678467,-0.6304723024368286,-0.000544300302863121,-0.6302807927131653,-0.7759964466094971,0.023992685601115227,-0.31694507598876953,-0.5881232023239136,-0.13121303915977478,0.4385647773742676,0.02210690826177597,1.0675482749938965,-0.029866592958569527,0.0
30,-0.30218270421028137,-0.5738698840141296,-0.1424953043460846,0.45283305644989014,0.00796519499272108,1.077506422996521,-0.02805459126830101,0.8399999737739563,-0.10096251964569092,-0.12288040667772293,0.09199421852827072,-0.11148940771818161,0.12237988412380219,-0.06024017557501793,-0.012214826419949532,-0.0,0.314532995223999,-0.12185394763946533,-0.09070566296577454,0.7735327482223511,-0.6337161064147949,0.007141760550439358,-0.6337080001831055,-0.7732853293418884,0.02107073739171028,-0.32294389605522156,-0.5892539024353027,-0.12880387902259827,0.4357700049877167,0.024085793644189835,1.0604699850082397,-0.03013443574309349,0.0
31,-0.3077702224254608,-0.57865971326828,-0.13864117860794067,0.4476558566093445,0.012885438278317451,1.0730866193771362,-0.028627917170524597,0.8399999737739563,-0.06711216270923615,-0.047523513436317444,0.04941689595580101,-0.054387565702199936,0.044531114399433136,-0.053110599517822266,-0.006315557286143303,-0.0,0.31336069107055664,-0.12090016901493073,-0.09206729382276535,0.7732493877410889,-0.6340776085853577,0.00556122837588191,-0.6340634226799011,-0.7730758786201477,0.01781035028398037,-0.3265531659126282,-0.5955796241760254,-0.1239120215177536,0.42951181530952454,0.02928108163177967,1.0591471195220947,-0.03053893893957138,0.0
32,-0.3127920925617218,-0.5833767056465149,-0.13479472696781158,0.44294655323028564,0.017600512132048607,1.0695393085479736,-0.02914947085082531,0.8399999737739563,-0.09849099814891815,-0.047161661088466644,0.06786990165710449,-0.07430480420589447,0.06233690306544304,-0.10493896156549454,-0.007451129145920277,-0.0,0.3145815134048462,-0.12193741649389267,-0.09063845872879028,0.7740000486373901,-0.6331526041030884,0.006457848474383354,-0.6331306099891663,-0.7737582921981812,0.02106570638716221,-0.33214789628982544,-0.5974244475364685,-0.1208544373512268,0.4267987012863159,0.03147134929895401,1.0522935390472412,-0.030721960589289665,0.0
33,-0.31769508123397827,-0.5869585871696472,-0.13151200115680695,0.43891218304634094,0.02129165269434452,1.065370798110962,-0.029588572680950165,0.8410000205039978,-0.09139832109212875,-0.11235611140727997,0.07673080265522003,-0.11112777143716812,0.08291933685541153,-0.04129881039261818,-0.005191666539758444,-0.0,0.31338515877723694,-0.1208588108420372,-0.0920536145567894,0.7741742134094238,-0.6329451203346252,0.0058888946659862995,-0.6329247355461121,-0.7739678621292114,0.019493713974952698,-0.3362085819244385,-0.602354109287262,-0.11650404334068298,0.4228729009628296,0.03598784655332565,1.0515812635421753,-0.031122125685214996,0.0
34,-0.32238906621932983,-0.5909680128097534,-0.12795700132846832,0.4344482719898224,0.025057576596736908,1.0616508722305298,-0.029977818951010704,0.8399999737739563,-0.10335034877061844,-0.06484676152467728,0.09166192263364792,-0.07937905192375183,0.0780356377363205,-0.10502814501523972,-0.007659600116312504,-0.0,0.3145112097263336,-0.12183082103729248,-0.0907229483127594,0.7732954025268555,-0.6340100765228271,0.0067411623895168304,-0.6340045928955078,-0.7730798125267029,0.019641712307929993,-0.3407292366027832,-0.6039928793907166,-0.11387703567743301,0.4193372130393982,0.03794620931148529,1.0449764728546143,-0.031211895868182182,0.0
35,-0.32721152901649475,-0.5945748090744019,-0.12423135340213776,0.43045610189437866,0.028664348646998405,1.0573883056640625,-0.030338304117321968,0.8399999737739563,-0.08143918961286545,-0.07845883071422577,0.07272718101739883,-0.06672631949186325,0.07550934702157974,-0.035458579659461975,-0.003794768126681447,-0.0,0.3145049512386322,-0.12183082848787308,-0.09073738008737564,0.773489236831665,-0.6337656378746033,0.0074496143497526646,-0.6337711215019226,-0.7732597589492798,0.02008783631026745,-0.3454708158969879,-0.6070507764816284,-0.11019915342330933,0.41564223170280457,0.040782131254673004,1.0409750938415527,-0.031435608863830566,0.0
36,-0.33154886960983276,-0.5980991125106812,-0.12070319801568985,0.42687809467315674,0.03197966516017914,1.0540921688079834,-0.030624009668827057,0.8399999737739563,-0.10981671512126923,-0.055898137390613556,0.07547120749950409,-0.09054181724786758,0.059458520263433456,-0.12253087013959885,-0.005046381615102291,-0.0,0.31426525115966797,-0.12171537429094315,-0.09098773449659348,0.7744408249855042,-0.6326118111610413,0.0066071259789168835,-0.632607102394104,-0.7742342352867126,0.019223421812057495,-0.3486466109752655,-0.610575258731842,-0.10615523904561996,0.41259267926216125,0.04371870309114456,1.038665771484375,-0.03152668476104736,0.0
37,-0.3363233804702759,-0.6013319492340088,-0.1170964241027832,0.4230162799358368,0.03511473909020424,1.049599528312683,-0.030880950391292572,0.8399999737739563,-0.0856449082493782,-0.0722292959690094,0.09141518920660019,-0.07934778928756714,0.08217857778072357,-0.07116638123989105,-0.003446802729740739,-0.0,0.31355541944503784,-0.12101685255765915,-0.09184662252664566,0.7736833095550537,-0.633546769618988,0.005708126816898584,-0.6335314512252808,-0.7734993100166321,0.01835065893828869,-0.3524360656738281,-0.614500880241394,-0.10239283740520477,0.4083828330039978,0.04764246568083763,1.036667823791504,-0.03176368772983551,0.0
38,-0.3408620357513428,-0.6043635010719299,-0.1134781464934349,0.4192868173122406,0.038121338933706284,1.0454213619232178,-0.03109954297542572,0.8399999737739563,-0.053098615258932114,-0.05740177631378174,0.06263414770364761,-0.061019256711006165,0.04920710250735283,-0.03797280415892601,-0.004145983140915632,-0.0,0.3145368993282318,-0.12189400941133499,-0.09069827198982239,0.7737792730331421,-0.6334212422370911,0.0065679363906383514,-0.6334078311920166,-0.7735527753829956,0.020262256264686584,-0.3572995662689209,-0.6157770156860352,-0.09957955777645111,0.405659943819046,0.04899115487933159,1.030235767364502,-0.031845442950725555,0.0
39,-0.3453335762023926,-0.6079261898994446,-0.10924627631902695,0.4153137803077698,0.04148842766880989,1.041691780090332,-0.03132772445678711,0.8399999737739563,-0.05558587983250618,-0.03560158982872963,0.046191733330488205,-0.048172030597925186,0.036202918738126755,-0.06866465508937836,-0.0021807029843330383,-0.0,0.31409385800361633,-0.12148592621088028,-0.09121433645486832,0.7744989395141602,-0.6325387954711914,0.006788403261452913,-0.6325274705886841,-0.7742640972137451,0.020594045519828796,-0.3605080842971802,-0.6197156310081482,-0.09505818784236908,0.40167519450187683,0.05234692618250847,1.0278645753860474,-0.031908586621284485,0.0
40,-0.3489307761192322,-0.6110190749168396,-0.10588110983371735,0.4119332730770111,0.04435313865542412,1.038767695426941,-0.031492624431848526,0.8399999737739563,-0.09130629152059555,-0.05102092772722244,0.07700672745704651,-0.0749150738120079,0.05151534080505371,-0.09909562766551971,-0.001966960960999131,-0.0,0.3138890862464905,-0.12129491567611694,-0.09144733101129532,0.7749419212341309,-0.6320070624351501,0.005667493678629398,-0.6319451928138733,-0.774654746055603,0.023564312607049942,-0.36383572220802307,-0.6226014494895935,-0.09158837050199509,0.3991273045539856,0.0547579787671566,1.0254549980163574,-0.03195033594965935,0.0
41,-0.3534349203109741,-0.6141560673713684,-0.10196178406476974,0.40814051032066345,0.04730604961514473,1.034313440322876,-0.03164985775947571,0.8399999737739563,-0.061007704585790634,-0.06380196660757065,0.06620068103075027,-0.056017447263002396,0.05327427759766579,-0.05318599194288254,-0.0012967884540557861,-0.0,0.313565731048584,-0.12101149559020996,-0.09184207767248154,0.7711908221244812,-0.6365730166435242,0.0062843430787324905,-0.6365856528282166,-0.7710558772087097,0.015216139145195484,-0.36759456992149353,-0.6257214546203613,-0.08769481629133224,0.39485132694244385,0.05776491388678551,1.0225754976272583,-0.031924694776535034,0.0
42,-0.3575038015842438,-0.6173447966575623,-0.09795618057250977,0.40456441044807434,0.05021294206380844,1.0306798219680786,-0.031745731830596924,0.8399999737739563,-0.051032666116952896,-0.037164077162742615,0.05386226624250412,-0.06665785610675812,0.0659894198179245,-0.03184543550014496,-5.840981611981988e-05,-0.0,0.3132915496826172,-0.12081490457057953,-0.09213553369045258,0.7736928462982178,-0.6335285902023315,0.006394912488758564,-0.6335262656211853,-0.7735057473182678,0.018255630508065224,-0.3712886869907379,-0.6291934847831726,-0.08386669307947159,0.3923632800579071,0.0603240504860878,1.019749641418457,-0.03205563873052597,0.0
43,-0.36084404587745667,-0.6200522780418396,-0.09454499185085297,0.40148302912712097,0.052830297499895096,1.0279377698898315,-0.03181859478354454,0.8399999737739563,-0.0911034345626831,-0.08260495215654373,0.09599366039037704,-0.06671540439128876,0.051735613495111465,-0.06318160891532898,-0.0019273619400337338,-0.0,0.3134180009365082,-0.12088681012392044,-0.09200283885002136,0.7740022540092468,-0.6331548094749451,0.005955913104116917,-0.6331332325935364,-0.7737897038459778,0.0197944026440382,-0.37462300062179565,-0.631279706954956,-0.08063319325447083,0.38938552141189575,0.06245052441954613,1.016817331314087,-0.03192949667572975,0.0
44,-0.36473268270492554,-0.6233695149421692,-0.09053746610879898,0.3979203701019287,0.055748697370290756,1.0248851776123047,-0.03188762441277504,0.8399999737739563,-0.027939362451434135,-0.0320451483130455,0.02669718861579895,-0.021186133846640587,0.03304138779640198,-0.021679559722542763,0.0010499026393517852,-0.0,0.31377625465393066,-0.12120991945266724,-0.09158734977245331,0.7718548774719238,-0.6357719302177429,0.005835065618157387,-0.6357667446136475,-0.7716915607452393,0.01711186394095421,-0.37818023562431335,-0.633467435836792,-0.07746686041355133,0.38597482442855835,0.06418654322624207,1.012662410736084,-0.03181037679314613,0.0
45,-0.3683931529521942,-0.6265928149223328,-0.08685015887022018,0.3948715925216675,0.058325786143541336,1.0220242738723755,-0.031927891075611115,0.8399999737739563,-0.08602684736251831,-0.052678432315588,0.09980743378400803,-0.08042364567518234,0.043432481586933136,-0.10671620070934296,0.0021819977555423975,-0.0,0.31451278924942017,-0.12186980992555618,-0.09071188420057297,0.7741215825080872,-0.633000373840332,0.0068018389865756035,-0.632995069026947,-0.7739022374153137,0.01981266960501671,-0.3824893832206726,-0.6351869106292725,-0.0744892880320549,0.38485389947891235,0.06544007360935211,1.0081900358200073,-0.03177458792924881,0.0
46,-0.37195199728012085,-0.6292868852615356,-0.08326831459999084,0.391719251871109,0.060584571212530136,1.0187549591064453,-0.03193939849734306,0.8399999737739563,-0.028024647384881973,-0.024060765281319618,0.040884628891944885,-0.019320223480463028,0.018564686179161072,-0.0305208507925272,0.0008673853008076549,-0.0,0.313704252243042,-0.12115045636892319,-0.09167513996362686,0.7739585638046265,-0.6332024931907654,0.006535681430250406,-0.6332046985626221,-0.7737758755683899,0.01796429045498371,-0.384653240442276,-0.6389672160148621,-0.07074438780546188,0.3805806636810303,0.06849505007266998,1.0072847604751587,-0.03174310550093651,0.0
47,-0.3750487267971039,-0.6313232183456421,-0.08023678511381149,0.3889254927635193,0.062363989651203156,1.015669822692871,-0.03193939849734306,0.8399999737739563,-0.08939197659492493,-0.05421888828277588,0.06469231843948364,-0.04540032148361206,0.04671165347099304,-0.09078080207109451,0.0009027314372360706,-0.0,0.31464892625808716,-0.12199468165636063,-0.09057170897722244,0.774137020111084,-0.6329745650291443,0.007420923560857773,-0.6329895257949829,-0.7739376425743103,0.018567711114883423,-0.38817092776298523,-0.6393742561340332,-0.06802365183830261,0.3791830837726593,0.06886055320501328,1.0019422769546509,-0.03149553760886192,0.0
48,-0.3784004747867584,-0.6335282921791077,-0.07705377042293549,0.38642892241477966,0.06417600065469742,1.0123333930969238,-0.03193939849734306,0.8399999737739563,-0.06589706242084503,-0.04416867345571518,0.054617978632450104,-0.047999169677495956,0.034918446093797684,-0.05699069797992706,0.0032813879661262035,-0.0,0.3135267198085785,-0.12097153067588806,-0.09187600016593933,0.7733805179595947,-0.6339131593704224,0.0060488819144666195,-0.6339086890220642,-0.7732067704200745,0.0176380667835474,-0.3900098502635956,-0.643116295337677,-0.06416568160057068,0.37615087628364563,0.07185601443052292,1.0022921562194824,-0.03152414783835411,0.0
49,-0.38186150789260864,-0.6361475586891174,-0.07373654097318649,0.3835047781467438,0.06619510799646378,1.0091350078582764,-0.031927891075611115,0.8399999737739563,-0.05369444191455841,-0.037744104862213135,0.08098827302455902,-0.054207995533943176,0.03904687240719795,-0.0815797671675682,0.0012977293226867914,-0.0,0.31441211700439453,-0.12181560695171356,-0.09082013368606567,0.774206817150116,-0.6328980326652527,0.006624937057495117,-0.6328834891319275,-0.7739737033843994,0.020571645349264145,-0.39400699734687805,-0.6441375017166138,-0.062174394726753235,0.37446674704551697,0.07277065515518188,0.997068464756012,-0.03151928633451462,0.0
50,-0.38474348187446594,-0.6381686329841614,-0.07070308923721313,0.38119614124298096,0.06784605234861374,1.0060421228408813,-0.03180517256259918,0.8399999737739563,-0.03634922578930855,-0.03265907242894173,0.040151823312044144,-0.03489389270544052,0.030217507854104042,-0.02258538268506527,0.0004732894594781101,-0.0,0.31371158361434937,-0.12113289535045624,-0.0916643813252449,0.7716482281684875,-0.6360149383544922,0.006632279604673386,-0.6360306143760681,-0.7715030908584595,0.01574873737990856,-0.3957217037677765,-0.6468588709831238,-0.058484792709350586,0.3713722825050354,0.07487045973539352,0.996458113193512,-0.03126443922519684,0.0
51,-0.3876311779022217,-0.6406651735305786,-0.06729765236377716,0.37857112288475037,0.069796122610569,1.0034074783325195,-0.03168053925037384,0.8399999737739563,-0.06886304914951324,-0.045268137007951736,0.0627325102686882,-0.05711625888943672,0.039541780948638916,-0.07266586273908615,0.0037123714573681355,-0.0,0.31354013085365295,-0.12102009356021881,-0.09185042232275009,0.7709594964981079,-0.6368517875671387,0.00642102025449276,-0.6368721127510071,-0.7708436846733093,0.013925156556069851,-0.39817890524864197,-0.6492331624031067,-0.05506952106952667,0.369118332862854,0.07656997442245483,0.9946076273918152,-0.030983783304691315,0.0
52,-0.3950345814228058,-0.6462641954421997,-0.059284523129463196,0.3720536231994629,0.07437122613191605,0.9970453381538391,-0.03131813555955887,0.8399999737739563,-0.02752024121582508,-0.027298668399453163,0.028160400688648224,-0.026897551491856575,0.023595169186592102,-0.024745170027017593,0.003845367580652237,-0.0,0.31344038248062134,-0.12090544402599335,-0.09197103977203369,0.7743601202964783,-0.632714033126831,0.00627079326659441,-0.6327009201049805,-0.7741509079933167,0.0194894727319479,-0.40471068024635315,-0.6547377109527588,-0.04792413115501404,0.36349573731422424,0.08086558431386948,0.9885772466659546,-0.030597396194934845,0.0
53,-0.3957938849925995,-0.6470004916191101,-0.058327700942754745,0.3713172972202301,0.07492920756340027,0.9964240789413452,-0.0312567763030529,0.8410000205039978,-0.0793338343501091,-0.07520072907209396,0.07822984457015991,-0.0729217603802681,0.05730505660176277,-0.06383858621120453,0.005346958059817553,-0.0,0.3135256767272949,-0.12100829184055328,-0.09186424314975739,0.7718302607536316,-0.6358025670051575,0.0057502808049321175,-0.6357998847961426,-0.7716780304908752,0.016476182267069817,-0.4059438705444336,-0.6549778580665588,-0.0468972809612751,0.3634209632873535,0.08100113272666931,0.9879165887832642,-0.03039577230811119,0.0
54,-0.3975675404071808,-0.6486169099807739,-0.05607466772198677,0.3697066307067871,0.07616214454174042,0.9948843121528625,-0.031114883720874786,0.8410000205039978,-0.1131179928779602,-0.0617244653403759,0.11127788573503494,-0.06394676119089127,0.04583347588777542,-0.08246806263923645,0.008591558784246445,-0.0,0.31382036209106445,-0.12125840038061142,-0.09150166064500809,0.7752859592437744,-0.6315906643867493,0.004993670154362917,-0.6315150260925293,-0.7750073075294495,0.023502476513385773,-0.40809494256973267,-0.6561707854270935,-0.045145656913518906,0.36231082677841187,0.08160792291164398,0.9856101870536804,-0.03030344843864441,0.0
55,-0.40095189213752747,-0.6512438654899597,-0.05224163457751274,0.3670509159564972,0.07816974073648453,0.9919965863227844,-0.030877115204930305,0.8399999737739563,-0.008349570445716381,-0.008346909657120705,0.008349570445716381,-0.009306815452873707,0.007335292641073465,-0.008349570445716381,0.001267152139917016,-0.0,0.3135388195514679,-0.12098345905542374,-0.09186936169862747,0.771934449672699,-0.6356754899024963,0.00582354748621583,-0.6356796622276306,-0.7717977166175842,0.015481044538319111,-0.410015344619751,-0.6586684584617615,-0.04167826101183891,0.35868147015571594,0.08372680097818375,0.9838036894798279,-0.029942477121949196,0.0
56,-0.4037916660308838,-0.653381884098053,-0.049236949533224106,0.3649819791316986,0.07974398881196976,0.9896285533905029,-0.030637431889772415,0.8399999737739563,-0.04119495302438736,-0.04426038637757301,0.06242067739367485,-0.044168006628751755,0.03173254802823067,-0.040530696511268616,0.00557350879535079,-0.0,0.310217946767807,-0.11687179654836655,-0.09591557085514069,0.7870457768440247,-0.616852879524231,-0.00717360433191061,-0.6164671778678894,-0.7868800759315491,0.028070364147424698,-0.40672966837882996,-0.6675244569778442,-0.035477910190820694,0.3552250564098358,0.09255488961935043,0.9921466112136841,-0.03007391467690468,0.0
57,-0.4060351252555847,-0.6550194025039673,-0.046815175563097,0.3633003532886505,0.08091940730810165,0.9875614643096924,-0.03043801337480545,0.8399999737739563,-0.009804296307265759,-0.08287066221237183,0.08190170675516129,-0.04347847402095795,0.073078952729702,-0.0072309710085392,-5.926179437665269e-05,-0.0,0.31340304017066956,-0.11805281788110733,-0.09245142340660095,0.7923641204833984,-0.6100470423698425,-0.001311413012444973,-0.6098714470863342,-0.7921841144561768,0.02238607034087181,-0.40910130739212036,-0.6649178862571716,-0.03488418832421303,0.3560270071029663,0.09338981658220291,0.982714831829071,-0.02979946881532669,0.0
58,-0.40793919563293457,-0.6577901244163513,-0.043262094259262085,0.36056986451148987,0.08332008123397827,0.9861502051353455,-0.030253935605287552,0.8399999737739563,0.01097524631768465,-0.08831528574228287,0.032810792326927185,-0.014017464593052864,0.09140979498624802,0.138520285487175,0.0019780003931373358,-0.0,0.31320783495903015,-0.11700946092605591,-0.09201344102621078,0.8042902946472168,-0.5942167639732361,-0.004853310529142618,-0.5939899682998657,-0.8041650056838989,0.02223854698240757,-0.4103248119354248,-0.6685404777526855,-0.031359270215034485,0.35428088903427124,0.09698812663555145,0.9810438752174377,-0.029750358313322067,0.0
59,-0.40823253989219666,-0.661446750164032,-0.03989500552415848,0.358529657125473,0.08686357736587524,0.9878376126289368,-0.03015230968594551,0.8399999737739563,-0.02414279617369175,-0.015748590230941772,0.046072255820035934,-0.025736482813954353,0.05419078841805458,-0.13953527808189392,0.0023806975223124027,-0.0,0.313496857881546,-0.11728458106517792,-0.09102745354175568,0.8146660923957825,-0.5798808336257935,-0.00757418991997838,-0.5796249508857727,-0.8145914673805237,0.02180810458958149,-0.40979960560798645,-0.6719903945922852,-0.029390200972557068,0.353096067905426,0.09971441328525543,0.9808188676834106,-0.029558006674051285,0.0
60,-0.40853169560432434,-0.6640238761901855,-0.03732750564813614,0.3571433126926422,0.09006384760141373,0.988132894039154,-0.030048765242099762,0.8399999737739563,-0.005013211630284786,-0.07313767075538635,0.07156389951705933,-0.034822747111320496,0.10741236805915833,-0.1267518699169159,0.004109026864171028,-0.0,0.30246543884277344,-0.11308176815509796,-0.09870845824480057,0.8418193459510803,-0.539012610912323,-0.02838355489075184,-0.5388792753219604,-0.8422855734825134,0.012808449566364288,-0.4095936715602875,-0.6914507150650024,-0.0249670147895813,0.3457554578781128,0.10966642946004868,1.007508397102356,-0.030654177069664,0.0
61,-0.40899762511253357,-0.6663593649864197,-0.03471590206027031,0.35585862398147583,0.09338683634996414,0.9856248497962952,-0.029922213405370712,0.8399999737739563,0.0007334302645176649,-0.06788423657417297,0.03629118949174881,-0.05594560131430626,0.05129081383347511,0.03530445322394371,-0.006914176512509584,-0.0,0.2968918979167938,-0.11518894135951996,-0.10029476135969162,0.8528856039047241,-0.5207213163375854,-0.037887174636125565,-0.5200080275535583,-0.8537184596061707,0.02750268019735813,-0.42045706510543823,-0.6991724371910095,-0.025143373757600784,0.3431483805179596,0.10623656958341599,1.0149097442626953,-0.03165477141737938,0.0
62,-0.40934085845947266,-0.6697245240211487,-0.03187612071633339,0.3541213870048523,0.09702619910240173,0.9840812683105469,-0.02985510043799877,0.8399999737739563,-0.03009990230202675,-0.2502771019935608,0.027578582987189293,-0.07661361992359161,0.05283600836992264,0.34273025393486023,-0.015236626379191875,-0.0,0.2968918979167938,-0.11518894135951996,-0.10029476135969162,0.8528856039047241,-0.5207213163375854,-0.037887174636125565,-0.5200080275535583,-0.8537184596061707,0.02750268019735813,-0.4257650375366211,-0.6998316049575806,-0.023109134286642075,0.34185266494750977,0.10659429430961609,1.0123568773269653,-0.03142164647579193,0.0
63,-0.409877747297287,-0.6749879717826843,-0.029793741181492805,0.3518836796283722,0.10014977306127548,0.9881731867790222,-0.029876193031668663,0.8399999737739563,-0.1517896056175232,-0.2522616386413574,0.03686460852622986,-0.05622423440217972,0.019396239891648293,0.3209557831287384,-0.006921746302396059,-0.0,0.2968918979167938,-0.11518894135951996,-0.10029476135969162,0.8528856039047241,-0.5207213163375854,-0.037887174636125565,-0.5200080275535583,-0.8537184596061707,0.02750268019735813,-0.4276486039161682,-0.7028189301490784,-0.020620742812752724,0.33960700035095215,0.10695569217205048,1.0131494998931885,-0.030834389850497246,0.0
64,-0.4129207730293274,-0.6840422749519348,-0.02783983387053013,0.3490093946456909,0.10267700254917145,0.9984354972839355,-0.030284615233540535,0.8399999737739563,-0.10698842257261276,-0.02979564294219017,0.054253872483968735,-0.030332015827298164,0.016235170885920525,-0.021719438955187798,0.0018818366806954145,-0.0,0.2968918979167938,-0.11518894135951996,-0.10029476135969162,0.8528856039047241,-0.5207213163375854,-0.037887174636125565,-0.5200080275535583,-0.8537184596061707,0.02750268019735813,-0.42665860056877136,-0.7093129754066467,-0.019606204703450203,0.33733069896698,0.10964353382587433,1.0182573795318604,-0.030770080164074898,0.0
65,-0.41771063208580017,-0.6916680932044983,-0.025897430256009102,0.3462827503681183,0.10437589138746262,1.0062721967697144,-0.030624009668827057,0.8399999737739563,-0.05733537673950195,-0.13723614811897278,0.03533051535487175,-0.08991365134716034,0.04133879020810127,0.032924700528383255,0.0017141705611720681,-0.0,0.27649635076522827,-0.14163261651992798,-0.09759736806154251,0.8611069321632385,-0.5076137781143188,-0.02868959866464138,-0.5077974200248718,-0.8614758849143982,0.0010162144899368286,-0.49108362197875977,-0.7280564904212952,-0.03929469734430313,0.32820039987564087,0.07036657631397247,1.0398972034454346,-0.0349515900015831,0.0
66,-0.42171433568000793,-0.6970236301422119,-0.02392818219959736,0.3436615467071533,0.10568743944168091,1.0100170373916626,-0.030750561505556107,0.8399999737739563,-0.03237777575850487,-0.11604996770620346,0.003616924164816737,-0.05400078371167183,0.0158858522772789,0.15990005433559418,-0.019057175144553185,-0.0,0.27408745884895325,-0.14458145201206207,-0.09823546558618546,0.8626258969306946,-0.5050917863845825,-0.02754807285964489,-0.5051364302635193,-0.8630198240280151,0.005825373809784651,-0.500931441783905,-0.7335623502731323,-0.039524734020233154,0.3249642848968506,0.06730964779853821,1.0431663990020752,-0.035482149571180344,0.0
67,-0.42503923177719116,-0.7031518816947937,-0.022459397092461586,0.34064728021621704,0.10673055052757263,1.0149180889129639,-0.030982576310634613,0.8410000205039978,-0.40020719170570374,-0.13673731684684753,-0.10527721792459488,-0.07113571465015411,-0.2970578670501709,0.14510966837406158,-0.022254841402173042,-0.0,0.26766058802604675,-0.15112294256687164,-0.10164975374937057,0.8549889922142029,-0.5174409747123718,-0.03533707931637764,-0.5175751447677612,-0.8556170463562012,0.005949977785348892,-0.5194767713546753,-0.743266761302948,-0.036872752010822296,0.316935658454895,0.054172296077013016,1.0527130365371704,-0.03540454059839249,0.0
68,-0.43179449439048767,-0.7085859775543213,-0.02320912852883339,0.3379378914833069,0.10366258770227432,1.0207549333572388,-0.0315328910946846,0.8399999737739563,-0.6765716075897217,-0.1731940060853958,-0.07615412771701813,-0.1018916592001915,-0.33284714818000793,0.1461668312549591,-0.01800445094704628,-0.0,0.2662082314491272,-0.15610365569591522,-0.10142792016267776,0.8515098690986633,-0.5231540203094482,-0.03522512689232826,-0.5234845876693726,-0.8520351052284241,-0.00018901683506555855,-0.5317944884300232,-0.7461690902709961,-0.03600972518324852,0.31379300355911255,0.04541611671447754,1.0546196699142456,-0.03555316478013992,0.0
69,-0.44970372319221497,-0.715471625328064,-0.026190804317593575,0.33433112502098083,0.0937243103981018,1.0276156663894653,-0.03235549107193947,0.8399999737739563,-0.675735592842102,-0.19464220106601715,-0.04666690528392792,-0.11250501871109009,-0.30570632219314575,0.1676882803440094,-0.01634185016155243,-0.0,0.2619327902793884,-0.16602469980716705,-0.10210578143596649,0.8545591235160828,-0.5178857445716858,-0.0390259213745594,-0.5183742046356201,-0.8551490902900696,-0.0028674867935478687,-0.5497037172317505,-0.7547293305397034,-0.040121302008628845,0.3093454837799072,0.03159981966018677,1.0606765747070312,-0.037207264453172684,0.0
70,-0.473125696182251,-0.7229210138320923,-0.029086193069815636,0.3301490843296051,0.0817592591047287,1.0344936847686768,-0.03310522437095642,0.8399999737739563,-0.4555172920227051,-0.16778656840324402,-0.06308046728372574,-0.14925351738929749,-0.34300512075424194,0.15085212886333466,-0.025306856259703636,-0.0,0.26149845123291016,-0.17187876999378204,-0.10080714523792267,0.852538526058197,-0.5217065811157227,-0.03162764385342598,-0.5220459699630737,-0.8529121279716492,-0.002985631814226508,-0.5731257200241089,-0.7595841288566589,-0.04075716435909271,0.30754581093788147,0.023513752967119217,1.0613991022109985,-0.03817186504602432,0.0
71,-0.500196635723114,-0.7318564653396606,-0.03202568367123604,0.32474371790885925,0.06627947837114334,1.042278528213501,-0.034014105796813965,0.8399999737739563,-0.38667091727256775,-0.22238977253437042,-0.040409915149211884,-0.10265550762414932,-0.2889278531074524,0.12001878768205643,-0.021055877208709717,-0.0,0.25974300503730774,-0.17690616846084595,-0.10137423127889633,0.8442796468734741,-0.5348817706108093,-0.033065833151340485,-0.5353645086288452,-0.8445894718170166,-0.0073130493983626366,-0.597610592842102,-0.7667292356491089,-0.03785320743918419,0.30165743827819824,0.015574216842651367,1.0666195154190063,-0.03818404674530029,0.0
72,-0.5243203639984131,-0.7410948872566223,-0.0347830131649971,0.31897595524787903,0.05099910870194435,1.0494441986083984,-0.0350361205637455,0.8399999737739563,-0.4302268326282501,-0.04836379736661911,-0.005708908662199974,-0.08635475486516953,-0.0973675474524498,0.07387737184762955,-0.011729002930223942,-0.0,0.2597388029098511,-0.1888379007577896,-0.0991102010011673,0.8493391275405884,-0.5272256731987,-0.025613494217395782,-0.5275653600692749,-0.8494715690612793,-0.008536660112440586,-0.624320387840271,-0.7724217176437378,-0.04148460179567337,0.2992108464241028,-0.0030687786638736725,1.0631530284881592,-0.03992276266217232,0.0
73,-0.5446839928627014,-0.7481109499931335,-0.036612287163734436,0.31468465924263,0.040242068469524384,1.0543490648269653,-0.03594308719038963,0.8399999737739563,-0.48998719453811646,-0.12999854981899261,-0.018415985628962517,-0.07004693895578384,-0.2048293501138687,0.04542418196797371,-0.02089531160891056,-0.0,0.2586708664894104,-0.19406697154045105,-0.0990910530090332,0.8455391526222229,-0.5331186652183533,-0.02911967597901821,-0.533618152141571,-0.8456273078918457,-0.012889656238257885,-0.6446840167045593,-0.7773504853248596,-0.038697510957717896,0.29365599155426025,-0.011289939284324646,1.0652979612350464,-0.04014505073428154,0.0
74,-0.5677646398544312,-0.7542487382888794,-0.03783180192112923,0.3102169334888458,0.030182989314198494,1.0584640502929688,-0.03685580566525459,0.8399999737739563,-0.5451148748397827,-0.1364252120256424,0.0006463616155087948,-0.09511547535657883,-0.3285379111766815,0.022873640060424805,-0.016248824074864388,-0.0,0.2584994435310364,-0.204472154378891,-0.09762812405824661,0.8486558198928833,-0.5282240509986877,-0.027615642175078392,-0.5285365581512451,-0.8488957285881042,-0.005012767855077982,-0.6677646636962891,-0.7805486917495728,-0.03953830525279045,0.2900315523147583,-0.0252308938652277,1.061711311340332,-0.04155469313263893,0.0
75,-0.5900188684463501,-0.7599206566810608,-0.038608379662036896,0.3064510226249695,0.019324323162436485,1.060789942741394,-0.03767073154449463,0.8399999737739563,-0.4708430767059326,-0.10793054848909378,-0.0023808972910046577,-0.08695633709430695,-0.23355399072170258,-0.005626619793474674,-0.021460792049765587,-0.0,0.2575751841068268,-0.20924358069896698,-0.09773202985525131,0.8531519174575806,-0.5210184454917908,-0.02591460570693016,-0.5212429165840149,-0.8534052968025208,-0.0022950342390686274,-0.690018892288208,-0.7860108017921448,-0.03752844035625458,0.28720080852508545,-0.03169631212949753,1.0628520250320435,-0.042480044066905975,0.0
76,-0.6151780486106873,-0.7661678194999695,-0.03901105001568794,0.30197179317474365,0.006617209408432245,1.06224524974823,-0.03859303891658783,0.8399999737739563,-0.45109283924102783,-0.06546161323785782,0.015396119095385075,-0.07268797606229782,-0.2940509021282196,-0.001735219149850309,-0.02050890028476715,-0.0,0.2601006031036377,-0.2198801338672638,-0.09418575465679169,0.8508244752883911,-0.5251288414001465,-0.01836710050702095,-0.5252817273139954,-0.8509167432785034,-0.004444276914000511,-0.7151780724525452,-0.786365270614624,-0.037818793207407,0.28452906012535095,-0.04659183323383331,1.0533047914505005,-0.04358486831188202,0.0
77,-0.6371293067932129,-0.7709538340568542,-0.039110757410526276,0.2981080710887909,-0.005090898834168911,1.062695860862732,-0.03944439813494682,0.8399999737739563,-0.43880391120910645,-0.08751892298460007,0.006484489422291517,-0.05875281244516373,-0.1338798999786377,-0.03211427852511406,-0.01982216350734234,-0.0,0.2593293786048889,-0.22371241450309753,-0.09476307034492493,0.846276581287384,-0.5323556065559387,-0.020332571119070053,-0.5326023697853088,-0.8463147282600403,-0.009274361655116081,-0.7359065413475037,-0.7905324101448059,-0.03380893915891647,0.2807345688343048,-0.05291157588362694,1.0539547204971313,-0.04393525794148445,0.0
78,-0.663061261177063,-0.7758069634437561,-0.03903597593307495,0.293845534324646,-0.017673376947641373,1.0623602867126465,-0.04050667956471443,0.8399999737739563,-0.46423816680908203,-0.07971560955047607,0.03341680020093918,-0.0719965398311615,-0.26915985345840454,-0.06213456392288208,-0.01564205251634121,-0.0,0.2602064609527588,-0.2322288304567337,-0.09316536039113998,0.8462719917297363,-0.5325047373771667,-0.016198482364416122,-0.5327048897743225,-0.8462077379226685,-0.012570150196552277,-0.7622688412666321,-0.7926068902015686,-0.031247079372406006,0.27704906463623047,-0.06517254561185837,1.048230528831482,-0.045148078352212906,0.0
79,-0.6837105751037598,-0.7793983817100525,-0.038552772253751755,0.29067403078079224,-0.027513863518834114,1.0605732202529907,-0.04138296842575073,0.8399999737739563,-0.4760982096195221,-0.06018655747175217,0.0672687441110611,-0.07086946815252304,-0.14667470753192902,-0.06876449286937714,-0.01872415281832218,-0.0,0.25954025983810425,-0.2359386384487152,-0.09344856441020966,0.8481680750846863,-0.5294975638389587,-0.01559514831751585,-0.5296056270599365,-0.8482365012168884,-0.0035559714306145906,-0.7781225442886353,-0.7962146997451782,-0.027203451842069626,0.2744017541408539,-0.07069963216781616,1.0472058057785034,-0.0461440235376358,0.0
80,-0.7071574926376343,-0.783116340637207,-0.037001535296440125,0.2871803641319275,-0.03785289451479912,1.0580018758773804,-0.042316775768995285,0.8399999737739563,-0.49981287121772766,-0.07812383025884628,0.07717062532901764,-0.04157540947198868,-0.2485000044107437,-0.06008930131793022,-0.022488027811050415,-0.0,0.2557961046695709,-0.24288295209407806,-0.09547601640224457,0.8518716096878052,-0.5232948660850525,-0.021846462041139603,-0.5235050916671753,-0.8520082831382751,-0.004922942724078894,-0.8028367161750793,-0.8034422993659973,-0.023218519985675812,0.26771578192710876,-0.07986713945865631,1.0506093502044678,-0.04756304249167442,0.0
81,-0.7313790321350098,-0.786709725856781,-0.03447430208325386,0.2839781939983368,-0.04818041995167732,1.054943561553955,-0.0432889387011528,0.8399999737739563,-0.36977913975715637,-0.09804591536521912,0.052704308182001114,-0.10605988651514053,-0.15010778605937958,-0.0291296374052763,-0.021885590627789497,-0.0,0.2557161748409271,-0.24723686277866364,-0.0947854220867157,0.8533517122268677,-0.5209733843803406,-0.019430367276072502,-0.5211083889007568,-0.8534874320030212,-0.0022921261843293905,-0.8221081495285034,-0.8063032627105713,-0.018085647374391556,0.2660304307937622,-0.08535151183605194,1.0473426580429077,-0.049007028341293335,0.0
82,-0.7521376013755798,-0.7901861071586609,-0.03175340220332146,0.2810732126235962,-0.057083260267972946,1.0525486469268799,-0.04421699792146683,0.8399999737739563,-0.4428604543209076,-0.08858247101306915,0.07856280356645584,-0.0836811363697052,-0.14514298737049103,-0.016432151198387146,-0.02712956629693508,-0.0,0.25669872760772705,-0.2517366111278534,-0.09307564049959183,0.8517013788223267,-0.5237789154052734,-0.016137223690748215,-0.5239551663398743,-0.8516914248466492,-0.009625023230910301,-0.8386140465736389,-0.8074803352355957,-0.011638421565294266,0.2630256414413452,-0.09158271551132202,1.0425571203231812,-0.04961281269788742,0.0
83,-0.7717246413230896,-0.7939865589141846,-0.028838839381933212,0.277433842420578,-0.06486821174621582,1.0510433912277222,-0.04521983489394188,0.8399999737739563,-0.4720120429992676,-0.06758079677820206,0.11470519006252289,-0.050674863159656525,-0.12207372486591339,-0.0521349236369133,-0.02383311092853546,-0.0,0.2561037242412567,-0.2582823932170868,-0.09265530109405518,0.8552311062812805,-0.518089771270752,-0.012755545787513256,-0.5181692838668823,-0.8552697896957397,-0.0037582661025226116,-0.8592537641525269,-0.8110771179199219,-0.008160579949617386,0.2590916156768799,-0.09947693347930908,1.0398427248001099,-0.050785716623067856,0.0
84,-0.7940574884414673,-0.7981110215187073,-0.02490801364183426,0.273652583360672,-0.07271835952997208,1.0493521690368652,-0.04641634225845337,0.8399999737739563,-0.3711273968219757,-0.06501215696334839,0.10201389342546463,-0.12779204547405243,-0.19330614805221558,-0.05691712722182274,-0.022393926978111267,-0.0,0.25821059942245483,-0.2617797255516052,-0.09061995148658752,0.8514569401741028,-0.52434903383255,-0.008895572274923325,-0.5244133472442627,-0.8514269590377808,-0.007921826094388962,-0.8757131099700928,-0.811627209186554,-0.001196257770061493,0.2575153708457947,-0.10346140712499619,1.0331252813339233,-0.052053846418857574,0.0
85,-0.8157632946968079,-0.8019306659698486,-0.020056799054145813,0.2697121798992157,-0.08074299991130829,1.0470185279846191,-0.047586001455783844,0.8399999737739563,-0.3871760964393616,-0.04282771795988083,0.1131398156285286,-0.058697063475847244,-0.12020786106586456,-0.08745940029621124,-0.025792092084884644,-0.0,0.2596338093280792,-0.2657378613948822,-0.09009677171707153,0.8472706079483032,-0.5310958623886108,-0.008348642848432064,-0.5311560034751892,-0.8472285270690918,-0.008780659176409245,-0.8912922739982605,-0.8135856986045837,0.0065837278962135315,0.2535010576248169,-0.10784222185611725,1.028372883796692,-0.0526634082198143,0.0
86,-0.8362419605255127,-0.8052210211753845,-0.015021506696939468,0.26534608006477356,-0.08821923285722733,1.0440062284469604,-0.048782505095005035,0.8399999737739563,-0.34415581822395325,-0.024606460705399513,0.14846697449684143,-0.06079304590821266,-0.1051689013838768,-0.1084832027554512,-0.019823631271719933,-0.0,0.26043760776519775,-0.2672863304615021,-0.08995836228132248,0.844057023525238,-0.5361950993537903,-0.007905272766947746,-0.5362384915351868,-0.844051718711853,-0.0049925995990633965,-0.9035239219665527,-0.8163542747497559,0.01547846570611,0.25002163648605347,-0.10931425541639328,1.0247020721435547,-0.05374132841825485,0.0
87,-0.85387122631073,-0.8073992729187012,-0.00959696713835001,0.2621113061904907,-0.09416916221380234,1.0402288436889648,-0.04982369765639305,0.8399999737739563,-0.33366650342941284,-0.06967025250196457,0.18479317426681519,-0.04625236243009567,-0.07653429359197617,-0.10388118773698807,-0.023698071017861366,-0.0,0.2620023787021637,-0.26973599195480347,-0.0899362862110138,0.8381829261779785,-0.5452317595481873,-0.01310047134757042,-0.5453453063964844,-0.8381783366203308,-0.007456177845597267,-0.9159331917762756,-0.8171241879463196,0.023039937019348145,0.24696385860443115,-0.11148601025342941,1.0195744037628174,-0.05432949587702751,0.0
88,-0.8721754550933838,-0.8093991875648499,-0.0019558256026357412,0.2587442100048065,-0.09961671382188797,1.0354523658752441,-0.05097418278455734,0.8399999737739563,-0.24091604351997375,-0.051682330667972565,0.15183104574680328,-0.11381528526544571,-0.050741877406835556,-0.10064494609832764,-0.016676247119903564,-0.0,0.2627381980419159,-0.270766943693161,-0.0897098034620285,0.8368088006973267,-0.5474182963371277,-0.009177095256745815,-0.5474820733070374,-0.8367873430252075,-0.0070972261019051075,-0.9273825287818909,-0.8191012740135193,0.033301059156656265,0.24541251361370087,-0.11211421340703964,1.014874815940857,-0.05572617053985596,0.0
89,-0.8884758949279785,-0.812049150466919,0.006490656174719334,0.2550760805606842,-0.10408059507608414,1.0304592847824097,-0.05208248272538185,0.8399999737739563,-0.23256245255470276,-0.038193389773368835,0.1754339337348938,-0.04325953498482704,-0.029496973380446434,-0.100624218583107,-0.02375711500644684,-0.0,0.2638435959815979,-0.2715810239315033,-0.08911141753196716,0.8332969546318054,-0.5527864694595337,-0.006582925096154213,-0.5528231859207153,-0.8332697153091431,-0.006934083066880703,-0.9367085099220276,-0.8211025595664978,0.04381696879863739,0.24129639565944672,-0.11210265755653381,1.0101732015609741,-0.05626322701573372,0.0
90,-0.902738094329834,-0.8143290281295776,0.014908376149833202,0.2515517473220825,-0.10733071714639664,1.0254565477371216,-0.053104497492313385,0.8399999737739563,-0.20899000763893127,-0.011823595501482487,0.2176947146654129,-0.06905636191368103,-0.011999169364571571,-0.07826747000217438,-0.017124757170677185,-0.0,0.26304730772972107,-0.27125614881515503,-0.08993946760892868,0.8348333835601807,-0.5504477024078369,-0.007782747037708759,-0.5504921078681946,-0.8348216414451599,-0.005588695872575045,-0.945176899433136,-0.825446367263794,0.05440438911318779,0.2381945550441742,-0.11071349680423737,1.0087811946868896,-0.05745735019445419,0.0
91,-0.9154816269874573,-0.8162848949432373,0.024513013660907745,0.24851064383983612,-0.10942268371582031,1.020547866821289,-0.054109252989292145,0.8410000205039978,-0.17124103009700775,-0.0815240666270256,0.1951717585325241,-0.06525053083896637,0.0029414668679237366,-0.11818935722112656,-0.020731866359710693,-0.0,0.2632852792739868,-0.27146053314208984,-0.0899084061384201,0.8322246074676514,-0.5543978810310364,-0.006722882855683565,-0.5544371604919434,-0.8321895003318787,-0.007749355863779783,-0.9530250430107117,-0.8274111747741699,0.06461860239505768,0.23469144105911255,-0.10940138250589371,1.0055527687072754,-0.05793420225381851,0.0
92,-0.925611674785614,-0.8181908130645752,0.03372456878423691,0.24553854763507843,-0.11046962440013885,1.0161625146865845,-0.05499129369854927,0.8399999737739563,-0.16088896989822388,-0.060761306434869766,0.22764679789543152,-0.043538887053728104,0.021231506019830704,-0.04411397874355316,-0.015878543257713318,-0.0,0.2641931474208832,-0.27200847864151,-0.08907201141119003,0.8323588371276855,-0.5542339086532593,-0.0018823548452928662,-0.5542299151420593,-0.83232581615448,-0.007933135144412518,-0.9610322713851929,-0.8286620378494263,0.07359044253826141,0.232761949300766,-0.10894615203142166,1.0000649690628052,-0.05863606557250023,0.0
93,-0.9344359040260315,-0.8206663131713867,0.04332728683948517,0.24276013672351837,-0.11072848737239838,1.012682318687439,-0.05584457144141197,0.8399999737739563,-0.18793976306915283,-0.04190908744931221,0.2212517112493515,-0.10326702892780304,0.016189144924283028,-0.08910730481147766,0.011245060712099075,-0.0,0.2636088728904724,-0.27180570363998413,-0.08964681625366211,0.8330885171890259,-0.553134560585022,-0.00238779722712934,-0.5531379580497742,-0.8330672979354858,-0.006105068605393171,-0.9678576588630676,-0.8317495584487915,0.0835534855723381,0.23087939620018005,-0.10842034220695496,0.9979650378227234,-0.05934540554881096,0.0
94,-0.9439657330513,-0.82353675365448,0.054381538182497025,0.23927991092205048,-0.11063645035028458,1.0088952779769897,-0.05650801584124565,0.8399999737739563,-0.12515224516391754,-0.049679841846227646,0.15442398190498352,-0.03572999686002731,0.011416183784604073,-0.08766911178827286,-0.05349311977624893,-0.0,0.26390165090560913,-0.27192822098731995,-0.08935181051492691,0.8334376811981201,-0.5526106357574463,-0.0017480168025940657,-0.5526084303855896,-0.8334125876426697,-0.006877279840409756,-0.9733904600143433,-0.8343219757080078,0.09371189773082733,0.22674034535884857,-0.10627996921539307,0.9949970245361328,-0.05969658121466637,0.0
95,-0.9520785808563232,-0.8258185386657715,0.06379442662000656,0.23644396662712097,-0.11014365404844284,1.005092978477478,-0.05728267878293991,0.8399999737739563,-0.10056279599666595,-0.02530401386320591,0.2215901017189026,-0.06406829506158829,0.03148726373910904,-0.05461147055029869,-0.010137058794498444,-0.0,0.2637220323085785,-0.27180391550064087,-0.08956009894609451,0.832952618598938,-0.553338885307312,-0.002457503927871585,-0.5533421635627747,-0.8329287767410278,-0.006489754654467106,-0.9808834195137024,-0.8370339870452881,0.1020420640707016,0.22501203417778015,-0.10498413443565369,0.9920578598976135,-0.06039764732122421,0.0
96,-0.9596123695373535,-0.8282020092010498,0.07394362986087799,0.2336348593235016,-0.10929996520280838,1.0015513896942139,-0.05815321207046509,0.8399999737739563,-0.1589498370885849,-0.08726544678211212,0.19550029933452606,-0.05363090708851814,0.03153162822127342,-0.036634135991334915,-0.013509060256183147,-0.0,0.2639729976654053,-0.2719203531742096,-0.0892992615699768,0.8324740529060364,-0.5540634989738464,-0.0007997708162292838,-0.5540539622306824,-0.8324492573738098,-0.007245517335832119,-0.9873678088188171,-0.8384772539138794,0.11190059036016464,0.22218042612075806,-0.10398537665605545,0.9879925847053528,-0.0606306791305542,0.0
97,-0.9668853282928467,-0.830861508846283,0.08439387381076813,0.23063209652900696,-0.10807853192090988,0.9984949231147766,-0.058876100927591324,0.8399999737739563,-0.1136850044131279,-0.03825721889734268,0.14310380816459656,-0.04757509380578995,0.020439017564058304,-0.07444171607494354,-0.007035864517092705,-0.0,0.26380789279937744,-0.2718513309955597,-0.08947575092315674,0.831953763961792,-0.5548426508903503,-0.0015977333532646298,-0.5548386573791504,-0.8319270610809326,-0.007172462996095419,-0.9929675459861755,-0.8412594199180603,0.12105787545442581,0.21951553225517273,-0.10268164426088333,0.9856081604957581,-0.06111456826329231,0.0
98,-0.9735255837440491,-0.833350419998169,0.09317207336425781,0.22811061143875122,-0.10688970237970352,0.9956033825874329,-0.05942833423614502,0.8399999737739563,-0.10317490994930267,-0.05144401267170906,0.21835385262966156,-0.059556957334280014,0.026929806917905807,-0.06427952647209167,-0.009442897513508797,-0.0,0.2639082670211792,-0.27186909317970276,-0.08939981460571289,0.8316733837127686,-0.5552598237991333,-0.0024310776498168707,-0.5552613139152527,-0.831643283367157,-0.007367797661572695,-0.9989612698554993,-0.843468964099884,0.1284637451171875,0.21752694249153137,-0.10083477944135666,0.983099639415741,-0.06151171773672104,0.0
99,-0.9801619648933411,-0.8358526825904846,0.10277287662029266,0.22540505230426788,-0.10562799870967865,0.9922784566879272,-0.05994221568107605,0.8399999737739563,-0.14290764927864075,-0.05252941697835922,0.17299124598503113,-0.05076869949698448,0.037363167852163315,-0.06068900600075722,-0.009389171376824379,-0.0,0.2640708088874817,-0.2718797028064728,-0.08927595615386963,0.8296927213668823,-0.5582089424133301,-0.003570923814550042,-0.5582186579704285,-0.8296573758125305,-0.0077806804329156876,-1.0043996572494507,-0.8451249003410339,0.13767176866531372,0.2148989737033844,-0.0999898612499237,0.9795200228691101,-0.06151954084634781,0.0
100,-0.9868865609169006,-0.8383741974830627,0.11254242062568665,0.2227109968662262,-0.10419947654008865,0.9890782237052917,-0.06042350456118584,0.8399999737739563,-0.09130167961120605,-0.03194543346762657,0.1251220703125,-0.043701063841581345,0.019004756584763527,-0.057914018630981445,-0.003101113485172391,-0.0,0.2645806670188904,-0.2720889151096344,-0.08880124241113663,0.8300560712814331,-0.5576748251914978,-0.002393279690295458,-0.5576683878898621,-0.8300036787986755,-0.009988319128751755,-1.0102412700653076,-0.846949577331543,0.14586129784584045,0.2128174602985382,-0.0986735075712204,0.9756650924682617,-0.061784472316503525,0.0
101,-0.9926562309265137,-0.8405371308326721,0.12054404616355896,0.2203812599182129,-0.10284765809774399,0.986272931098938,-0.0608069971203804,0.8399999737739563,-0.1184249296784401,-0.0405435636639595,0.20702552795410156,-0.02160741575062275,0.026958702132105827,-0.08308837562799454,-0.0048210881650447845,-0.0,0.26380860805511475,-0.27177461981773376,-0.0895468145608902,0.8302569389343262,-0.557367205619812,-0.003894119057804346,-0.5573781728744507,-0.8302112221717834,-0.008879383094608784,-1.014915108680725,-0.8501335978507996,0.15303906798362732,0.2097737193107605,-0.09644567966461182,0.9754064083099365,-0.06186576932668686,0.0
102,-1.0085444450378418,-0.8462454080581665,0.14342528581619263,0.21363559365272522,-0.09910666197538376,0.976815938949585,-0.06167753413319588,0.8399999737739563,-0.0156488548964262,-0.015647822991013527,0.0156488548964262,-0.01564142480492592,0.015203007496893406,-0.0026549475733190775,-0.0008072910131886601,-0.0,0.2636623680591583,-0.2717175781726837,-0.08969716727733612,0.8306687474250793,-0.5567498207092285,-0.004366940353065729,-0.5567667484283447,-0.8306357264518738,-0.0074236285872757435,-1.0285893678665161,-0.8553146719932556,0.17335179448127747,0.20378530025482178,-0.09307173639535904,0.9671781659126282,-0.06248981133103371,0.0
103,-1.0099767446517944,-0.8469222784042358,0.14537152647972107,0.21294721961021423,-0.09865797311067581,0.9761026501655579,-0.06174272671341896,0.8399999737739563,-0.10006377100944519,-0.062233757227659225,0.18841040134429932,-0.06561049818992615,0.04038213565945625,-0.033488281071186066,-0.005423714406788349,-0.0,0.26362287998199463,-0.27153080701828003,-0.09015505760908127,0.8279516696929932,-0.5607512593269348,-0.0073484559543430805,-0.5607964396476746,-0.827919065952301,-0.007573659531772137,-1.030303716659546,-0.8558682799339294,0.1752333641052246,0.20356906950473785,-0.09221791476011276,0.9669481515884399,-0.06245056167244911,0.0
104,-1.0124868154525757,-0.84833163022995,0.1495938003063202,0.21149185299873352,-0.09770115464925766,0.9752206206321716,-0.061838600784540176,0.8399999737739563,-0.21107295155525208,-0.04636853188276291,0.3105652332305908,-0.06876292079687119,0.0511050783097744,-0.08655497431755066,-0.004541873466223478,-0.0,0.2673277258872986,-0.2718196511268616,-0.0903831422328949,0.8056148290634155,-0.5923212170600891,-0.011843289248645306,-0.592435359954834,-0.8055239915847778,-0.012305889278650284,-1.0316483974456787,-0.8524165749549866,0.1792977750301361,0.20334258675575256,-0.09287570416927338,0.9600846171379089,-0.06136764958500862,0.0
105,-1.0174146890640259,-0.8502625226974487,0.1575033962726593,0.20930592715740204,-0.09630906581878662,0.9730998873710632,-0.061999667435884476,0.8399999737739563,-0.07295187562704086,-0.062093768268823624,0.0910576581954956,-0.03823840245604515,0.021050117909908295,-0.11307978630065918,0.010996539145708084,-0.0,0.2675229012966156,-0.27179640531539917,-0.09086918085813522,0.8027731776237488,-0.596190869808197,-0.010567975230515003,-0.5962808132171631,-0.8027046918869019,-0.010694571770727634,-1.035093903541565,-0.8537971377372742,0.18570080399513245,0.20070698857307434,-0.09180518239736557,0.9577662944793701,-0.06104028597474098,0.0
106,-1.024212121963501,-0.8528281450271606,0.16730937361717224,0.20649874210357666,-0.09453540295362473,0.9690846800804138,-0.062068697065114975,0.8399999737739563,-0.05019887164235115,0.06921827048063278,0.11991538107395172,-0.03731178492307663,0.014064092189073563,-0.0805727019906044,0.008990028873085976,-0.0,0.2673110067844391,-0.2717967629432678,-0.09073157608509064,0.8119909763336182,-0.5836520791053772,-0.004576192237436771,-0.5836686491966248,-0.8119472861289978,-0.00851244293153286,-1.041092872619629,-0.8576415181159973,0.194248229265213,0.1994093656539917,-0.08977269381284714,0.9550262689590454,-0.061779413372278214,0.0
107,-1.0284440517425537,-0.8532748818397522,0.1742122769355774,0.20464645326137543,-0.09352872520685196,0.9646840691566467,-0.06196323782205582,0.8399999737739563,-0.09219902753829956,-0.05765246972441673,0.11046183109283447,-0.02586502395570278,0.028431031852960587,-0.04478570073843002,-0.005647480953484774,-0.0,0.26426568627357483,-0.2709980905056,-0.090721495449543,0.8371167778968811,-0.5470184683799744,0.0025187244173139334,-0.547016978263855,-0.8371204733848572,-0.0013089615385979414,-1.0450729131698608,-0.862739622592926,0.20117196440696716,0.1965283751487732,-0.08602551370859146,0.9567131996154785,-0.06220626085996628,0.0
108,-1.032700777053833,-0.8538348078727722,0.18148909509181976,0.20255066454410553,-0.09246644377708435,0.9607589840888977,-0.061679448932409286,0.8399999737739563,-0.09452839195728302,-0.0736636221408844,0.14955656230449677,-0.03988942503929138,0.0443122535943985,-0.02895236760377884,-0.008069530129432678,-0.0,0.26426568627357483,-0.2709980905056,-0.090721495449543,0.8371167778968811,-0.5470184683799744,0.0025187244173139334,-0.547016978263855,-0.8371204733848572,-0.0013089615385979414,-1.049299955368042,-0.8636377453804016,0.2072899341583252,0.1950964331626892,-0.08476947247982025,0.9534671902656555,-0.06196783110499382,0.0
109,-1.036558747291565,-0.8555835485458374,0.18779568374156952,0.2010013312101364,-0.09111270308494568,0.9584925770759583,-0.06164493411779404,0.8399999737739563,-0.08375120908021927,-0.0774155780673027,0.1413687765598297,-0.03995439037680626,0.049932241439819336,-0.016107410192489624,-0.0003748727322090417,-0.0,0.26426568627357483,-0.2709980905056,-0.090721495449543,0.8371167778968811,-0.5470184683799744,0.0025187244173139334,-0.547016978263855,-0.8371204733848572,-0.0013089615385979414,-1.053040623664856,-0.8650680780410767,0.2125789225101471,0.1936490535736084,-0.08366132527589798,0.9515480399131775,-0.06180734187364578,0.0
110,-1.041028380393982,-0.8587358593940735,0.19515112042427063,0.1989668905735016,-0.08887501060962677,0.9569221138954163,-0.06165452301502228,0.8399999737739563,-0.07347378879785538,-0.025731399655342102,0.0902128741145134,-0.030031461268663406,0.024111825972795486,-0.03938979282975197,0.0017811490688472986,-0.0,0.26426568627357483,-0.2709980905056,-0.090721495449543,0.8371167778968811,-0.5470184683799744,0.0025187244173139334,-0.547016978263855,-0.8371204733848572,-0.0013089615385979414,-1.0567537546157837,-0.8676002025604248,0.219064861536026,0.19152125716209412,-0.08234516531229019,0.9500592350959778,-0.06164872646331787,0.0
111,-1.0455344915390015,-0.8613685369491577,0.2019428163766861,0.1970129907131195,-0.08685591071844101,0.9551101326942444,-0.06173889338970184,0.8399999737739563,-0.07164490222930908,-0.044407524168491364,0.1085231602191925,-0.03871753439307213,0.03900125250220299,-0.03070596046745777,0.0025620833039283752,-0.0,0.26426568627357483,-0.2709980905056,-0.090721495449543,0.8371167778968811,-0.5470184683799744,0.0025187244173139334,-0.547016978263855,-0.8371204733848572,-0.0013089615385979414,-1.0610566139221191,-0.869608461856842,0.22480297088623047,0.18978235125541687,-0.08052818477153778,0.9483197331428528,-0.0615813210606575,0.0
112,-1.0496799945831299,-0.8634509444236755,0.2081458568572998,0.19517412781715393,-0.08510333299636841,0.9533326029777527,-0.0617983341217041,0.8399999737739563,-0.07139157503843307,-0.04434378072619438,0.11705762147903442,-0.038321468979120255,0.03167867660522461,-0.011376578360795975,0.001946645905263722,-0.0,0.26426568627357483,-0.2709980905056,-0.090721495449543,0.8371167778968811,-0.5470184683799744,0.0025187244173139334,-0.547016978263855,-0.8371204733848572,-0.0013089615385979414,-1.0649935007095337,-0.8713153004646301,0.2301907241344452,0.18811380863189697,-0.07903699576854706,0.9465764760971069,-0.061546169221401215,0.0
113,-1.053185224533081,-0.8653530478477478,0.21373146772384644,0.1935270130634308,-0.08366522938013077,0.9519233107566833,-0.06180025264620781,0.8399999737739563,-0.09436581283807755,-0.04137693718075752,0.12077154219150543,-0.018465792760252953,0.04971601814031601,-0.0504109226167202,0.0013417205773293972,-0.0,0.23724417388439178,-0.25667768716812134,-0.09095846861600876,0.9159612655639648,-0.40126654505729675,-0.0002261007612105459,-0.4012577533721924,-0.9159446954727173,0.006120722275227308,-1.0510526895523071,-0.905487596988678,0.2465103268623352,0.17256803810596466,-0.05867121368646622,0.9981822371482849,-0.06537552177906036,0.0
114,-1.0574208498001099,-0.8675102591514587,0.2200131118297577,0.1917571872472763,-0.08199702203273773,0.9501323699951172,-0.06180025264620781,0.8399999737739563,-0.02372445911169052,-0.07221026718616486,0.07240328192710876,-0.08480316400527954,0.04304264858365059,-0.010766465216875076,-0.018935468047857285,-0.0,0.23402686417102814,-0.2524466812610626,-0.09478636085987091,0.8984715342521667,-0.4387982189655304,-0.014316590502858162,-0.4386844038963318,-0.8985801935195923,0.01047178078442812,-1.0479791164398193,-0.9090371131896973,0.255064457654953,0.1682438850402832,-0.054627589881420135,1.004489541053772,-0.06508088111877441,0.0
115,-1.0610065460205078,-0.8701563477516174,0.2258038967847824,0.1893603354692459,-0.07998751103878021,0.948893666267395,-0.061806004494428635,0.8399999737739563,0.1067872941493988,-0.23284035921096802,0.1535288542509079,-0.11510078608989716,0.15963582694530487,0.35694631934165955,-0.01703418791294098,-0.0,0.2371419221162796,-0.2472068965435028,-0.09348813444375992,0.8744021654129028,-0.48501813411712646,-0.013349260203540325,-0.48505985736846924,-0.8744809627532959,0.00012972542026545852,-1.0440584421157837,-0.9041911363601685,0.26202666759490967,0.16738250851631165,-0.04764164239168167,0.997343122959137,-0.06392471492290497,0.0
116,-1.061437964439392,-0.8753066658973694,0.23127636313438416,0.1861792504787445,-0.07627144455909729,0.9529203772544861,-0.062204837799072266,0.8399999737739563,0.08660726249217987,-0.1722637116909027,0.13226929306983948,-0.08986043930053711,0.18137001991271973,0.5461890697479248,-0.003602405544370413,-0.0,0.2378624677658081,-0.24464191496372223,-0.09265594184398651,0.8702454566955566,-0.4924335479736328,-0.013490852899849415,-0.49251872301101685,-0.8702938556671143,-0.0037281622644513845,-1.0431873798370361,-0.9063991904258728,0.26786506175994873,0.165715292096138,-0.044312261044979095,0.9961599707603455,-0.06387962400913239,0.0
117,-1.059288501739502,-0.8828845620155334,0.23789741098880768,0.18179398775100708,-0.06970024853944778,0.9669352173805237,-0.06277816742658615,0.8399999737739563,0.1150045171380043,-0.06387147307395935,0.16117717325687408,-0.0820944532752037,0.13278599083423615,0.2879001796245575,-0.0031268498860299587,-0.0,0.2375287115573883,-0.24074172973632812,-0.0890250876545906,0.8898910880088806,-0.4561719596385956,-0.0009578855824656785,-0.4561632573604584,-0.8898838758468628,0.004661372397094965,-1.035463809967041,-0.9133137464523315,0.27382901310920715,0.1639861762523651,-0.035501569509506226,1.0035426616668701,-0.06440848857164383,0.0
118,-1.0557756423950195,-0.8887079358100891,0.24420398473739624,0.17798203229904175,-0.06368512660264969,0.9822711944580078,-0.0631348118185997,0.8399999737739563,0.08926261216402054,-0.11402394622564316,0.16297519207000732,-0.05626200884580612,0.1284298598766327,-0.07396557927131653,-0.005007299594581127,-0.0,0.23614126443862915,-0.23937100172042847,-0.0879543200135231,0.8982914686203003,-0.4393810033798218,0.0040977331809699535,-0.4394000172615051,-0.8982460498809814,0.009038648568093777,-1.032018780708313,-0.918815553188324,0.27745604515075684,0.16103443503379822,-0.030542880296707153,1.012572169303894,-0.06380967050790787,0.0
119,-1.0510165691375732,-0.8940058946609497,0.2518681287765503,0.17399752140045166,-0.05699121952056885,0.9926734566688538,-0.06342627108097076,0.8399999737739563,0.11839751899242401,-0.09225067496299744,0.15018974244594574,-0.06255924701690674,0.15922535955905914,-0.08529790490865707,0.0003233636962249875,-0.0,0.23614126443862915,-0.23937100172042847,-0.0879543200135231,0.8982914686203003,-0.4393810033798218,0.0040977331809699535,-0.4394000172615051,-0.8982460498809814,0.009038648568093777,-1.0339794158935547,-0.9218804836273193,0.2801533341407776,0.16054685413837433,-0.028900809586048126,1.0138705968856812,-0.06385058909654617,0.0
120,-1.0465047359466553,-0.8987305760383606,0.2585313618183136,0.17102544009685516,-0.050822701305150986,0.9956091642379761,-0.0636180192232132,0.8399999737739563,0.07923343777656555,-0.15996696054935455,0.12102441489696503,-0.061171479523181915,0.13766303658485413,0.209952250123024,-7.01822864357382e-05,-0.0,0.22848398983478546,-0.23598088324069977,-0.08840332180261612,0.9306437373161316,-0.365901380777359,0.00428926944732666,-0.3659234344959259,-0.9305237531661987,0.015020753256976604,-1.0356826782226562,-0.934221625328064,0.28522148728370667,0.15653538703918457,-0.02323206141591072,1.0246964693069458,-0.06587135791778564,0.0
121,-1.0413850545883179,-0.9044504165649414,0.2658427059650421,0.16784626245498657,-0.04337906092405319,0.9995130896568298,-0.06372539699077606,0.8399999737739563,0.01305707823485136,-0.24072624742984772,0.11262082308530807,-0.0743296816945076,0.12686987221240997,0.21381255984306335,-0.014814299531280994,-0.0,0.22866645455360413,-0.23673534393310547,-0.08611351996660233,0.9431734085083008,-0.3320956528186798,0.01167538482695818,-0.33223098516464233,-0.9431132674217224,0.012643358670175076,-1.0381985902786255,-0.9380342960357666,0.2880001366138458,0.1557789146900177,-0.020218588411808014,1.0215322971343994,-0.06595689058303833,0.0
122,-1.0383381843566895,-0.9119266271591187,0.2717888057231903,0.16488951444625854,-0.03706289455294609,1.0059711933135986,-0.06394782662391663,0.8399999737739563,-0.028556102886795998,-0.20605617761611938,0.08426719903945923,-0.04943818971514702,0.07852708548307419,0.18165156245231628,-0.011640955694019794,-0.0,0.22866645455360413,-0.23673534393310547,-0.08611351996660233,0.9431734085083008,-0.3320956528186798,0.01167538482695818,-0.33223098516464233,-0.9431132674217224,0.012643358670175076,-1.0390915870666504,-0.9428520798683167,0.2911195755004883,0.1532888114452362,-0.018156256526708603,1.0226340293884277,-0.06557895243167877,0.0
123,-1.0368694067001343,-0.9219339489936829,0.2776179313659668,0.16166239976882935,-0.030704542994499207,1.0141932964324951,-0.06445979326963425,0.8399999737739563,-0.028003528714179993,-0.08845555782318115,0.09880036115646362,-0.053072866052389145,0.06035216897726059,-0.0679456889629364,-0.002248035278171301,-0.0,0.22866645455360413,-0.23673534393310547,-0.08611351996660233,0.9431734085083008,-0.3320956528186798,0.01167538482695818,-0.33223098516464233,-0.9431132674217224,0.012643358670175076,-1.0383727550506592,-0.9502521753311157,0.2943980097770691,0.1505836844444275,-0.01507905125617981,1.0268884897232056,-0.06572190672159195,0.0
124,-1.0367735624313354,-0.9299681782722473,0.28258803486824036,0.15888972580432892,-0.02594345062971115,1.0188336372375488,-0.06492190062999725,0.8399999737739563,-0.0042959474958479404,-0.14783447980880737,0.06556261330842972,-0.032868221402168274,0.08578881621360779,0.06312820315361023,-0.0027502840384840965,-0.0,0.22866645455360413,-0.23673534393310547,-0.08611351996660233,0.9431734085083008,-0.3320956528186798,0.01167538482695818,-0.33223098516464233,-0.9431132674217224,0.012643358670175076,-1.0414005517959595,-0.9548870921134949,0.29708343744277954,0.14798495173454285,-0.012621410191059113,1.0269845724105835,-0.06576815992593765,0.0
125,-1.0372068881988525,-0.9370494484901428,0.2870384752750397,0.15634332597255707,-0.02184963971376419,1.0212572813034058,-0.06522102653980255,0.8399999737739563,-0.03141352906823158,-0.13500161468982697,0.08907199651002884,-0.0763387531042099,0.06536136567592621,0.05573820322751999,-0.0020754707511514425,-0.0,0.21381908655166626,-0.2356867492198944,-0.08790133148431778,0.9524129629135132,-0.3047534227371216,0.005903205834329128,-0.30480721592903137,-0.9523149132728577,0.013742556795477867,-1.0479854345321655,-0.9722929000854492,0.3011166453361511,0.1376594603061676,-0.011805050075054169,1.0504878759384155,-0.06811462342739105,0.0
126,-1.0381368398666382,-0.9443262219429016,0.2910345196723938,0.15343259274959564,-0.01814507506787777,1.023788332939148,-0.06542811542749405,0.8399999737739563,-0.05143704637885094,-0.033138077706098557,0.031320929527282715,-0.06416141986846924,0.00859073456376791,0.03972991555929184,-0.01692125014960766,-0.0,0.21566900610923767,-0.23578809201717377,-0.08668564260005951,0.9442293643951416,-0.3292376697063446,0.005780682433396578,-0.32928821444511414,-0.9440649151802063,0.017626823857426643,-1.0481659173965454,-0.9743596911430359,0.30470097064971924,0.135320782661438,-0.010995639488101006,1.0469307899475098,-0.06766127794981003,0.0
127,-1.0400197505950928,-0.9501150846481323,0.2943306565284729,0.15010960400104523,-0.01534939557313919,1.0262600183486938,-0.06573491543531418,0.8399999737739563,-0.04513230919837952,-0.18377047777175903,0.0584351122379303,-0.05802159383893013,0.013667085207998753,0.2745109498500824,-0.01024057436734438,-0.0,0.21466292440891266,-0.23321184515953064,-0.08792802691459656,0.9231392741203308,-0.38446125388145447,-0.0018586617661640048,-0.3844228684902191,-0.9230977296829224,0.01047008391469717,-1.0485278367996216,-0.9762895107269287,0.3088437020778656,0.130183607339859,-0.008249610662460327,1.0479371547698975,-0.0665900707244873,0.0
128,-1.0422651767730713,-0.9557889103889465,0.2970534563064575,0.1466006338596344,-0.013625584542751312,1.032349944114685,-0.06620852649211884,0.8410000205039978,-0.03614676743745804,-0.19497907161712646,0.08326191455125809,-0.16065613925457,0.029490407556295395,0.1262892633676529,0.0027741859667003155,-0.0,0.21385683119297028,-0.2322387844324112,-0.088001549243927,0.9182978272438049,-0.3958827555179596,-0.0024462768342345953,-0.3958684504032135,-0.9182944893836975,0.00483067287132144,-1.0488102436065674,-0.9802744388580322,0.311798632144928,0.12801244854927063,-0.00695192813873291,1.0515468120574951,-0.06703467667102814,0.0
129,-1.044245958328247,-0.9624291062355042,0.2999795377254486,0.14248380064964294,-0.012352379970252514,1.0390207767486572,-0.06654408574104309,0.8399999737739563,-0.01910565420985222,-0.11284651607275009,0.09706779569387436,-0.10797659307718277,0.042152054607868195,0.026909317821264267,-0.0028624737169593573,-0.0,0.21385683119297028,-0.2322387844324112,-0.088001549243927,0.9182978272438049,-0.3958827555179596,-0.0024462768342345953,-0.3958684504032135,-0.9182944893836975,0.00483067287132144,-1.0494118928909302,-0.9857615828514099,0.3142961859703064,0.12438933551311493,-0.005659419111907482,1.0542330741882324,-0.06708279252052307,0.0
130,-1.0459773540496826,-0.9688929319381714,0.30380871891975403,0.13709186017513275,-0.010747453197836876,1.043728232383728,-0.06670515239238739,0.8399999737739563,-0.013248392380774021,-0.0855075791478157,0.05639132857322693,-0.04524090141057968,0.02949598804116249,0.058771707117557526,-0.0015950731467455626,-0.0,0.21385683119297028,-0.2322387844324112,-0.088001549243927,0.9182978272438049,-0.3958827555179596,-0.0024462768342345953,-0.3958684504032135,-0.9182944893836975,0.00483067287132144,-1.0516382455825806,-0.9909260272979736,0.3173421025276184,0.11970561742782593,-0.004736011847853661,1.0541884899139404,-0.06687230616807938,0.0
131,-1.0475190877914429,-0.9757843613624573,0.30826109647750854,0.13182072341442108,-0.0087130106985569,1.0482476949691772,-0.06683362275362015,0.8399999737739563,-0.02876121923327446,-0.09812871366739273,0.06088361516594887,-0.08123178035020828,0.021783359348773956,0.0355570949614048,0.002084089443087578,-0.0,0.21385683119297028,-0.2322387844324112,-0.088001549243927,0.9182978272438049,-0.3958827555179596,-0.0024462768342345953,-0.3958684504032135,-0.9182944893836975,0.00483067287132144,-1.0542501211166382,-0.9957743287086487,0.32068052887916565,0.1161738932132721,-0.004032094031572342,1.053707242012024,-0.06699992716312408,0.0
132,-1.0485813617706299,-0.9810382127761841,0.31135591864585876,0.12798385322093964,-0.007315170951187611,1.050935983657837,-0.06688923388719559,0.8399999737739563,-0.058983538299798965,-0.10852859169244766,0.08991274982690811,-0.08512219786643982,0.01832292042672634,-0.004922342021018267,-0.0007851099944673479,-0.0,0.21385683119297028,-0.2322387844324112,-0.088001549243927,0.9182978272438049,-0.3958827555179596,-0.0024462768342345953,-0.3958684504032135,-0.9182944893836975,0.00483067287132144,-1.0556343793869019,-0.9997663497924805,0.3231745958328247,0.11306221038103104,-0.00322116632014513,1.05342698097229,-0.06692013889551163,0.0
133,-1.0502744913101196,-0.9866641163825989,0.31480738520622253,0.1234566941857338,-0.006059224251657724,1.052573561668396,-0.06690840423107147,0.8399999737739563,-0.03762868791818619,-0.062390878796577454,0.045147404074668884,-0.05877326801419258,0.015746723860502243,0.01061698142439127,0.0007214127690531313,-0.0,0.21385683119297028,-0.2322387844324112,-0.088001549243927,0.9182978272438049,-0.3958827555179596,-0.0024462768342345953,-0.3958684504032135,-0.9182944893836975,0.00483067287132144,-1.0574042797088623,-1.004354476928711,0.32598549127578735,0.10929885506629944,-0.0025877305306494236,1.052268385887146,-0.06694527715444565,0.0
134,-1.0523300170898438,-0.9918317198753357,0.31815338134765625,0.11937054991722107,-0.005031457170844078,1.0533961057662964,-0.06691799312829971,0.8399999737739563,-0.03592138737440109,-0.0845772996544838,0.04042690619826317,-0.07378753274679184,0.014533299021422863,-0.03406296670436859,-2.7115665943711065e-05,-0.0,0.21385683119297028,-0.2322387844324112,-0.088001549243927,0.9182978272438049,-0.3958827555179596,-0.0024462768342345953,-0.3958684504032135,-0.9182944893836975,0.00483067287132144,-1.0591320991516113,-1.008405089378357,0.3289056718349457,0.10588649660348892,-0.0017581935971975327,1.0510101318359375,-0.0669243261218071,0.0
135,-1.0539923906326294,-0.9960827827453613,0.32078415155410767,0.11604180932044983,-0.004222282208502293,1.0535398721694946,-0.06692183017730713,0.8399999737739563,-0.0217721089720726,-0.08954538404941559,0.0836392492055893,-0.07012119144201279,0.018091334030032158,-0.008814879693090916,0.000263766385614872,-0.0,0.21385683119297028,-0.2322387844324112,-0.088001549243927,0.9182978272438049,-0.3958827555179596,-0.0024462768342345953,-0.3958684504032135,-0.9182944893836975,0.00483067287132144,-1.0610840320587158,-1.0118176937103271,0.3308006525039673,0.10315568745136261,-0.0008723447099328041,1.049646258354187,-0.0670691654086113,0.0
136,-1.0557430982589722,-1.0008879899978638,0.3238636255264282,0.11214933544397354,-0.003347913036122918,1.0531525611877441,-0.06692374497652054,0.8399999737739563,-0.04741707444190979,-0.07559888064861298,0.043674226850271225,-0.06656492501497269,0.030816303566098213,-0.033777616918087006,-0.0020058522932231426,-0.0,0.17460069060325623,-0.22607679665088654,-0.08726698905229568,0.9280278086662292,-0.372297465801239,-0.012608204036951065,-0.37226831912994385,-0.9281134009361267,0.004672535229474306,-1.0668275356292725,-1.0452146530151367,0.33945733308792114,0.07786799967288971,-0.0008643066976219416,1.1039327383041382,-0.07102733850479126,0.0
137,-1.0577526092529297,-1.005534052848816,0.3267800807952881,0.10840833932161331,-0.002375752665102482,1.0519579648971558,-0.06693333387374878,0.8399999737739563,0.0330447219312191,-0.0008165041217580438,0.03175301104784012,-0.012281426228582859,0.00026287120999768376,0.021193070337176323,-0.020706506446003914,-0.0,0.17344385385513306,-0.2257940024137497,-0.08767054975032806,0.9227765798568726,-0.38506951928138733,-0.014310861937701702,-0.3851347267627716,-0.9228581786155701,-0.0020096441730856895,-1.0679796934127808,-1.050039291381836,0.3420497477054596,0.07317234575748444,0.00022484268993139267,1.1037360429763794,-0.07130293548107147,0.0
138,-1.0589395761489868,-1.009238600730896,0.32949715852737427,0.1050853505730629,-0.0015800001565366983,1.0516953468322754,-0.06724013388156891,0.8399999737739563,0.13525478541851044,-0.2218673974275589,0.06364849209785461,-0.20416350662708282,0.007873889058828354,0.40495625138282776,-0.0055619534105062485,-0.0,0.1737719625234604,-0.22592154145240784,-0.08733699470758438,0.9227740168571472,-0.3848501443862915,-0.019452661275863647,-0.38493308424949646,-0.9229443073272705,-0.0005663020419888198,-1.0750725269317627,-1.0490728616714478,0.3414359390735626,0.07357355207204819,-0.0004526230040937662,1.0982723236083984,-0.07264307886362076,0.0
139,-1.057231068611145,-1.0138347148895264,0.3317655324935913,0.1007748693227768,-0.001173495315015316,1.0579615831375122,-0.06748173385858536,0.8399999737739563,-0.18309062719345093,-0.3592139780521393,0.044068966060876846,-0.2087305337190628,0.0006252736202441156,0.48836201429367065,0.03471851348876953,-0.0,0.17396458983421326,-0.22588570415973663,-0.08793173730373383,0.9152782559394836,-0.4024565517902374,-0.017158012837171555,-0.402445912361145,-0.9154340028762817,0.004220930859446526,-1.0774476528167725,-1.0502313375473022,0.34418755769729614,0.06978822499513626,-0.0036151548847556114,1.0967196226119995,-0.0711560770869255,0.0
140,-1.0570392608642578,-1.0240280628204346,0.33447107672691345,0.09321234375238419,-0.0008494418580085039,1.0729793310165405,-0.06701003015041351,0.8399999737739563,-0.21324019134044647,-0.11395575106143951,0.05308084934949875,-0.11728738248348236,-0.015167604200541973,0.16862991452217102,-0.055309001356363297,-0.0,0.17558661103248596,-0.22703711688518524,-0.08780133724212646,0.9080970287322998,-0.4186868369579315,-0.007815169170498848,-0.4186367690563202,-0.9081245064735413,0.0072907935827970505,-1.0743769407272339,-1.0568464994430542,0.3468065857887268,0.06385127454996109,-0.004694209434092045,1.1003819704055786,-0.07011768966913223,0.0
141,-1.061344027519226,-1.0335099697113037,0.3368085026741028,0.08653569221496582,-0.0008034224156290293,1.08595871925354,-0.06730148941278458,0.8399999737739563,-0.12488505244255066,-0.11096321046352386,0.05443081259727478,-0.12848693132400513,-0.026102468371391296,-0.10803227871656418,-0.014355164021253586,-0.0,0.17558661103248596,-0.22703711688518524,-0.08780133724212646,0.9080970287322998,-0.4186868369579315,-0.007815169170498848,-0.4186367690563202,-0.9081245064735413,0.0072907935827970505,-1.0762883424758911,-1.0642117261886597,0.34865590929985046,0.058814361691474915,-0.003916006535291672,1.1065276861190796,-0.06992674618959427,0.0
142,-1.0677062273025513,-1.041425347328186,0.3396003246307373,0.07927995920181274,-0.0013134710025042295,1.093018889427185,-0.06833692640066147,0.8399999737739563,0.0076734633184969425,-0.14449070394039154,0.07860676199197769,-0.1052592545747757,-0.007688804063946009,0.0865289568901062,-0.0019682454876601696,-0.0,0.1773095577955246,-0.2276100218296051,-0.08787033706903458,0.901775598526001,-0.43219295144081116,0.003161392407491803,-0.4322003722190857,-0.9017106890678406,0.010984000749886036,-1.0831046104431152,-1.0678811073303223,0.3498932123184204,0.05476567894220352,-0.0036752603482455015,1.1040136814117432,-0.0707760825753212,0.0
143,-1.0715450048446655,-1.0477529764175415,0.34230589866638184,0.07334920763969421,-0.002174417721107602,1.0961500406265259,-0.06902913749217987,0.8399999737739563,-0.04641406238079071,-0.16340333223342896,0.03249949961900711,-0.14588125050067902,-0.0011834207689389586,0.1305263191461563,-0.010666760616004467,-0.0,0.17720571160316467,-0.2275351732969284,-0.08847187459468842,0.9001249670982361,-0.43563100695610046,0.0008110730559565127,-0.43557876348495483,-0.8999848961830139,0.017271989956498146,-1.0869091749191284,-1.0721402168273926,0.35290902853012085,0.05044327676296234,-0.005185919813811779,1.1025981903076172,-0.07137978821992874,0.0
144,-1.0745055675506592,-1.055252194404602,0.3451571762561798,0.06669940054416656,-0.002868544077500701,1.1002956628799438,-0.06957370042800903,0.8399999737739563,-0.1270705759525299,-0.1163053810596466,0.06053515151143074,-0.12349537014961243,-0.023150799795985222,-0.044034190475940704,-0.014800338074564934,-0.0,0.17833533883094788,-0.22818763554096222,-0.0890095978975296,0.8962587118148804,-0.44352996349334717,0.0012018546694889665,-0.44349002838134766,-0.8961343765258789,0.01611560769379139,-1.0886951684951782,-1.0775939226150513,0.35597866773605347,0.044949501752853394,-0.006376434117555618,1.1013309955596924,-0.07130397856235504,0.0
145,-1.0786588191986084,-1.0618866682052612,0.34774768352508545,0.06047910824418068,-0.003485971363261342,1.1025160551071167,-0.07013168185949326,0.8399999737739563,-0.038187313824892044,-0.06484872847795486,0.04945547878742218,-0.06579867750406265,-0.020021313801407814,-0.023148484528064728,-0.0020758367609232664,-0.0,0.17833533883094788,-0.22818763554096222,-0.0890095978975296,0.8962587118148804,-0.44352996349334717,0.0012018546694889665,-0.44349002838134766,-0.8961343765258789,0.01611560769379139,-1.091789960861206,-1.0835778713226318,0.3580981492996216,0.03975187614560127,-0.005931408144533634,1.1007472276687622,-0.07191341370344162,0.0
146,-1.0825647115707397,-1.0671712160110474,0.35028260946273804,0.055351778864860535,-0.0042395396158099174,1.1028037071228027,-0.07058420777320862,0.8399999737739563,-0.05565202608704567,-0.14987511932849884,0.07229965925216675,-0.12451379001140594,-0.0029577165842056274,-0.018612219020724297,-0.009270287118852139,-0.0,0.1818968802690506,-0.2303398996591568,-0.08826369792222977,0.8859370350837708,-0.4638054668903351,0.00013042826321907341,-0.4637809097766876,-0.8858872056007385,0.010542348958551884,-1.0967717170715332,-1.0836986303329468,0.3593437373638153,0.03754608333110809,-0.0077009303495287895,1.0919588804244995,-0.07175349444150925,0.0
147,-1.0859414339065552,-1.0729179382324219,0.3531549870967865,0.04986012727022171,-0.004995024763047695,1.102475881576538,-0.07098688185214996,0.8399999737739563,-0.04183274134993553,-0.04255005717277527,0.01851271092891693,-0.05139512941241264,-0.01992640271782875,-0.04944555088877678,-0.0006718703079968691,-0.0,0.18152883648872375,-0.2299077957868576,-0.08959422260522842,0.8755276799201965,-0.4831584692001343,-0.0030200171750038862,-0.48311176896095276,-0.875504195690155,0.009768281131982803,-1.0981159210205078,-1.089059829711914,0.36296841502189636,0.03140294551849365,-0.008589803241193295,1.0915679931640625,-0.07179810851812363,0.0
148,-1.0886814594268799,-1.0778189897537231,0.35544827580451965,0.04507794231176376,-0.005554927978664637,1.1013100147247314,-0.0712955892086029,0.8399999737739563,-0.10025638341903687,-0.0322747528553009,0.04777981713414192,-0.060017507523298264,0.006510415580123663,-0.15174467861652374,-0.0008912316989153624,-0.0,0.18477123975753784,-0.23086990416049957,-0.08904813975095749,0.867355227470398,-0.4974178075790405,-0.016444416716694832,-0.49741703271865845,-0.8675002455711365,0.004428234416991472,-1.0996224880218506,-1.0903788805007935,0.36510056257247925,0.028466925024986267,-0.009494451805949211,1.0845539569854736,-0.07142670452594757,0.0
149,-1.091874122619629,-1.0815235376358032,0.3575517535209656,0.04096879065036774,-0.0060918210074305534,1.0977684259414673,-0.07150651514530182,0.8399999737739563,-0.027901869267225266,-0.06552355736494064,0.04176303371787071,-0.09806700795888901,-0.05959860980510712,-0.011044767685234547,0.0030844579450786114,-0.0,0.18477123975753784,-0.23086990416049957,-0.08904813975095749,0.867355227470398,-0.4974178075790405,-0.016444416716694832,-0.49741703271865845,-0.8675002455711365,0.004428234416991472,-1.1034669876098633,-1.0932574272155762,0.3664517402648926,0.025331512093544006,-0.009611058048903942,1.0800656080245972,-0.07222918421030045,0.0
150,-1.0945087671279907,-1.0845340490341187,0.35966289043426514,0.036830879747867584,-0.006910583470016718,1.0947637557983398,-0.07158896327018738,0.8399999737739563,-0.05871371552348137,-0.054655492305755615,0.04739142954349518,-0.0725121721625328,-0.011298608966171741,-0.17007341980934143,-0.0079548554494977,-0.0,0.18968980014324188,-0.23222513496875763,-0.0886373296380043,0.8494036793708801,-0.5273424983024597,-0.020572243258357048,-0.527544379234314,-0.8495087027549744,-0.005643943790346384,-1.1035882234573364,-1.0919725894927979,0.3686385750770569,0.02305411547422409,-0.010602688416838646,1.0704623460769653,-0.07108263671398163,0.0
151,-1.0971662998199463,-1.0874907970428467,0.3619581162929535,0.03280801326036453,-0.00792684592306614,1.0903420448303223,-0.07167908549308777,0.8399999737739563,-0.0563412606716156,-0.03888211399316788,0.03361080214381218,-0.05618985369801521,-0.013387368060648441,-0.10967188328504562,0.009539042599499226,-0.0,0.19466093182563782,-0.2322186827659607,-0.09044724702835083,0.8300442099571228,-0.5564456582069397,-0.037346597760915756,-0.5572609901428223,-0.830181896686554,-0.01606907695531845,-1.1043072938919067,-1.0911238193511963,0.370849609375,0.021094106137752533,-0.011388638988137245,1.0604954957962036,-0.07030613720417023,0.0
152,-1.10309898853302,-1.0918127298355103,0.36778149008750916,0.02417745441198349,-0.010231652297079563,1.073067545890808,-0.07137229293584824,0.8399999737739563,-0.006801016163080931,0.007999056950211525,0.01465037651360035,-0.014083217829465866,-0.007428562268614769,-0.015590596944093704,0.007341054733842611,-0.0,0.19466093182563782,-0.2322186827659607,-0.09044724702835083,0.8300442099571228,-0.5564456582069397,-0.037346597760915756,-0.5572609901428223,-0.830181896686554,-0.01606907695531845,-1.1087405681610107,-1.096396803855896,0.37665504217147827,0.012661904096603394,-0.012054660357534885,1.0470415353775024,-0.07091798633337021,0.0
153,-1.1034691333770752,-1.0918817520141602,0.36846986413002014,0.023375948891043663,-0.01051543839275837,1.0709620714187622,-0.07116904109716415,0.8399999737739563,-0.03660431504249573,-0.022623224183917046,0.05387991666793823,-0.05110293626785278,-0.010627198033034801,-0.22784850001335144,-0.0016018508467823267,-0.0,0.19466093182563782,-0.2322186827659607,-0.09044724702835083,0.8300442099571228,-0.5564456582069397,-0.037346597760915756,-0.5572609901428223,-0.830181896686554,-0.01606907695531845,-1.1075527667999268,-1.096832513809204,0.3778219223022461,0.011513983830809593,-0.011938909068703651,1.0464097261428833,-0.07066492736339569,0.0
