isri-aist/RoboManipBaselines/robo_manip_baselines/rollout_debug_log_expanded.csv
step_idx,obs_0,obs_1,obs_2,obs_3,obs_4,obs_5,obs_6,obs_7,obs_8,obs_9,obs_10,obs_11,obs_12,obs_13,obs_14,obs_15,obs_16,obs_17,obs_18,obs_19,obs_20,obs_21,obs_22,obs_23,obs_24,direct_joint_command_0,direct_joint_command_1,direct_joint_command_2,direct_joint_command_3,direct_joint_command_4,direct_joint_command_5,direct_joint_command_6,direct_joint_command_7
0,-1.7257283616345376e-05,-0.523614764213562,3.834952167380834e-06,0.7854058146476746,-9.58738019107841e-06,1.3089956045150757,5.7524280236975756e-06,0.4790000021457672,0.0,0.0,0.0,0.0,0.0,0.0,0.0,-0.0,0.3998880982398987,-0.005875216796994209,-0.0851459726691246,0.8258521556854248,0.5615375638008118,0.051417965441942215,0.5620561838150024,-0.8270832300186157,0.0051150028593838215,0.037691809237003326,-0.4236147701740265,-0.03455263748764992,0.7112317085266113,0.01990901120007038,1.2138015031814575,-0.011531396768987179,377.05364990234375
1,-1.7257283616345376e-05,-0.523614764213562,3.834952167380834e-06,0.7854058146476746,-9.58738019107841e-06,1.3089936971664429,0.0,0.29899999499320984,0.02401897870004177,0.02401897870004177,-0.02401897870004177,-0.02401897870004177,0.02401897870004177,-0.02401897870004177,-0.023891888558864594,-0.0,0.3998880982398987,-0.005875216796994209,-0.0851459726691246,0.8258521556854248,0.5615375638008118,0.051417965441942215,0.5620561838150024,-0.8270832300186157,0.0051150028593838215,0.040076784789562225,-0.4236147701740265,-0.032734889537096024,0.7111362218856812,0.019180389121174812,1.2112493515014648,-0.011439457535743713,557.8670043945312
2,0.016453862190246582,-0.4790372848510742,-0.015138473361730576,0.7521011829376221,0.00869000144302845,1.2658830881118774,-0.005083228927105665,0.421999990940094,0.21040968596935272,0.3478245735168457,-0.13863398134708405,-0.3354315757751465,0.06465056538581848,-0.36605867743492126,-0.040999140590429306,-0.0,0.4004356265068054,-0.006668303161859512,-0.08437006920576096,0.8267982006072998,0.5599877834320068,0.05308808386325836,0.5604988932609558,-0.8281325697898865,0.006114928983151913,0.05207688361406326,-0.3790372908115387,-0.05712326988577843,0.6974102854728699,0.028329836204648018,1.1658830642700195,-0.02021840587258339,432.9183044433594
3,0.02793954312801361,-0.44725126028060913,-0.024367284029722214,0.7293369174003601,0.013823084533214569,1.2360855340957642,-0.008051482029259205,0.3790000081062317,0.003140521701425314,0.0013143111718818545,-0.03932159021496773,-0.005206226371228695,0.037547625601291656,-0.003140521701425314,-0.044597577303647995,-0.0,0.400236576795578,-0.006383048836141825,-0.08466728031635284,0.8268999457359314,0.5596885085105896,0.0546378530561924,0.5602936744689941,-0.8282791376113892,0.004969228059053421,0.06014775484800339,-0.35054340958595276,-0.06488964706659317,0.6747956275939941,0.03273311257362366,1.1360855102539062,-0.021540727466344833,476.167236328125
4,0.03448580577969551,-0.43402451276779175,-0.0293201245367527,0.7193219661712646,0.01716332696378231,1.2226171493530273,-0.010176044888794422,0.4059999883174896,0.10495668649673462,0.2749679684638977,-0.14435523748397827,-0.12671221792697906,0.057755183428525925,-0.1987166553735733,-0.04309897497296333,-0.0,0.4003828763961792,-0.006508907303214073,-0.08447849750518799,0.8260197043418884,0.5609786510467529,0.05472085624933243,0.561566948890686,-0.8274136185646057,0.005409671925008297,0.06507715582847595,-0.344896137714386,-0.07457874715328217,0.6741291284561157,0.03584666550159454,1.1226171255111694,-0.025711681693792343,448.3230285644531
5,0.03914719074964523,-0.4239002466201782,-0.03452415391802788,0.7123768329620361,0.020354008302092552,1.2127498388290405,-0.012386894784867764,0.37400001287460327,0.12791740894317627,0.524309515953064,-0.04096931219100952,-0.1927182525396347,0.07114993035793304,-0.5961672067642212,-0.06464504450559616,-0.0,0.40045100450515747,-0.006581396795809269,-0.08444467186927795,0.8258755207061768,0.5612467527389526,0.054145004600286484,0.5617162585258484,-0.8272954225540161,0.007557077333331108,0.06765398383140564,-0.34150201082229614,-0.08612258732318878,0.6740595102310181,0.03869002312421799,1.1127498149871826,-0.02957569807767868,478.9684753417969
6,0.04417864605784416,-0.40793725848197937,-0.03905706852674484,0.7041297554969788,0.023579202592372894,1.1965222358703613,-0.014768400229513645,0.3919999897480011,0.15956509113311768,0.4003821909427643,-0.3481725752353668,-0.15886139869689941,0.08477622270584106,-0.6678948998451233,-0.08875662088394165,-0.0,0.40040072798728943,-0.006759663112461567,-0.08432992547750473,0.8260550498962402,0.561656653881073,0.04663467779755592,0.5618209838867188,-0.827189028263092,0.01074623130261898,0.0751740038394928,-0.3252599537372589,-0.08657415956258774,0.6660580039024353,0.04235883802175522,1.0965222120285034,-0.03225971758365631,460.41217041015625
7,0.05035867169499397,-0.3883943557739258,-0.0468381866812706,0.6954972743988037,0.027139954268932343,1.1724368333816528,-0.01783636212348938,0.36399999260902405,0.14166221022605896,0.39404499530792236,-0.42610830068588257,-0.12768569588661194,0.11442787945270538,-0.46377065777778625,-0.08516238629817963,-0.0,0.4003876745700836,-0.006729275919497013,-0.08430308103561401,0.8281806707382202,0.5580475926399231,0.05195767804980278,0.5583140254020691,-0.8295620679855347,0.010589632205665112,0.08103868365287781,-0.31144487857818604,-0.09284043312072754,0.6623082160949707,0.0466543510556221,1.072436809539795,-0.03583826124668121,488.6734619140625
8,0.057299934327602386,-0.36879390478134155,-0.06085685268044472,0.6876490712165833,0.03134689852595329,1.1464474201202393,-0.02156585268676281,0.3799999952316284,0.12020830810070038,0.35026976466178894,-0.09065524488687515,-0.22443164885044098,0.07300453633069992,-0.41127392649650574,-0.07325762510299683,-0.0,0.4002859890460968,-0.006469702813774347,-0.08454505354166031,0.8236002922058105,0.5651159286499023,0.04823341965675354,0.5653579831123352,-0.8247876763343811,0.009778402745723724,0.08348502218723297,-0.3017016649246216,-0.1116359680891037,0.6622109413146973,0.05221996828913689,1.0464473962783813,-0.03984959423542023,472.1346435546875
9,0.06409163773059845,-0.3493717908859253,-0.07369435578584671,0.6791681051254272,0.03582228720188141,1.1223561763763428,-0.02546599879860878,0.35199999809265137,0.10247691720724106,0.2336743175983429,-0.0793229192495346,-0.04689721018075943,0.08044253289699554,-0.4175042510032654,-0.06919044256210327,-0.0,0.4008752405643463,-0.007249537389725447,-0.0838702917098999,0.8258044123649597,0.5615965723991394,0.051539815962314606,0.5618739724159241,-0.8271585702896118,0.010310580022633076,0.08895817399024963,-0.28440845012664795,-0.1230936348438263,0.6519470810890198,0.05655799061059952,1.0223561525344849,-0.04346716031432152,499.5718688964844
10,0.07096386700868607,-0.33166006207466125,-0.08293850719928741,0.671448290348053,0.0404760017991066,1.0974233150482178,-0.029577067121863365,0.36899998784065247,0.08317657560110092,0.19343258440494537,-0.31138941645622253,-0.04495931789278984,0.09766072034835815,-0.45015692710876465,-0.05335710942745209,-0.0,0.400522917509079,-0.00678614666685462,-0.08444878458976746,0.8261509537696838,0.5609650015830994,0.052847154438495636,0.5612523555755615,-0.8275763392448425,0.010638177394866943,0.09867341816425323,-0.2705758810043335,-0.127691850066185,0.6465250253677368,0.06260643154382706,0.9974232912063599,-0.04832304269075394,482.0862121582031
11,0.0755830705165863,-0.32013604044914246,-0.09190654009580612,0.667308509349823,0.04446243494749069,1.0771344900131226,-0.032518476247787476,0.34200000762939453,0.12127234041690826,0.3138079345226288,-0.20194242894649506,-0.12309487909078598,0.09326663613319397,-0.5172519087791443,-0.07278623431921005,-0.0,0.4000309407711029,-0.006008923519402742,-0.08495766669511795,0.8256649971008301,0.561791718006134,0.051646217703819275,0.5622156262397766,-0.8269585371017456,0.0072941104881465435,0.10184287279844284,-0.26729610562324524,-0.13946504890918732,0.6487785577774048,0.06778854876756668,0.9771344661712646,-0.05216134339570999,508.48480224609375
12,0.08055700361728668,-0.3067980706691742,-0.10297805070877075,0.6622923612594604,0.049261875450611115,1.053290605545044,-0.03534099832177162,0.3569999933242798,0.1261812001466751,0.27506497502326965,-0.19012543559074402,-0.09226154536008835,0.12383721768856049,-0.5104626417160034,-0.10866381973028183,-0.0,0.4003305435180664,-0.006623402237892151,-0.08446215093135834,0.826414942741394,0.5609343647956848,0.04889795184135437,0.5611233115196228,-0.8276582360267639,0.01106939371675253,0.10594811290502548,-0.2579299509525299,-0.1496795117855072,0.6451746225357056,0.07357820868492126,0.953290581703186,-0.05495760217308998,493.0006408691406
13,0.08651843667030334,-0.2929424047470093,-0.11318477243185043,0.6572167873382568,0.05452726408839226,1.0282963514328003,-0.039419472217559814,0.3330000042915344,0.0942365899682045,0.14953301846981049,-0.2145565003156662,-0.051130447536706924,0.09557387232780457,-0.4346688985824585,-0.08217711746692657,-0.0,0.40026721358299255,-0.006561385467648506,-0.08454529941082001,0.8266397714614868,0.5605641007423401,0.04934093728661537,0.5607293248176575,-0.8279160261154175,0.011731423437595367,0.1128469929099083,-0.24535492062568665,-0.1561497002840042,0.6389756202697754,0.07941088080406189,0.9282963275909424,-0.058783747255802155,517.0834350585938
14,0.09237632155418396,-0.2812994718551636,-0.12370213121175766,0.6533358693122864,0.06010520085692406,1.003842830657959,-0.04386226460337639,0.34599998593330383,0.11205180734395981,0.19392386078834534,-0.17082612216472626,-0.07813888788223267,0.12278271466493607,-0.4472120702266693,-0.07350572198629379,-0.0,0.40059274435043335,-0.006865181960165501,-0.08414048701524734,0.8258645534515381,0.5612986087799072,0.05377329885959625,0.5617073774337769,-0.8272911310195923,0.008613325655460358,0.11751160770654678,-0.240267813205719,-0.16741731762886047,0.6391252279281616,0.08601446449756622,0.9038428068161011,-0.06372304260730743,503.7079772949219
15,0.09768389910459518,-0.27087607979774475,-0.13384366035461426,0.6500320434570312,0.06566588580608368,0.9802405834197998,-0.048063453286886215,0.3230000138282776,0.10731346905231476,0.16433930397033691,-0.1789672076702118,-0.05803632736206055,0.10693483799695969,-0.5004998445510864,-0.08828236162662506,-0.0,0.40038326382637024,-0.006648976821452379,-0.08452987670898438,0.8256334662437439,0.5614699721336365,0.055504996329545975,0.5619850158691406,-0.827114999294281,0.007324937265366316,0.12371337413787842,-0.23192188143730164,-0.17541302740573883,0.6351063251495361,0.0921805128455162,0.8802405595779419,-0.06781013309955597,526.3534545898438
16,0.10312377661466599,-0.2612311840057373,-0.14317026734352112,0.6465862989425659,0.07139913737773895,0.956176221370697,-0.052191779017448425,0.335999995470047,0.13794156908988953,0.17694272100925446,-0.18528248369693756,-0.06284470856189728,0.1371043473482132,-0.4993635416030884,-0.08800655603408813,-0.0,0.400581032037735,-0.0068887462839484215,-0.08422677963972092,0.8255013823509216,0.562004804611206,0.05194263905286789,0.5624197125434875,-0.8268166184425354,0.007636188995093107,0.1286466419696808,-0.2270641326904297,-0.18432170152664185,0.6334883570671082,0.09879133850336075,0.8573430776596069,-0.0721120536327362,513.09619140625
17,0.10832780599594116,-0.2532103657722473,-0.15166084468364716,0.6438423991203308,0.07682942599058151,0.9338433742523193,-0.05598454549908638,0.3140000104904175,0.10211213678121567,0.13590440154075623,-0.15632744133472443,-0.049597591161727905,0.11328063905239105,-0.4743315875530243,-0.057573456317186356,-0.0,0.40053093433380127,-0.006875107996165752,-0.08421534299850464,0.8270995020866394,0.5593703985214233,0.05487428605556488,0.5598611235618591,-0.8285531997680664,0.00742182694375515,0.13436979055404663,-0.22106385231018066,-0.19064760208129883,0.6299422383308411,0.10458819568157196,0.8386029601097107,-0.07579967379570007,535.229736328125
18,0.1145385131239891,-0.2445146143436432,-0.1606806516647339,0.6407859325408936,0.08323188126087189,0.9090580940246582,-0.059911537915468216,0.32499998807907104,0.12326070666313171,0.13502435386180878,-0.22308166325092316,-0.06544613838195801,0.1422814279794693,-0.45348113775253296,-0.10826771706342697,-0.0,0.4003976583480835,-0.006687278859317303,-0.0843285322189331,0.8262860178947449,0.5611253380775452,0.04888506978750229,0.561352550983429,-0.8275133371353149,0.010247193276882172,0.14151938259601593,-0.2160901129245758,-0.19718047976493835,0.6280032992362976,0.11202273517847061,0.8176432251930237,-0.07949823141098022,524.0660400390625
19,0.12049035727977753,-0.23698852956295013,-0.16978482902050018,0.6379749178886414,0.0897359549999237,0.8848576545715332,-0.06377141922712326,0.30399999022483826,0.11254173517227173,0.09870690107345581,-0.13428020477294922,-0.049483466893434525,0.11851441860198975,-0.3885144293308258,-0.08938691020011902,-0.0,0.40021952986717224,-0.006401582155376673,-0.08470605313777924,0.8253090381622314,0.5622289180755615,0.05257027968764305,0.5627261400222778,-0.8266199827194214,0.006214566994458437,0.14629465341567993,-0.21144729852676392,-0.2058171182870865,0.6247071027755737,0.11871448904275894,0.7975295782089233,-0.08312197029590607,545.2129516601562
20,0.12660327553749084,-0.22993987798690796,-0.1785496175289154,0.6350277662277222,0.09640302509069443,0.862164318561554,-0.06814709305763245,0.3160000145435333,0.1045859158039093,0.11763561517000198,-0.11181601881980896,-0.05845705047249794,0.14874456822872162,-0.39651796221733093,-0.07984433323144913,-0.0,0.40032777190208435,-0.006531829014420509,-0.08448312431573868,0.8267061710357666,0.560046374797821,0.053897928446531296,0.5606293678283691,-0.8280515074729919,0.005037546157836914,0.15209811925888062,-0.20905867218971252,-0.2139539122581482,0.6231186985969543,0.12601783871650696,0.7781231999397278,-0.08750875294208527,533.1421508789062
21,0.13247458636760712,-0.2239113450050354,-0.18611980974674225,0.632310688495636,0.10309309512376785,0.8407480120658875,-0.07249592989683151,0.29499998688697815,0.1346997767686844,0.06387525051832199,-0.2030920386314392,-0.04564435034990311,0.1251962035894394,-0.3946850895881653,-0.0506027489900589,-0.0,0.40018224716186523,-0.006301069166511297,-0.08471876382827759,0.82573401927948,0.5617770552635193,0.05069362372159958,0.5622798204421997,-0.8269314169883728,0.00508003868162632,0.160211980342865,-0.2034575194120407,-0.21795965731143951,0.6184192299842834,0.13262201845645905,0.7611106038093567,-0.09169308841228485,554.3665771484375
22,0.13834205269813538,-0.21857117116451263,-0.19401788711547852,0.6295150518417358,0.11003243923187256,0.8199338316917419,-0.07637307047843933,0.3050000071525574,0.13226979970932007,0.08132924139499664,-0.14230726659297943,-0.07141774892807007,0.1554916501045227,-0.380262166261673,-0.1392454206943512,-0.0,0.4003037214279175,-0.0064538707956671715,-0.08456287533044815,0.8261609673500061,0.560836911201477,0.05403650179505348,0.5614050030708313,-0.8275232315063477,0.005452780984342098,0.164724200963974,-0.2015283703804016,-0.22623781859874725,0.6178296208381653,0.13998860120773315,0.7430248260498047,-0.0949915423989296,544.1728515625
23,0.1447809487581253,-0.21423384547233582,-0.20202335715293884,0.6267653703689575,0.11713860929012299,0.7996373176574707,-0.08061260730028152,0.28600001335144043,0.12704917788505554,0.07827005535364151,-0.10165397822856903,-0.06199100241065025,0.12810197472572327,-0.3403051495552063,-0.08572002500295639,-0.0,0.40014374256134033,-0.006322913803160191,-0.08472733944654465,0.8272580504417419,0.5598468780517578,0.0470694862306118,0.5601082444190979,-0.8283739686012268,0.008679489605128765,0.17071807384490967,-0.20023638010025024,-0.23342788219451904,0.6147006154060364,0.14690351486206055,0.7263568043708801,-0.09931435436010361,563.4825439453125
24,0.15089385211467743,-0.21053503453731537,-0.20827624201774597,0.62410968542099,0.12363117933273315,0.782232403755188,-0.08489816635847092,0.2939999997615814,0.11118939518928528,0.04434536024928093,-0.1855434775352478,-0.05349045619368553,0.15472349524497986,-0.3697742223739624,-0.08185119926929474,-0.0,0.4006847143173218,-0.007052350789308548,-0.08403421938419342,0.8290255665779114,0.5563742518424988,0.05625201016664505,0.5569500923156738,-0.8305219411849976,0.006313067860901356,0.17871910333633423,-0.19642192125320435,-0.23678851127624512,0.6112653017044067,0.1530558466911316,0.7122761011123657,-0.1032252237200737,555.704345703125
25,0.1569933444261551,-0.20698769390583038,-0.21531912684440613,0.6213715076446533,0.13082362711429596,0.763462245464325,-0.08923932909965515,0.2770000100135803,0.14641796052455902,0.06689630448818207,-0.1390247493982315,-0.06866421550512314,0.12934936583042145,-0.3408840000629425,-0.05657211318612099,-0.0,0.40068578720092773,-0.007036409340798855,-0.08406728506088257,0.8291589617729187,0.5560291409492493,0.057680584490299225,0.5566639304161072,-0.8307168483734131,0.0058922069147229195,0.18343546986579895,-0.19611668586730957,-0.2446771115064621,0.6100181937217712,0.15988421440124512,0.6956407427787781,-0.10770247876644135,572.8603515625
26,0.1630794107913971,-0.20395617187023163,-0.22279536724090576,0.6186583042144775,0.13815414905548096,0.7450602054595947,-0.09316632151603699,0.2849999964237213,0.13996043801307678,0.04053420200943947,-0.08210460096597672,-0.04294547438621521,0.1201060563325882,-0.27498534321784973,-0.12379232794046402,-0.0,0.400478333234787,-0.00670261587947607,-0.08436090499162674,0.8268803358078003,0.5596907734870911,0.05491073429584503,0.5602623224258423,-0.8282948136329651,0.0058100782334804535,0.18800584971904755,-0.1942017525434494,-0.25189009308815,0.6062833666801453,0.16698139905929565,0.6816901564598083,-0.11082413792610168,564.8386840820312
27,0.17049813270568848,-0.20082110166549683,-0.2297884076833725,0.6154580116271973,0.14571475982666016,0.7264664769172668,-0.09787947684526443,0.2669999897480011,0.11765660345554352,0.033516786992549896,-0.16242259740829468,-0.05927590653300285,0.1506221741437912,-0.28734487295150757,-0.07133221626281738,-0.0,0.4005184471607208,-0.006799986120313406,-0.08421624451875687,0.8254128098487854,0.5622919797897339,0.05021330714225769,0.562764585018158,-0.8265988230705261,0.0055115423165261745,0.19811508059501648,-0.1925659477710724,-0.25532031059265137,0.6033787131309509,0.17425993084907532,0.6659835577011108,-0.11543445289134979,583.3782958984375
28,0.1766570657491684,-0.19868502020835876,-0.23632316291332245,0.6129173636436462,0.15255630016326904,0.7107259035110474,-0.10207491368055344,0.2750000059604645,0.10247436910867691,0.03129059821367264,-0.1257375031709671,-0.05613615736365318,0.12195213884115219,-0.2687540054321289,-0.04383590817451477,-0.0,0.4004803001880646,-0.006699369288980961,-0.08424258977174759,0.824325442314148,0.5639419555664062,0.049568627029657364,0.5643283128738403,-0.8255193829536438,0.007157702464610338,0.20357900857925415,-0.19254709780216217,-0.2616731524467468,0.6007812023162842,0.1807582974433899,0.653193473815918,-0.11952798813581467,575.5457763671875
29,0.18312855064868927,-0.19659113883972168,-0.24371503293514252,0.6098819971084595,0.1601763516664505,0.6941761374473572,-0.10605176538228989,0.25699999928474426,0.15180844068527222,0.01812303066253662,-0.08986745029687881,-0.05604330077767372,0.13751214742660522,-0.2670667767524719,-0.12278344482183456,-0.0,0.4007469117641449,-0.00709478510543704,-0.08390167355537415,0.8266676664352417,0.5598888993263245,0.05608023330569267,0.5604838132858276,-0.828143835067749,0.005968625657260418,0.20823031663894653,-0.19010040163993835,-0.2700326442718506,0.5982782244682312,0.18745610117912292,0.639011025428772,-0.12290026992559433,593.4547119140625
30,0.1897304207086563,-0.19506482779979706,-0.24939076602458954,0.6071323156356812,0.1670447587966919,0.6796378493309021,-0.11001709848642349,0.2630000114440918,0.09978435188531876,0.03239438682794571,-0.10506313294172287,-0.04930293187499046,0.1123451441526413,-0.2432882934808731,-0.0701315626502037,-0.0,0.4012293517589569,-0.00780139584094286,-0.08320225030183792,0.8281598091125488,0.5577523708343506,0.05534962937235832,0.5581476092338562,-0.8296874761581421,0.009481033310294151,0.21542465686798096,-0.19046816229820251,-0.2740575075149536,0.5960507392883301,0.1936432421207428,0.62669837474823,-0.12685155868530273,587.91845703125
31,0.196063831448555,-0.19381463527679443,-0.2550703287124634,0.604371190071106,0.17381152510643005,0.6657361388206482,-0.11416652053594589,0.24699999392032623,0.12282206118106842,0.01252625323832035,-0.16475261747837067,-0.021496625617146492,0.14249640703201294,-0.26974326372146606,-0.04629276320338249,-0.0,0.4002585709095001,-0.006427957210689783,-0.08458972722291946,0.8260601162910461,0.56138014793396,0.049769457429647446,0.5618393421173096,-0.827227771282196,0.005548886489123106,0.22308823466300964,-0.19010499119758606,-0.27766478061676025,0.5909261703491211,0.20005697011947632,0.6169140338897705,-0.1307872235774994,604.0211791992188
32,0.20174148678779602,-0.19250692427158356,-0.26156866550445557,0.602026104927063,0.18049968779087067,0.6520645618438721,-0.11785190552473068,0.25200000405311584,0.178285151720047,0.010034892708063126,-0.08851153403520584,-0.1098109632730484,0.12301674485206604,-0.23572249710559845,-0.11313070356845856,-0.0,0.4008274972438812,-0.007292720954865217,-0.08378498256206512,0.8255053758621216,0.5621948838233948,0.04977717250585556,0.5625728368759155,-0.8267146944999695,0.007390664890408516,0.2258017361164093,-0.18979284167289734,-0.2867027819156647,0.5927122831344604,0.20623880624771118,0.603206217288971,-0.13412225246429443,599.0504760742188
33,0.20938070118427277,-0.19154243171215057,-0.26808616518974304,0.5989121198654175,0.18796825408935547,0.6374974846839905,-0.12236564606428146,0.23600000143051147,0.06613419950008392,0.0056183598935604095,-0.10948732495307922,-0.07788936048746109,0.08083648979663849,-0.13649769127368927,-0.06601428985595703,-0.0,0.40069013833999634,-0.007041269913315773,-0.08396731317043304,0.8272300958633423,0.5595064163208008,0.051409851759672165,0.5600497722625732,-0.8284467458724976,0.0044975075870752335,0.23583021759986877,-0.19053912162780762,-0.2884054183959961,0.5887529253959656,0.2130386233329773,0.5921810269355774,-0.13823345303535461,615.900390625
34,0.21677832305431366,-0.1908080279827118,-0.2737484574317932,0.5949122905731201,0.19477912783622742,0.6252198815345764,-0.12681227922439575,0.23800000548362732,0.06631869077682495,-0.0038621474523097277,-0.0816720724105835,-0.008222151547670364,0.10625302791595459,-0.2069159597158432,-0.06626976281404495,-0.0,0.4008423089981079,-0.00721603911370039,-0.08376812934875488,0.8265156745910645,0.5603472590446472,0.0536913201212883,0.5608380436897278,-0.8278970718383789,0.006861674599349499,0.24105310440063477,-0.18870225548744202,-0.2959551215171814,0.582859218120575,0.21837007999420166,0.582375168800354,-0.14237776398658752,613.6581420898438
35,0.222068652510643,-0.19049164652824402,-0.27935516834259033,0.5927320718765259,0.200673446059227,0.613828182220459,-0.13052259385585785,0.2240000069141388,0.16114504635334015,0.017770251259207726,-0.09521020948886871,-0.06472714245319366,0.15242499113082886,-0.23594169318675995,-0.05213730409741402,-0.0,0.40102913975715637,-0.007482582237571478,-0.08354277908802032,0.8253210783004761,0.5622129440307617,0.05255186930298805,0.5626802444458008,-0.8266463279724121,0.006838670931756496,0.2450752705335617,-0.18955174088478088,-0.3030700087547302,0.5836093425750732,0.22379319369792938,0.5709159970283508,-0.14625605940818787,627.721435546875
36,0.22867052257061005,-0.19023855030536652,-0.2845591902732849,0.5902547240257263,0.20730216801166534,0.6016733050346375,-0.13425783812999725,0.2240000069141388,0.09310390800237656,-0.001202249201014638,-0.11983104050159454,-0.08243471384048462,0.08257700502872467,-0.1628476083278656,-0.09079904109239578,-0.0,0.4007795751094818,-0.007122618146240711,-0.08389787375926971,0.8257203698158264,0.561448335647583,0.05442061647772789,0.5619670152664185,-0.827132523059845,0.00669949222356081,0.25344863533973694,-0.18976324796676636,-0.3046609163284302,0.5812552571296692,0.22984611988067627,0.5615869760513306,-0.1492956578731537,628.195556640625
37,0.2347642481327057,-0.18985696136951447,-0.2902694344520569,0.5870276093482971,0.21306993067264557,0.5911348462104797,-0.1381637305021286,0.21199999749660492,0.09484028071165085,-0.003655632957816124,-0.08404270559549332,-0.017916355282068253,0.11020965874195099,-0.1874230057001114,-0.03572939708828926,-0.0,0.40033334493637085,-0.006541875656694174,-0.08448509126901627,0.825717568397522,0.562125027179718,0.04696791246533394,0.5625222325325012,-0.8267636299133301,0.005536689423024654,0.257978618144989,-0.19026026129722595,-0.3112625479698181,0.5757368803024292,0.23475849628448486,0.5539373755455017,-0.15325766801834106,640.1698608398438
38,0.24012552201747894,-0.1896345466375351,-0.29585695266723633,0.5847688317298889,0.2184254378080368,0.5810182094573975,-0.1415960192680359,0.20999999344348907,0.15832816064357758,-0.007689421996474266,-0.08486539125442505,-0.054767902940511703,0.14763227105140686,-0.20385503768920898,-0.10202048718929291,-0.0,0.4011721909046173,-0.007752962876111269,-0.0832519456744194,0.8270097374916077,0.5597521662712097,0.052271898835897446,0.559999942779541,-0.8284175395965576,0.011155372485518456,0.2616581618785858,-0.18845969438552856,-0.31813591718673706,0.576026439666748,0.23913860321044922,0.5437808036804199,-0.15626487135887146,642.1337280273438
39,0.24556155502796173,-0.18962879478931427,-0.30019429326057434,0.5828820466995239,0.2235892117023468,0.5718603730201721,-0.14481353759765625,0.20100000500679016,0.09163658320903778,0.015391185879707336,-0.1309797316789627,-0.07941785454750061,0.07988952100276947,-0.17371751368045807,-0.07403527945280075,-0.0,0.4009312093257904,-0.007341765332967043,-0.0836525410413742,0.8258075714111328,0.5614569783210754,0.05298972874879837,0.5618940591812134,-0.8271737098693848,0.007663538213819265,0.26989805698394775,-0.1904047131538391,-0.31868433952331543,0.575190544128418,0.24397385120391846,0.5359916687011719,-0.1593298316001892,651.63037109375
40,0.25217875838279724,-0.1896096169948578,-0.3063839077949524,0.5795168280601501,0.22975772619247437,0.5610247254371643,-0.14914511144161224,0.1979999989271164,0.10200102627277374,-0.008789176121354103,-0.09387321770191193,-0.010431683622300625,0.1071862280368805,-0.14846168458461761,-0.05819365754723549,-0.0,0.4010106921195984,-0.007482204120606184,-0.08346476405858994,0.8267879486083984,0.5602236390113831,0.05070623382925987,0.5605320334434509,-0.828080952167511,0.00925767794251442,0.2740747928619385,-0.18951718509197235,-0.32602131366729736,0.5697863698005676,0.24885834753513336,0.5279555320739746,-0.16342264413833618,654.65771484375
41,0.25735020637512207,-0.18950414657592773,-0.31201934814453125,0.5775802135467529,0.23481985926628113,0.5517709851264954,-0.15269628167152405,0.19099999964237213,0.11973066627979279,0.001894867978990078,-0.03990645706653595,-0.041264601051807404,0.08615948259830475,-0.13059446215629578,-0.07346146553754807,-0.0,0.40103229880332947,-0.0075448243878781796,-0.08347516506910324,0.8256886005401611,0.5620251893997192,0.048641521483659744,0.5622491836547852,-0.8269043564796448,0.010245811194181442,0.27752426266670227,-0.19031299650669098,-0.3326805531978607,0.5696212649345398,0.25339484214782715,0.5193153619766235,-0.1667816936969757,661.7205810546875
42,0.2638101875782013,-0.18950414657592773,-0.3165503442287445,0.5757336616516113,0.2402769923210144,0.5426706075668335,-0.15634523332118988,0.18799999356269836,0.0738753154873848,-0.00800925213843584,-0.13957801461219788,-0.057107508182525635,0.08061252534389496,-0.1663300096988678,-0.07102762162685394,-0.0,0.4013785719871521,-0.00796197634190321,-0.08295562118291855,0.827349841594696,0.5592327117919922,0.0524493083357811,0.5595128536224365,-0.8287544250488281,0.010557104833424091,0.28717684745788574,-0.18940989673137665,-0.33336371183395386,0.5679519772529602,0.25793588161468506,0.5117184519767761,-0.17008182406425476,665.11376953125
43,0.268532931804657,-0.18950414657592773,-0.32091453671455383,0.5734614729881287,0.24457214772701263,0.5353056192398071,-0.15949948132038116,0.18000000715255737,0.10470864921808243,0.006183956284075975,-0.10874468088150024,-0.024368802085518837,0.07487471401691437,-0.14244751632213593,-0.06161809340119362,-0.0,0.4009299874305725,-0.0072890231385827065,-0.08363543450832367,0.8270045518875122,0.559800386428833,0.051835399121046066,0.560261607170105,-0.8282899856567383,0.00652349041774869,0.2898009419441223,-0.19067153334617615,-0.33894795179367065,0.5651370882987976,0.2615932822227478,0.5060274600982666,-0.17320950329303741,672.9821166992188
44,0.2733074426651001,-0.18955783545970917,-0.32640618085861206,0.5714825987815857,0.24903219938278198,0.5271026492118835,-0.16288958489894867,0.1770000010728836,0.15152199566364288,-0.011844191700220108,-0.040310852229595184,-0.049117155373096466,0.10316824913024902,-0.1291002631187439,-0.044925592839717865,-0.0,0.40116801857948303,-0.007767189759761095,-0.08328481018543243,0.8262978792190552,0.5608986020088196,0.05123097449541092,0.5611887574195862,-0.8276287317276001,0.00989027414470911,0.291570246219635,-0.19061440229415894,-0.3469303250312805,0.5646830797195435,0.2654581665992737,0.4979837238788605,-0.17659321427345276,676.0797119140625
45,0.27939924597740173,-0.18968631327152252,-0.33050957322120667,0.569703221321106,0.2534423768520355,0.5194807052612305,-0.16610710322856903,0.16899999976158142,0.0445641353726387,-0.00408321525901556,-0.14214126765727997,-0.027257438749074936,0.0720948576927185,-0.14908501505851746,-0.07945521175861359,-0.0,0.4008845090866089,-0.007359567563980818,-0.08366381376981735,0.826592743396759,0.5601768493652344,0.05427955090999603,0.5607359409332275,-0.8279747366905212,0.005747769959270954,0.30239903926849365,-0.19020536541938782,-0.34507572650909424,0.5614963173866272,0.269133061170578,0.4931516647338867,-0.17911937832832336,684.3828735351562
46,0.28420060873031616,-0.1899144947528839,-0.33468392491340637,0.5679486989974976,0.2573578655719757,0.5128557682037354,-0.16929012537002563,0.16599999368190765,0.07250002026557922,0.0022269226610660553,-0.11171581596136093,-0.03964948654174805,0.05937027931213379,-0.11387687921524048,-0.04703192785382271,-0.0,0.40077659487724304,-0.007120509631931782,-0.08388635516166687,0.8260139226913452,0.5608626008033752,0.055983662605285645,0.5614393353462219,-0.8274937868118286,0.006315996404737234,0.3053036332130432,-0.19174933433532715,-0.3504541516304016,0.5610396862030029,0.27260103821754456,0.4868166446685791,-0.18238088488578796,687.5137329101562
47,0.28830209374427795,-0.19015417993068695,-0.34037116169929504,0.5661884546279907,0.26119092106819153,0.5055348873138428,-0.17263612151145935,0.15600000321865082,0.1759972721338272,-0.016693374142050743,0.014182878658175468,-0.028213895857334137,0.08084151148796082,-0.10382790863513947,-0.06813214719295502,-0.0,0.4009895920753479,-0.007471115328371525,-0.08351335674524307,0.8269670009613037,0.5597527027130127,0.05293821543455124,0.5600471496582031,-0.8283942937850952,0.010492908768355846,0.3034813702106476,-0.19080333411693573,-0.36147356033325195,0.559288740158081,0.2754595875740051,0.4801354706287384,-0.18575972318649292,697.139892578125
48,0.29392221570014954,-0.19033633172512054,-0.34383028745651245,0.5644742250442505,0.26488012075424194,0.49933376908302307,-0.17570215463638306,0.15199999511241913,0.048514723777770996,0.0029826313257217407,-0.1482391357421875,0.0001952329184859991,0.05904131755232811,-0.12200357764959335,-0.06183641031384468,-0.0,0.40110185742378235,-0.007599730044603348,-0.08336132764816284,0.8278514742851257,0.5585322380065918,0.05199623107910156,0.5587985515594482,-0.829235315322876,0.010624632239341736,0.3157219886779785,-0.19085943698883057,-0.35722047090530396,0.5565909147262573,0.2784813940525055,0.4761561155319214,-0.18830253183841705,701.6725463867188
49,0.2992911636829376,-0.19068148732185364,-0.3476268947124481,0.5631665587425232,0.26850417256355286,0.4930175840854645,-0.1788966804742813,0.14300000667572021,0.018146758899092674,0.0013322236482053995,-0.15245315432548523,-0.07484406232833862,0.047888532280921936,-0.08844303339719772,-0.04448625072836876,-0.0,0.4009108543395996,-0.007313788402825594,-0.08369344472885132,0.8264749050140381,0.5604060888290405,0.05370517820119858,0.560936689376831,-0.8278366327285767,0.006043682806193829,0.32194897532463074,-0.1926286220550537,-0.35941076278686523,0.5583662986755371,0.2820305824279785,0.4693734347820282,-0.19122453033924103,711.2598266601562
50,0.3023552894592285,-0.19087514281272888,-0.3537091314792633,0.5616689920425415,0.27162966132164,0.487150102853775,-0.18181315064430237,0.14000000059604645,0.22519966959953308,-0.01873745582997799,0.06907369196414948,-0.014474388211965561,0.07394278049468994,-0.09747456759214401,-0.0657447949051857,-0.0,0.4012395441532135,-0.007862558588385582,-0.0831669345498085,0.8273590803146362,0.5591741800308228,0.05292618274688721,0.5594545006752014,-0.8287913203239441,0.010750859044492245,0.31350284814834595,-0.19072473049163818,-0.3767244815826416,0.5552613735198975,0.28371649980545044,0.46407315135002136,-0.19462800025939941,713.1307373046875
51,0.3072870373725891,-0.19100169837474823,-0.3570781350135803,0.559795618057251,0.27468034625053406,0.4819173216819763,-0.184681698679924,0.1289999932050705,0.10108179599046707,0.005051777698099613,-0.07664891332387924,-0.019796080887317657,0.05160297825932503,-0.14586250483989716,-0.052605099976062775,-0.0,0.40130680799484253,-0.007930274121463299,-0.08308740705251694,0.8268528580665588,0.5599493384361267,0.05264094099402428,0.5602421164512634,-0.828263521194458,0.010405919514596462,0.32524266839027405,-0.19110560417175293,-0.3727778196334839,0.5538382530212402,0.28635120391845703,0.4597940444946289,-0.19709062576293945,724.620361328125
52,0.31466931104660034,-0.19121070206165314,-0.37278610467910767,0.5561447143554688,0.282417356967926,0.4666139483451843,-0.1929747760295868,0.125,0.03360064700245857,-0.0033101008739322424,0.03024819865822792,-0.013432055711746216,0.02237185277044773,-0.027293240651488304,-0.02144625037908554,-0.0,0.4013407528400421,-0.007826619781553745,-0.08308801800012589,0.8263543844223022,0.5605136156082153,0.05443255975842476,0.5610378384590149,-0.8277641534805298,0.00655907578766346,0.33454984426498413,-0.19346389174461365,-0.38369303941726685,0.5511419177055359,0.294364869594574,0.44794484972953796,-0.20488445460796356,729.1109619140625
53,0.3144564628601074,-0.1910649836063385,-0.3747764229774475,0.5555023550987244,0.2832898199558258,0.46491506695747375,-0.19407157599925995,0.11400000005960464,0.18985532224178314,-0.017879903316497803,0.02595856413245201,-0.02786538563668728,0.04253114014863968,-0.06277790665626526,-0.04057072848081589,-0.0,0.4010864198207855,-0.007590754423290491,-0.08338950574398041,0.8281876444816589,0.5579118132591248,0.053287941962480545,0.5582789182662964,-0.8296032547950745,0.00911585334688425,0.331794798374176,-0.19316089153289795,-0.38848090171813965,0.5506673455238342,0.2949604094028473,0.44625598192214966,-0.20640140771865845,739.595458984375
54,0.3171946406364441,-0.19105538725852966,-0.3753018081188202,0.5547948479652405,0.28470298647880554,0.4626486003398895,-0.19556529819965363,0.11100000143051147,0.15417806804180145,-0.015004601329565048,-0.19035954773426056,-0.03254521265625954,0.09201781451702118,-0.21154513955116272,-0.10350964963436127,-0.0,0.4011892080307007,-0.007715333718806505,-0.08321709930896759,0.8272316455841064,0.5593538284301758,0.05301942303776741,0.5596275925636292,-0.8286721706390381,0.010925733484327793,0.3411874771118164,-0.19058053195476532,-0.38285207748413086,0.5491110682487488,0.2957364022731781,0.4451106786727905,-0.20745742321014404,742.5626831054688
55,0.32259616255760193,-0.19131042063236237,-0.377474308013916,0.5537478923797607,0.28735294938087463,0.45818471908569336,-0.198232501745224,0.10199999809265137,0.01196608692407608,0.01197749748826027,-0.11065775901079178,-0.023444466292858124,0.05655911564826965,-0.04855695366859436,-0.07267631590366364,-0.0,0.40126994252204895,-0.007729883771389723,-0.08314121514558792,0.827030599117279,0.5590581297874451,0.05894412472844124,0.5595921277999878,-0.8287238478660583,0.00856750924140215,0.34606796503067017,-0.1927315890789032,-0.3835354745388031,0.5500561594963074,0.2980845272541046,0.44052955508232117,-0.2094723880290985,752.5055541992188
56,0.3275394141674042,-0.1917821168899536,-0.3821472227573395,0.5525341033935547,0.2906375825405121,0.4528177082538605,-0.2018277645111084,0.09799999743700027,0.1973862200975418,-0.005919171497225761,0.08027500659227371,-0.005312225315719843,0.04310547560453415,-0.055550362914800644,-0.041286762803792953,-0.0,0.4008631408214569,-0.007261672988533974,-0.08373187482357025,0.8277063369750977,0.5586183667182922,0.053364336490631104,0.5589808821678162,-0.8291287422180176,0.009266689419746399,0.3399544060230255,-0.19337895512580872,-0.3990604281425476,0.5477052330970764,0.30019450187683105,0.43551063537597656,-0.2137349545955658,755.6015014648438
57,0.3334164619445801,-0.19188565015792847,-0.38441941142082214,0.5513299703598022,0.2934984564781189,0.4483250677585602,-0.20487847924232483,0.08699999749660492,0.07933352142572403,-0.008083241060376167,0.014226867817342281,-0.017637576907873154,0.033841997385025024,-0.07720813900232315,-0.04367729276418686,-0.0,0.40137767791748047,-0.008047772571444511,-0.08300349116325378,0.8268065452575684,0.5600250363349915,0.05256319046020508,0.5602130889892578,-0.8282546401023865,0.01247117854654789,0.34902405738830566,-0.19180603325366974,-0.3976143002510071,0.5473483204841614,0.30202460289001465,0.4308767318725586,-0.21620070934295654,767.1786499023438
58,0.3395715653896332,-0.19216561317443848,-0.3846648633480072,0.550568699836731,0.2956728935241699,0.44433096051216125,-0.20727723836898804,0.08399999886751175,-0.037809357047080994,0.00881678145378828,-0.22454139590263367,-0.017263416200876236,0.03421758860349655,-0.07788875699043274,-0.0538884662091732,-0.0,0.401045560836792,-0.007561862468719482,-0.0834294781088829,0.8262482285499573,0.5610047578811646,0.050867918878793716,0.5612611174583435,-0.8275728821754456,0.010444746352732182,0.36281129717826843,-0.1922779381275177,-0.3892301321029663,0.546363890171051,0.3036098778247833,0.4285673499107361,-0.21789118647575378,771.03271484375
59,0.34219852089881897,-0.19243021309375763,-0.38836750388145447,0.5496924519538879,0.297490656375885,0.4407011866569519,-0.20970860123634338,0.07199999690055847,0.12947115302085876,0.0006735773640684783,-0.01784260757267475,0.01333000510931015,0.03265765309333801,-0.06371992826461792,-0.042614731937646866,-0.0,0.40114614367485046,-0.007598496042191982,-0.08327987790107727,0.8275188207626343,0.5590724945068359,0.05148351937532425,0.5593832731246948,-0.8288545608520508,0.00950953271239996,0.35475704073905945,-0.19197459518909454,-0.40341871976852417,0.5448204278945923,0.3044060170650482,0.4246271252632141,-0.22089700400829315,782.0662841796875
60,0.34499993920326233,-0.19246089458465576,-0.3932110369205475,0.5491843223571777,0.29925471544265747,0.43700045347213745,-0.21208243072032928,0.06800000369548798,0.2321845293045044,0.0023882403038442135,0.1338476687669754,-0.03129224479198456,0.018863406032323837,-0.05418609455227852,-0.039967406541109085,-0.0,0.4013415575027466,-0.007954186759889126,-0.08304603397846222,0.8274767398834229,0.5590553879737854,0.05233835428953171,0.5593540072441101,-0.8288669586181641,0.010128236375749111,0.35143032670021057,-0.19253303110599518,-0.41404789686203003,0.5468140840530396,0.30590134859085083,0.41941702365875244,-0.22355197370052338,785.784423828125
61,0.3515423834323883,-0.19246089458465576,-0.393652081489563,0.5490309000015259,0.3008040487766266,0.433673620223999,-0.21435272693634033,0.05900000035762787,-0.07139412313699722,-0.0027471366338431835,-0.17887330055236816,-0.012225346639752388,0.028123049065470695,-0.08314415067434311,-0.05604171007871628,-0.0,0.4010780155658722,-0.007634467910975218,-0.08342573046684265,0.8265246152877808,0.5605210065841675,0.05170263350009918,0.5608170628547668,-0.8278798460960388,0.009959178976714611,0.37263089418411255,-0.19109757244586945,-0.3987009525299072,0.5443985462188721,0.3070361018180847,0.4193993806838989,-0.22451508045196533,790.0
62,0.35671764612197876,-0.19246089458465576,-0.39449766278266907,0.5482926964759827,0.30213093757629395,0.4303985834121704,-0.21663835644721985,0.057999998331069946,-0.09291305392980576,0.007792356424033642,-0.2771187424659729,-0.01868464983999729,0.018156247213482857,-0.06717630475759506,-0.03100346401333809,-0.0,0.4009639620780945,-0.007441238965839148,-0.08355508744716644,0.8273195028305054,0.5592503547668457,0.05273949354887009,0.5595797896385193,-0.8287199139595032,0.009681839495897293,0.3792843818664551,-0.19190552830696106,-0.39738309383392334,0.5444012880325317,0.307816743850708,0.41624411940574646,-0.2266433984041214,790.0
63,0.3571586608886719,-0.19243405759334564,-0.4012836217880249,0.5476464629173279,0.3033907115459442,0.4267726242542267,-0.21883386373519897,0.054999999701976776,0.2181805670261383,0.00048770374269224703,0.07667525112628937,-0.018076544627547264,0.024960137903690338,-0.05290517956018448,-0.045438945293426514,-0.0,0.40122973918914795,-0.007851486094295979,-0.08317292481660843,0.8255261778831482,0.5620743036270142,0.050783250480890274,0.562342643737793,-0.8268414735794067,0.01019569206982851,0.3629534840583801,-0.19165319204330444,-0.4209068715572357,0.5448141694068909,0.3085312247276306,0.41108351945877075,-0.22984498739242554,790.0
64,0.3583187460899353,-0.1923055797815323,-0.40647998452186584,0.5469446778297424,0.30446258187294006,0.42409583926200867,-0.22069765627384186,0.054999999701976776,0.2689618170261383,0.0015164706856012344,0.23652496933937073,-0.0040883212350308895,0.01263926550745964,-0.04955950379371643,-0.0338076651096344,-0.0,0.4011520743370056,-0.007640972267836332,-0.08331736922264099,0.8265969753265381,0.5603046417236328,0.0528784841299057,0.5606727004051208,-0.8279886841773987,0.008992735296487808,0.360093355178833,-0.19220532476902008,-0.4296707510948181,0.5439157485961914,0.30972373485565186,0.4087368845939636,-0.23198166489601135,790.0
65,0.36517179012298584,-0.19218286871910095,-0.40537360310554504,0.5462217926979065,0.3055133521556854,0.42133083939552307,-0.2226630598306656,0.054999999701976776,-0.07075274735689163,-0.002186217112466693,-0.04832227900624275,-0.009606332518160343,0.019427021965384483,-0.06109168753027916,-0.04542425274848938,-0.0,0.4014044404029846,-0.007978282868862152,-0.08293402940034866,0.8275853395462036,0.5588834285736084,0.05245739221572876,0.5591574311256409,-0.8289927840232849,0.010671696625649929,0.3803986608982086,-0.1909794807434082,-0.4141867160797119,0.5428792238235474,0.31045466661453247,0.4077441692352295,-0.23252108693122864,790.0
66,0.37102967500686646,-0.1920812427997589,-0.4026392698287964,0.5456695556640625,0.30641457438468933,0.41862720251083374,-0.2246265560388565,0.054999999701976776,-0.11840596050024033,0.005105434451252222,-0.36645373702049255,-0.010333127342164516,0.013671769760549068,-0.03741772100329399,-0.025588752701878548,-0.0,0.40101945400238037,-0.0075089153833687305,-0.08348873257637024,0.8272828459739685,0.5592308640480042,0.053515832871198654,0.5595805644989014,-0.828720211982727,0.009614063426852226,0.39327895641326904,-0.1913391500711441,-0.4036555886268616,0.5425097346305847,0.3104517459869385,0.4057850241661072,-0.2340375781059265,790.0
67,0.3714112639427185,-0.19196811318397522,-0.4082900881767273,0.5451326966285706,0.3073484003543854,0.4157087802886963,-0.22675304114818573,0.054999999701976776,0.11326555162668228,0.002188333310186863,-0.2092856466770172,-0.011066142469644547,0.011594702489674091,-0.041317280381917953,-0.03054756484925747,-0.0,0.40103647112846375,-0.007521511055529118,-0.08346656709909439,0.826324462890625,0.5606080293655396,0.05391190946102142,0.5609351396560669,-0.8277958631515503,0.0102864820510149,0.3843160569667816,-0.191805899143219,-0.4185580015182495,0.5424496531486511,0.31124347448349,0.4025871455669403,-0.2370181381702423,790.0
68,0.3716183602809906,-0.19184155762195587,-0.4170548617839813,0.5446456074714661,0.3080252707004547,0.41362833976745605,-0.22820840775966644,0.05400000140070915,0.14073017239570618,-0.0010805103229358792,0.19515445828437805,-0.007756957318633795,0.012314141727983952,-0.04649753496050835,-0.038096703588962555,-0.0,0.4013233482837677,-0.007975379936397076,-0.08306584507226944,0.8260850310325623,0.5613865256309509,0.049281176179647446,0.5615835189819336,-0.8273460865020752,0.011063813231885433,0.3754737377166748,-0.19160081446170807,-0.43590593338012695,0.5422578454017639,0.312436044216156,0.3999635875225067,-0.2386903166770935,790.0
69,0.374797523021698,-0.1917782723903656,-0.42102211713790894,0.5441240668296814,0.30868294835090637,0.4114443361759186,-0.22984784841537476,0.05400000140070915,-0.015420784242451191,0.0003387971082702279,0.206486776471138,-0.006803545635193586,0.016056742519140244,-0.015664201229810715,-0.03760267421603203,-0.0,0.40115705132484436,-0.007709495257586241,-0.08331266790628433,0.8273856043815613,0.5592560172080994,0.05163097754120827,0.5595974326133728,-0.8287163376808167,0.008942097425460815,0.3827129304409027,-0.19234022498130798,-0.43467459082603455,0.5417249798774719,0.3136705160140991,0.39905908703804016,-0.2397501915693283,790.0
70,0.37786930799484253,-0.1917591094970703,-0.41821685433387756,0.5437463521957397,0.30928120017051697,0.4098969101905823,-0.23146043717861176,0.05400000140070915,-0.0078001790679991245,-0.005267654079943895,-0.14181536436080933,-0.010811730287969112,0.025951530784368515,0.06829827278852463,-0.04589894413948059,-0.0,0.4012494683265686,-0.0077500720508396626,-0.08315935730934143,0.8262939453125,0.5607194304466248,0.05321681126952171,0.5610305070877075,-0.8277308940887451,0.010310251265764236,0.3928910791873932,-0.19216734170913696,-0.4238179326057434,0.5424360632896423,0.31359267234802246,0.3979755640029907,-0.24087640643119812,790.0
71,0.3793151080608368,-0.1917552649974823,-0.4162917137145996,0.5433359742164612,0.31013065576553345,0.4097473621368408,-0.23337791860103607,0.05400000140070915,0.05849676579236984,-0.0019121163059026003,-0.25808367133140564,-0.0009614847949706018,0.014068974182009697,-0.17766909301280975,-0.03460623696446419,-0.0,0.4013126492500305,-0.007871544919908047,-0.0830354169011116,0.8278962969779968,0.5580942034721375,0.05584422126412392,0.5584084391593933,-0.8294896483421326,0.011265387758612633,0.39493632316589355,-0.190126433968544,-0.42343470454216003,0.5397117137908936,0.31310582160949707,0.39772841334342957,-0.2434554398059845,790.0
72,0.38050201535224915,-0.1917552649974823,-0.4198850691318512,0.5429237484931946,0.3109992742538452,0.40809834003448486,-0.23517076671123505,0.05400000140070915,0.14877170324325562,0.02072226256132126,0.030164968222379684,-0.028195703402161598,0.008117103017866611,-0.09040278941392899,-0.06273696571588516,-0.0,0.40142402052879333,-0.008112568408250809,-0.0829247310757637,0.8277609348297119,0.5584619641304016,0.054148443043231964,0.558752179145813,-0.8292612433433533,0.011037345975637436,0.3856528103351593,-0.1916971206665039,-0.4365461468696594,0.5423316955566406,0.3141557574272156,0.39422494173049927,-0.24524345993995667,790.0
73,0.3838096559047699,-0.19172458350658417,-0.42448315024375916,0.5424827337265015,0.3118045926094055,0.4040256142616272,-0.23738352954387665,0.05400000140070915,0.09698620438575745,-0.0010794545523822308,0.11987538635730743,-0.0076372972689569,0.010131340473890305,-0.03307374566793442,-0.04503622651100159,-0.0,0.40118440985679626,-0.0077752782963216305,-0.08327772468328476,0.8261384963989258,0.5612727403640747,0.04967925325036049,0.5614714622497559,-0.8274205923080444,0.01118034403771162,0.38805878162384033,-0.19171053171157837,-0.4410223364830017,0.5406113266944885,0.3151175379753113,0.39190101623535156,-0.24720710515975952,790.0
74,0.3880990445613861,-0.19146956503391266,-0.42503923177719116,0.541765570640564,0.31236451864242554,0.4010535180568695,-0.23959437012672424,0.05400000140070915,-0.09157934039831161,-0.0051675960421562195,-0.18397293984889984,-0.006221115123480558,0.01893104426562786,-0.05467431619763374,-0.04631298780441284,-0.0,0.40088751912117004,-0.007384507451206446,-0.0836675837635994,0.8256746530532837,0.5618394613265991,0.050968144088983536,0.5621782541275024,-0.8269694447517395,0.008783640339970589,0.40508729219436646,-0.19144514203071594,-0.4281845986843109,0.5391272902488708,0.3157075345516205,0.3912290334701538,-0.24858379364013672,790.0
75,0.3902178704738617,-0.1913641095161438,-0.4265482723712921,0.541416585445404,0.31300878524780273,0.3983997404575348,-0.241841658949852,0.05400000140070915,-0.01612834446132183,-0.00010330735676689073,-0.2151508331298828,-0.013331766240298748,0.010994650423526764,-0.040876466780900955,-0.032251495867967606,-0.0,0.40140387415885925,-0.007966157048940659,-0.08290769159793854,0.8273528218269348,0.5593444108963013,0.051196809858083725,0.5595659613609314,-0.8287095427513123,0.011242827400565147,0.40536749362945557,-0.1913934051990509,-0.4312644600868225,0.5399294495582581,0.3158663809299469,0.38794833421707153,-0.2510354518890381,790.0
76,0.3902466297149658,-0.1913641095161438,-0.43185585737228394,0.5411328077316284,0.31365689635276794,0.39612945914268494,-0.2436632663011551,0.054999999701976776,0.18337512016296387,0.0002692932903300971,0.12963639199733734,-0.0029607920441776514,0.008352029137313366,-0.038130614906549454,-0.03448275104165077,-0.0,0.40104740858078003,-0.0075472453609108925,-0.08342517912387848,0.8273081183433533,0.5592434406280518,0.05299074575304985,0.5595170259475708,-0.8287469744682312,0.0109142130240798,0.3919903039932251,-0.19229303300380707,-0.449783056974411,0.5393882393836975,0.31655898690223694,0.3853604197502136,-0.2536114752292633,790.0
77,0.3923577666282654,-0.1913621872663498,-0.43501970171928406,0.5407359004020691,0.31427431106567383,0.3941122591495514,-0.24547335505485535,0.05400000140070915,0.010632309131324291,-0.00553914112970233,0.1409687101840973,-0.005183614324778318,0.009364819154143333,-0.007784202694892883,-0.003649416146799922,-0.0,0.40109726786613464,-0.007596975192427635,-0.08340996503829956,0.8269293904304504,0.559745728969574,0.05359590798616409,0.5601054430007935,-0.8283672332763672,0.009465751238167286,0.3988601565361023,-0.19268757104873657,-0.4475800395011902,0.5390619039535522,0.31775805354118347,0.3842439353466034,-0.2548920512199402,790.0
78,0.3961869776248932,-0.1913621872663498,-0.43305811285972595,0.5404291152954102,0.3147747814655304,0.39279302954673767,-0.2466583549976349,0.05400000140070915,-0.03825070708990097,-0.006700127385556698,-0.22195367515087128,-0.005975814536213875,0.015178235247731209,0.02741161733865738,0.030256032943725586,-0.0,0.40133386850357056,-0.007873062044382095,-0.08310616761445999,0.8239652514457703,0.5641511678695679,0.053054142743349075,0.5645371675491333,-0.8253602981567383,0.00883993599563837,0.4118318557739258,-0.19231575727462769,-0.43592721223831177,0.5395494103431702,0.31754356622695923,0.38309770822525024,-0.25569093227386475,790.0
79,0.3974563479423523,-0.19140052795410156,-0.43326136469841003,0.5401299595832825,0.3152637183666229,0.39272400736808777,-0.2466621994972229,0.05400000140070915,0.041156552731990814,-0.002049737609922886,-0.24639154970645905,-0.0008207480423152447,0.008549126796424389,-0.0792594775557518,-0.0817965567111969,-0.0,0.40105101466178894,-0.007598079275339842,-0.08345187455415726,0.8266816735267639,0.5603479146957397,0.05106425657868385,0.5606158375740051,-0.8280124068260193,0.010264758951961994,0.41103866696357727,-0.19087013602256775,-0.43834471702575684,0.537809431552887,0.31727075576782227,0.38384106755256653,-0.2556897699832916,790.0
80,0.39822524785995483,-0.19158652424812317,-0.43907514214515686,0.5398883819580078,0.31584855914115906,0.3915754556655884,-0.24759408831596375,0.05400000140070915,0.1470068246126175,0.01382120419293642,0.1072501540184021,-0.02036914974451065,0.006290131248533726,-0.05591978505253792,-0.0324932299554348,-0.0,0.40108737349510193,-0.0076400055550038815,-0.0833413377404213,0.8269593715667725,0.5600060820579529,0.05031285434961319,0.5602370500564575,-0.8282630443572998,0.010713673196732998,0.40055060386657715,-0.1930166482925415,-0.4551223814487457,0.5394534468650818,0.3183199465274811,0.3808496594429016,-0.2572692036628723,790.0
81,0.4011417329311371,-0.19172075390815735,-0.44318047165870667,0.539598822593689,0.3163490295410156,0.389412522315979,-0.24944253265857697,0.05400000140070915,0.04422753304243088,-0.008907588198781013,0.13421303033828735,0.0026267434004694223,0.00913024228066206,-0.03561771661043167,-0.09379759430885315,-0.0,0.4013352692127228,-0.007902974262833595,-0.08302056044340134,0.8270918130874634,0.5598404407501221,0.049978237599134445,0.5600059628486633,-0.8284024596214294,0.011941825971007347,0.4055386781692505,-0.19090710580348969,-0.456092894077301,0.5377779006958008,0.31867408752441406,0.3802739679813385,-0.25840649008750916,790.0
82,0.4052432179450989,-0.19172267615795135,-0.44213736057281494,0.5391443967819214,0.3167746961116791,0.3871556520462036,-0.25209248065948486,0.05400000140070915,-0.07448172569274902,0.009607940912246704,-0.20584319531917572,-0.011042052879929543,0.012621034868061543,-0.04013708606362343,-0.02778545394539833,-0.0,0.4009484648704529,-0.0073839775286614895,-0.08358842134475708,0.8274039030075073,0.558955192565918,0.05451425537467003,0.5593044757843018,-0.8289013504981995,0.010052397847175598,0.42099571228027344,-0.19292563199996948,-0.443316787481308,0.5380813479423523,0.31921133399009705,0.37900757789611816,-0.260747492313385,790.0
83,0.40646082162857056,-0.19172458350658417,-0.4426359236240387,0.5389200448989868,0.3171927034854889,0.3852611780166626,-0.2541307508945465,0.05400000140070915,0.026331664994359016,-0.009400792419910431,-0.19680286943912506,-0.001938355853781104,0.008476175367832184,-0.02249007672071457,-0.027176549658179283,-0.0,0.4010826647281647,-0.007483492139726877,-0.0834416076540947,0.826998233795166,0.5597801208496094,0.052155062556266785,0.5602062940597534,-0.828319787979126,0.007426589261740446,0.41839298605918884,-0.19225671887397766,-0.44755929708480835,0.5372538566589355,0.31901833415031433,0.3773200511932373,-0.26299577951431274,790.0
84,0.40672925114631653,-0.19172458350658417,-0.4477287232875824,0.5386343598365784,0.3176989257335663,0.38333797454833984,-0.2559504508972168,0.05400000140070915,0.14595521986484528,-0.0020376781467348337,0.15152503550052643,-0.0068132029846310616,0.003877001814544201,-0.025238830596208572,-0.032432135194540024,-0.0,0.401070237159729,-0.007589821703732014,-0.08345745503902435,0.8258695602416992,0.5613622069358826,0.053027670830488205,0.5616679787635803,-0.8272978663444519,0.01035936176776886,0.40719425678253174,-0.1925840973854065,-0.46396785974502563,0.5377573370933533,0.31963545083999634,0.3742777109146118,-0.2652515470981598,790.0
85,0.4089612066745758,-0.1917591094970703,-0.4501236379146576,0.5384138226509094,0.3180766701698303,0.3818979263305664,-0.25746333599090576,0.05400000140070915,-0.016868220642209053,-0.003405955620110035,0.14646126329898834,-0.0012412245851010084,0.006495077162981033,-0.03721379488706589,-0.036045514047145844,-0.0,0.40146028995513916,-0.00816795788705349,-0.0828474685549736,0.8255699276924133,0.5620302557945251,0.05056016892194748,0.5621744394302368,-0.8269215822219849,0.012671350501477718,0.41377198696136475,-0.1915234476327896,-0.46171459555625916,0.5372750163078308,0.32010549306869507,0.37343448400497437,-0.2661714255809784,790.0
86,0.4119831323623657,-0.1918952465057373,-0.44792431592941284,0.5381377339363098,0.31843140721321106,0.3802891671657562,-0.2592926025390625,0.05400000140070915,-0.030108533799648285,0.004724526312202215,-0.21410927176475525,-0.004133747424930334,0.007891645655035973,-0.03216596320271492,-0.03194829076528549,-0.0,0.4012743830680847,-0.007899566553533077,-0.08309566974639893,0.8266544938087463,0.5602681636810303,0.05236261710524559,0.5604568123817444,-0.8280909061431885,0.012391800060868263,0.42546117305755615,-0.1922173798084259,-0.4503576457500458,0.5372115969657898,0.31999245285987854,0.3728686571121216,-0.2677459716796875,790.0
87,0.4125564694404602,-0.19201220571994781,-0.4485628306865692,0.5379958152770996,0.318745881319046,0.3788606524467468,-0.2607671320438385,0.05400000140070915,0.04329833760857582,-0.0015542171895503998,-0.21869947016239166,-0.0032107073348015547,0.004461982287466526,-0.02469506487250328,-0.0011149576166644692,-0.0,0.4013931453227997,-0.008000788278877735,-0.08291975408792496,0.827000617980957,0.5599268078804016,0.05051657184958458,0.5600841045379639,-0.8283441662788391,0.01231775525957346,0.4239763915538788,-0.1925676465034485,-0.453105628490448,0.5370469689369202,0.32006707787513733,0.37138745188713074,-0.2695465683937073,790.0
88,0.41309720277786255,-0.19203905761241913,-0.45435550808906555,0.537855863571167,0.31907951831817627,0.37727874517440796,-0.26188310980796814,0.05400000140070915,0.08396738767623901,-0.0034686527214944363,0.1457756906747818,-0.0033134666737169027,0.003541241167113185,-0.027185099199414253,0.007685711607336998,-0.0,0.4012746512889862,-0.007868149317800999,-0.08312174677848816,0.8267399668693542,0.5601016879081726,0.05279277637600899,0.560395359992981,-0.8281592130661011,0.010457665659487247,0.41496649384498596,-0.19301995635032654,-0.4682661294937134,0.5368446707725525,0.32083821296691895,0.36939090490341187,-0.27095749974250793,790.0
89,0.41505685448646545,-0.19206398725509644,-0.45740237832069397,0.5376986265182495,0.31932687759399414,0.3759576082229614,-0.26198282837867737,0.05400000140070915,0.019025566056370735,-0.005117163062095642,0.16762642562389374,-0.003406903939321637,0.007270672358572483,-0.030386241152882576,-0.05850136652588844,-0.0,0.4013961851596832,-0.007970294915139675,-0.08301239460706711,0.827854573726654,0.5583478212356567,0.05389349162578583,0.5587196946144104,-0.8293042778968811,0.009307312779128551,0.41833555698394775,-0.19204118847846985,-0.4691183567047119,0.5364961624145508,0.3211319148540497,0.36887282133102417,-0.2705557942390442,790.0
90,0.4175093173980713,-0.19216176867485046,-0.4555692970752716,0.5375087857246399,0.31958380341529846,0.37458276748657227,-0.26318123936653137,0.05400000140070915,-0.014253838919103146,0.004263153299689293,-0.18631376326084137,-0.006638644728809595,0.009959275834262371,-0.035283781588077545,-0.048135630786418915,-0.0,0.401030957698822,-0.007561441045254469,-0.08346205204725266,0.8263005018234253,0.5608111023902893,0.05213775858283043,0.5611036419868469,-0.827682375907898,0.010227411985397339,0.4302724301815033,-0.19286203384399414,-0.4574916362762451,0.5363095998764038,0.3211486041545868,0.36878520250320435,-0.27150624990463257,790.0
91,0.4184277653694153,-0.1922883242368698,-0.45534685254096985,0.537295937538147,0.3199193775653839,0.37310439348220825,-0.26508912444114685,0.05400000140070915,0.027929620817303658,-0.004156791605055332,-0.20997172594070435,-0.003989085555076599,0.003975673113018274,-0.013966779224574566,-0.025296417996287346,-0.0,0.4012400507926941,-0.007836120203137398,-0.08316328376531601,0.8257734179496765,0.5616601705551147,0.05134278163313866,0.561863124370575,-0.8271466493606567,0.011757387779653072,0.43000683188438416,-0.19264093041419983,-0.45844459533691406,0.5362589955329895,0.3210945725440979,0.3670900762081146,-0.2735089659690857,790.0
92,0.4189167320728302,-0.19232283532619476,-0.4603188633918762,0.5370562672615051,0.3202817738056183,0.3716413676738739,-0.2670430541038513,0.05400000140070915,0.09924636781215668,-0.0013193732593208551,0.1117788776755333,-0.003433552570641041,0.002563603688031435,-0.023210354149341583,-0.033729396760463715,-0.0,0.40124478936195374,-0.007852618582546711,-0.08317463845014572,0.825679361820221,0.5620695948600769,0.048284780234098434,0.5622450113296509,-0.8268954157829285,0.011155710555613041,0.4208272695541382,-0.19294604659080505,-0.4729025363922119,0.5360260605812073,0.32163795828819275,0.36515703797340393,-0.2757244408130646,790.0
93,0.42105087637901306,-0.19238612055778503,-0.46306854486465454,0.5368376970291138,0.32054829597473145,0.37040650844573975,-0.268766850233078,0.05400000140070915,0.05512404069304466,-0.002842065179720521,0.13551999628543854,-0.0034265576396137476,0.0052223363891243935,-0.008587054908275604,-0.03372757509350777,-0.0,0.40103811025619507,-0.007541550789028406,-0.08347033709287643,0.8259740471839905,0.5614154934883118,0.050788603723049164,0.5616893768310547,-0.8272870182991028,0.010060024447739124,0.4237251281738281,-0.19338713586330414,-0.4742862582206726,0.5357537269592285,0.32214662432670593,0.36449581384658813,-0.2772456407546997,790.0
94,0.42361071705818176,-0.19245706498622894,-0.46165919303894043,0.536657452583313,0.3207477033138275,0.36973538994789124,-0.2702854871749878,0.05400000140070915,-0.05104077607393265,-0.007347743958234787,-0.2003970742225647,-0.006105136126279831,0.010461895726621151,0.01634618453681469,-0.051520269364118576,-0.0,0.4010167419910431,-0.007504503708332777,-0.0835314467549324,0.8258435726165771,0.5614573359489441,0.05242132768034935,0.5618264675140381,-0.8272082805633545,0.008801284246146679,0.4373112916946411,-0.19299712777137756,-0.4611479938030243,0.5357533693313599,0.32214581966400146,0.36494719982147217,-0.27809053659439087,790.0
95,0.4247209429740906,-0.19269482791423798,-0.4630109965801239,0.5363736152648926,0.32112354040145874,0.3694573640823364,-0.2726133167743683,0.05400000140070915,0.01628752239048481,0.0010257016401737928,-0.086981862783432,-0.0017785914242267609,0.0028251302428543568,-0.08530538529157639,-0.02479107677936554,-0.0,0.4010434150695801,-0.007460084278136492,-0.0834796279668808,0.8266383409500122,0.560102641582489,0.05435164272785187,0.560589075088501,-0.8280621767044067,0.007274075411260128,0.43326616287231445,-0.19316628575325012,-0.4684954881668091,0.5347684621810913,0.32210448384284973,0.36406758427619934,-0.28095924854278564,790.0
96,0.42487433552742004,-0.1928865760564804,-0.46772417426109314,0.5361550450325012,0.32146868109703064,0.3675130307674408,-0.27454420924186707,0.05400000140070915,0.17367999255657196,-0.0005565680330619216,0.20091958343982697,-0.007687860634177923,0.0012135817669332027,-0.00356931216083467,-0.028723567724227905,-0.0,0.40136513113975525,-0.008034905418753624,-0.0829668790102005,0.8257676362991333,0.5617806911468506,0.0501026026904583,0.5619477033615112,-0.8270853757858276,0.012023246847093105,0.4222058653831482,-0.19342297315597534,-0.48355066776275635,0.5361261963844299,0.3224244713783264,0.36066511273384094,-0.28321602940559387,790.0
97,0.42771220207214355,-0.1930227130651474,-0.4679926037788391,0.5359671115875244,0.32169878482818604,0.36593687534332275,-0.27611079812049866,0.05400000140070915,-0.056304555386304855,-0.002177357440814376,0.005085938610136509,0.004615806508809328,0.0030964368488639593,-0.02645295299589634,-0.0370139516890049,-0.0,0.4012618064880371,-0.007862632162868977,-0.08315169811248779,0.8254030346870422,0.562354326248169,0.049673326313495636,0.562531054019928,-0.8266937136650085,0.01167453732341528,0.43596774339675903,-0.1929415762424469,-0.47268879413604736,0.5346063375473022,0.3228609561920166,0.36127758026123047,-0.2839159369468689,790.0
98,0.43073412775993347,-0.193070650100708,-0.4656168520450592,0.5357600450515747,0.3218560218811035,0.36487266421318054,-0.2777368128299713,0.05400000140070915,-0.08249565958976746,0.0016072996659204364,-0.29071661829948425,-0.006635182071477175,0.004183058626949787,-0.01096046157181263,-0.022293362766504288,-0.0,0.40143880248069763,-0.008086809888482094,-0.0828738734126091,0.8262625336647034,0.5609394311904907,0.05135301500558853,0.5611018538475037,-0.8276515007019043,0.012559310533106327,0.4460831880569458,-0.19285614788532257,-0.4627949595451355,0.5354791879653931,0.32244986295700073,0.3599902391433716,-0.2852773368358612,790.0
99,0.43059608340263367,-0.1931377649307251,-0.4687787890434265,0.5356833338737488,0.32202282547950745,0.363827645778656,-0.2792554497718811,0.05400000140070915,0.11263122409582138,0.0018892058869823813,-0.10261505097150803,0.0005459490930661559,0.0006607438554055989,-0.017637165263295174,-0.027927134186029434,-0.0,0.4014812111854553,-0.008083678781986237,-0.08282936364412308,0.8266950249671936,0.5601988434791565,0.05246517062187195,0.5603911280632019,-0.8281359076499939,0.012354711070656776,0.43580466508865356,-0.1933007389307022,-0.4760200083255768,0.5352794528007507,0.32236891984939575,0.35852140188217163,-0.28749626874923706,790.0
100,0.430853009223938,-0.19314543902873993,-0.4756030738353729,0.5355548858642578,0.3221973180770874,0.362859308719635,-0.28076642751693726,0.05400000140070915,0.1101689264178276,-0.0014380988432094455,0.26682671904563904,-0.0007850227993912995,-8.347520633833483e-05,-0.017142970114946365,-0.026496702805161476,-0.0,0.401216059923172,-0.007822944782674313,-0.08323424309492111,0.8258465528488159,0.5616304874420166,0.05048377811908722,0.5618552565574646,-0.8271628618240356,0.010967595502734184,0.4284505844116211,-0.1937234103679657,-0.4900572896003723,0.534878134727478,0.32324478030204773,0.35741668939590454,-0.2891111969947815,790.0
101,0.4335777461528778,-0.19314736127853394,-0.47563567757606506,0.5355049967765808,0.3222663402557373,0.36210575699806213,-0.28203004598617554,0.05400000140070915,-0.0609506256878376,-0.003647509263828397,0.15821322798728943,-0.0029849738348275423,0.005132695659995079,-0.020528601482510567,-0.031277697533369064,-0.0,0.40137478709220886,-0.007984204217791557,-0.08300916105508804,0.8252054452896118,0.5626552104949951,0.04954827204346657,0.5629715323448181,-0.8264310359954834,0.008649147115647793,0.4376413822174072,-0.19304360449314117,-0.4834047555923462,0.5346705913543701,0.32337504625320435,0.357395738363266,-0.28967931866645813,790.0
102,0.4327493906021118,-0.1933889538049698,-0.4791906774044037,0.535129189491272,0.32283201813697815,0.35894766449928284,-0.2868639826774597,0.05400000140070915,0.05979953333735466,0.0071895066648721695,0.05433930829167366,-0.002269638469442725,0.0015204775845631957,-0.0002149449719581753,0.03486936166882515,-0.0,0.4012288451194763,-0.007837111130356789,-0.08317316323518753,0.8267016410827637,0.5601041913032532,0.053363390266895294,0.5603836178779602,-0.8281603455543518,0.010982043109834194,0.43848684430122375,-0.1956590712070465,-0.48497945070266724,0.5348067283630371,0.3243917226791382,0.35520684719085693,-0.29507625102996826,790.0
103,0.43111762404441833,-0.19351743161678314,-0.4844004511833191,0.5350026488304138,0.3230467736721039,0.35812699794769287,-0.28770193457603455,0.05400000140070915,0.13185088336467743,-0.021883558481931686,0.06742385029792786,0.0002596186241135001,0.014432454481720924,-0.026324106380343437,-0.09532352536916733,-0.0,0.40130943059921265,-0.00785862561315298,-0.08304403722286224,0.8280811309814453,0.5577646493911743,0.056393589824438095,0.5581128597259521,-0.8296942114830017,0.010841796174645424,0.4375911355018616,-0.19352871179580688,-0.48861461877822876,0.5334761142730713,0.32473161816596985,0.3561484217643738,-0.29566490650177,790.0
104,0.43327096104621887,-0.19374752044677734,-0.4852384030818939,0.534899115562439,0.32335740327835083,0.3573945164680481,-0.2893010973930359,0.05400000140070915,-0.0040673804469406605,-0.006427505519241095,-0.03723827376961708,-0.019995128735899925,0.00951909925788641,-0.004335768520832062,-0.04077870026230812,-0.0,0.4010467827320099,-0.007523451466113329,-0.08346327394247055,0.8267995715141296,0.5603681206703186,0.048888400197029114,0.5605611205101013,-0.8280404806137085,0.010959147475659847,0.4461821913719177,-0.1955803632736206,-0.4827565550804138,0.534310519695282,0.3256382346153259,0.35575878620147705,-0.29695796966552734,790.0
105,0.43564286828041077,-0.19434769451618195,-0.48554709553718567,0.5347073674201965,0.32379457354545593,0.3565911054611206,-0.2920239269733429,0.05400000140070915,0.021478645503520966,0.01029579620808363,-0.017332348972558975,0.0025398724246770144,0.011041859164834023,-0.001997484127059579,-0.01541480515152216,-0.0,0.40130236744880676,-0.007830055430531502,-0.08306995779275894,0.8278307318687439,0.5585117936134338,0.05254380404949188,0.5587536692619324,-0.8292561173439026,0.01134069450199604,0.4457401931285858,-0.19597125053405762,-0.48571157455444336,0.5340511798858643,0.3255174458026886,0.35444262623786926,-0.2997640371322632,790.0
106,0.437224805355072,-0.19436687231063843,-0.4865959584712982,0.5342874526977539,0.3242969512939453,0.35623252391815186,-0.29399892687797546,0.05400000140070915,0.15006764233112335,-0.022336754947900772,0.08492698520421982,0.0012258177157491446,0.006183192599564791,-0.020004095509648323,-0.044752996414899826,-0.0,0.4008408486843109,-0.007274867035448551,-0.08374328166246414,0.8270244002342224,0.559722363948822,0.05235906317830086,0.560012936592102,-0.8284195065498352,0.010323859751224518,0.44052061438560486,-0.19513802230358124,-0.4934244453907013,0.5326499342918396,0.3254096508026123,0.35408660769462585,-0.3019832372665405,790.0
107,0.4401988089084625,-0.19446274638175964,-0.4863160252571106,0.5341455340385437,0.3247053921222687,0.3558681905269623,-0.29560384154319763,0.05400000140070915,-0.05786927416920662,0.0016616515349596739,-0.09673082828521729,-0.016849972307682037,0.0007534815231338143,-0.009615425951778889,-0.041126590222120285,-0.0,0.4010571837425232,-0.00760576780885458,-0.08345689624547958,0.8272603750228882,0.5592828392982483,0.05331970378756523,0.5595431923866272,-0.8287239670753479,0.011311758309602737,0.4531711935997009,-0.19547829031944275,-0.48300638794898987,0.5340860486030579,0.3260422945022583,0.3535763919353485,-0.3027808964252472,790.0
108,0.44287943840026855,-0.19488650560379028,-0.48664581775665283,0.5338866710662842,0.3250351846218109,0.3552737832069397,-0.29791057109832764,0.05400000140070915,-0.07483765482902527,-0.0011893822811543941,-0.08995062857866287,-0.0021630104165524244,0.005056405905634165,-0.006243501324206591,-0.024438152089715004,-0.0,0.4011542797088623,-0.007721487898379564,-0.0832751989364624,0.8291651010513306,0.5562521815299988,0.05539587140083313,0.5565935969352722,-0.8307186961174011,0.010489458218216896,0.45471638441085815,-0.19542089104652405,-0.4842336177825928,0.5333461761474609,0.32594722509384155,0.3529149293899536,-0.3050081133842468,790.0
109,0.4425879716873169,-0.1951472908258438,-0.4893648028373718,0.5335530042648315,0.32527869939804077,0.35475224256515503,-0.2997455894947052,0.05400000140070915,0.20338740944862366,-0.0005194962723180652,0.13226889073848724,-0.0009053758112713695,0.0036414095666259527,-0.014274396933615208,-0.038423649966716766,-0.0,0.4013923406600952,-0.007966138422489166,-0.08292734622955322,0.8283846974372864,0.5574183464050293,0.055349793285131454,0.5577241778373718,-0.8299508094787598,0.011194744147360325,0.4410143494606018,-0.19540587067604065,-0.5002540946006775,0.5337075591087341,0.3255121111869812,0.35068246722221375,-0.3076697587966919,790.0
110,0.44410470128059387,-0.19524699449539185,-0.4894702732563019,0.533480167388916,0.32550495862960815,0.3542326092720032,-0.30128341913223267,0.05400000140070915,0.07204078882932663,-4.793952757609077e-05,0.04087851941585541,0.002352620242163539,-0.0022240851540118456,-0.020569561049342155,-0.02927001379430294,-0.0,0.4014987349510193,-0.00821696687489748,-0.0827813595533371,0.825537383556366,0.5620730519294739,0.05061491206288338,0.5621962547302246,-0.8268997669219971,0.01311884168535471,0.44798266887664795,-0.19482728838920593,-0.4949803650379181,0.5333781242370605,0.32573580741882324,0.3506709933280945,-0.30872637033462524,790.0
111,0.4482560455799103,-0.19531410932540894,-0.48775985836982727,0.5334609746932983,0.32560083270072937,0.3536611795425415,-0.30280396342277527,0.05400000140070915,-0.17080146074295044,0.0037511407863348722,-0.20783187448978424,-0.0006996383890509605,8.914487989386544e-05,-0.011834261007606983,-0.02397764101624489,-0.0,0.40136387944221497,-0.007942689582705498,-0.08300162106752396,0.8263023495674133,0.5608254075050354,0.051954761147499084,0.5609959959983826,-0.8277223706245422,0.012615673243999481,0.46420955657958984,-0.19457828998565674,-0.48071470856666565,0.5333499312400818,0.3258986473083496,0.35106170177459717,-0.30927538871765137,790.0
112,0.4494141936302185,-0.19531601667404175,-0.48886048793792725,0.5334149599075317,0.32561808824539185,0.3529459834098816,-0.30434563755989075,0.05400000140070915,0.024899685755372047,0.00428159860894084,-0.11193287372589111,-0.0006766461883671582,0.0011321905767545104,-0.005283832550048828,-0.020044570788741112,-0.0,0.40090426802635193,-0.007348388899117708,-0.08366305381059647,0.8258718848228455,0.5615686178207397,0.05075688660144806,0.5618047118186951,-0.82719886302948,0.01084067765623331,0.45638373494148254,-0.195912167429924,-0.4905295968055725,0.5331698656082153,0.3255905508995056,0.35015445947647095,-0.31147176027297974,790.0
113,0.44804319739341736,-0.19531601667404175,-0.49360817670822144,0.5334111452102661,0.3256794512271881,0.3522959351539612,-0.30563226342201233,0.05400000140070915,0.19960561394691467,-0.005358011927455664,0.2412397712469101,-0.0013868707465007901,-0.0010794562986120582,-0.008166257292032242,-0.023923400789499283,-0.0,0.4011160135269165,-0.007645206991583109,-0.08336703479290009,0.8259555101394653,0.5616781711578369,0.048115696758031845,0.5617824196815491,-0.8271889090538025,0.012609506025910378,0.4425888657569885,-0.1955849677324295,-0.5076730847358704,0.5332731604576111,0.3256314992904663,0.3483425974845886,-0.31338709592819214,790.0
114,0.4499721825122833,-0.19531601667404175,-0.49358323216438293,0.5334053635597229,0.32571589946746826,0.35180890560150146,-0.3068191707134247,0.05400000140070915,-0.047203660011291504,-0.002025141380727291,0.15450650453567505,-0.00044194707879796624,-0.0005748866242356598,-0.01734933629631996,-0.02964218333363533,-0.0,0.4011441767215729,-0.007707501761615276,-0.08330707252025604,0.8261282444000244,0.5613013505935669,0.04952629283070564,0.5615494847297668,-0.8273818492889404,0.010068049654364586,0.4529176652431488,-0.19508835673332214,-0.49920323491096497,0.5327872037887573,0.3260757327079773,0.3489965796470642,-0.31370627880096436,790.0
115,0.4531494379043579,-0.19531601667404175,-0.48844823241233826,0.5333938598632812,0.3257178068161011,0.35131803154945374,-0.30810195207595825,0.05400000140070915,-0.07841373980045319,0.0014351948630064726,-0.24086417257785797,-0.0030798083171248436,0.0021241463255137205,-0.007535159587860107,-0.021393081173300743,-0.0,0.40097835659980774,-0.00732429651543498,-0.08357827365398407,0.8268349766731262,0.5597090125083923,0.05540524423122406,0.5602689981460571,-0.8282867074012756,0.006308245472609997,0.46510976552963257,-0.1952454000711441,-0.484779953956604,0.5330939292907715,0.3253847360610962,0.34894832968711853,-0.31467777490615845,790.0
116,0.45329517126083374,-0.19531601667404175,-0.4882066547870636,0.5333689451217651,0.3257178068161011,0.35067951679229736,-0.309526652097702,0.05400000140070915,0.04140596091747284,0.00011240336607443169,-0.22582973539829254,-0.00038114297785796225,-0.0026583813596516848,-0.005739194806665182,0.009440252557396889,-0.0,0.40132832527160645,-0.007947557605803013,-0.08302928507328033,0.8262314200401306,0.5609158277511597,0.05210622772574425,0.5611143112182617,-0.8276495933532715,0.012118888087570667,0.4606980085372925,-0.19506293535232544,-0.4892899692058563,0.5335452556610107,0.32484084367752075,0.3473389148712158,-0.3165774345397949,790.0
117,0.45301711559295654,-0.19530260562896729,-0.49455541372299194,0.5332788228988647,0.3257216513156891,0.3502039909362793,-0.31012681126594543,0.05400000140070915,0.07236433029174805,0.0015709561994299293,0.15765607357025146,0.00333949807099998,-0.007094840984791517,-0.019953303039073944,0.0661584809422493,-0.0,0.4012649655342102,-0.007871090434491634,-0.08316200226545334,0.8260713815689087,0.5612118244171143,0.051452577114105225,0.5614238381385803,-0.8274470567703247,0.011601005680859089,0.45126527547836304,-0.19611354172229767,-0.5050094723701477,0.5332163572311401,0.3255288302898407,0.3462216854095459,-0.3177121579647064,790.0
118,0.4540947377681732,-0.19529876112937927,-0.4977978467941284,0.5332366228103638,0.3257216513156891,0.3497456908226013,-0.30932340025901794,0.05400000140070915,0.010787636041641235,-0.00619852589443326,0.19035516679286957,-0.0004652369534596801,0.0011181217851117253,-0.017084991559386253,-0.1575496643781662,-0.0,0.40107280015945435,-0.007601437624543905,-0.08346225321292877,0.8258901238441467,0.5614034533500671,0.05226530134677887,0.5616803765296936,-0.8272861242294312,0.01062007062137127,0.45388150215148926,-0.1933067888021469,-0.5051285028457642,0.5325196385383606,0.32554981112480164,0.34752723574638367,-0.31572526693344116,790.0
119,0.45594125986099243,-0.19529876112937927,-0.49570590257644653,0.533200204372406,0.3257216513156891,0.3490956723690033,-0.3103971779346466,0.05400000140070915,-0.03447169065475464,0.01924193650484085,-0.1566067337989807,-0.007430485915392637,0.0013097296468913555,-0.0031037675216794014,-0.027750421315431595,-0.0,0.40149733424186707,-0.008134810253977776,-0.08280722796916962,0.8265224099159241,0.560672402381897,0.05007091909646988,0.5608401298522949,-0.8278377056121826,0.011958999559283257,0.46519631147384644,-0.19543743133544922,-0.4937469959259033,0.5342061519622803,0.32550477981567383,0.3462570011615753,-0.3170601725578308,790.0
120,0.4563918709754944,-0.19523932039737701,-0.4948200285434723,0.533165693283081,0.32571205496788025,0.34842073917388916,-0.3133481740951538,0.05400000140070915,0.004027179908007383,-0.0019570360891520977,-0.15127365291118622,0.010559936985373497,0.00017037548241205513,-0.011072264052927494,-0.006956268567591906,-0.0,0.40098753571510315,-0.007491991389542818,-0.08349159359931946,0.8270689845085144,0.5596171617507935,0.052778199315071106,0.5599331259727478,-0.8284776210784912,0.009984112344682217,0.46398013830184937,-0.19548074901103973,-0.49478423595428467,0.5323531031608582,0.32527732849121094,0.3466493487358093,-0.3201913833618164,790.0
121,0.4561138451099396,-0.19490376114845276,-0.49865496158599854,0.5331119894981384,0.3256334364414215,0.34791260957717896,-0.3149665296077728,0.05400000140070915,0.11332514137029648,-0.008149556815624237,0.1517878621816635,-0.0033148431684821844,-0.0018275121692568064,-0.0042629544623196125,-0.0228896364569664,-0.0,0.4012576639652252,-0.007791768293827772,-0.08315593749284744,0.82749342918396,0.5588731169700623,0.053994834423065186,0.5591915845870972,-0.8289728164672852,0.010431830771267414,0.4534798860549927,-0.19499866664409637,-0.5086588859558105,0.533237636089325,0.3252650499343872,0.3447432518005371,-0.3221126198768616,790.0
122,0.45707643032073975,-0.19479255378246307,-0.4997996985912323,0.5331100821495056,0.32557401061058044,0.3475060760974884,-0.3160172998905182,0.05400000140070915,0.01758572831749916,-0.0003427513292990625,0.08369209617376328,0.0020161811262369156,-0.001041835406795144,-0.01732015796005726,-0.03315366804599762,-0.0,0.4011537432670593,-0.007736184634268284,-0.0833238735795021,0.8259075880050659,0.5614297986030579,0.05170317739248276,0.5616806745529175,-0.8272820711135864,0.010917644947767258,0.45905953645706177,-0.1948826014995575,-0.5050281882286072,0.5328778624534607,0.32544076442718506,0.3452078104019165,-0.3227827847003937,790.0
123,0.45913195610046387,-0.19479255378246307,-0.49785730242729187,0.53310626745224,0.32548195123672485,0.34705549478530884,-0.31734228134155273,0.05400000140070915,-0.07121019065380096,0.0006040756707079709,-0.21641571819782257,-0.0013469434343278408,0.0005974427331238985,-0.00652524596080184,-0.024424344301223755,-0.0,0.40135806798934937,-0.008028027601540089,-0.08294916898012161,0.8261952996253967,0.5608113408088684,0.05377713218331337,0.561051070690155,-0.827694833278656,0.011954362504184246,0.4707297086715698,-0.19435344636440277,-0.49314460158348083,0.5334475040435791,0.3250909149646759,0.34503233432769775,-0.3236837685108185,790.0
124,0.4593869745731354,-0.19479255378246307,-0.49907296895980835,0.5330909490585327,0.32543209195137024,0.3465185761451721,-0.31877845525741577,0.05400000140070915,0.042951084673404694,0.004469224717468023,-0.05370943993330002,0.0034604929387569427,-0.0022370207589119673,-0.0056411270052194595,-0.022902673110365868,-0.0,0.4012826383113861,-0.007808196824043989,-0.08311783522367477,0.8284739851951599,0.5572721362113953,0.055485378950834274,0.557601809501648,-0.8300384283065796,0.010789340361952782,0.4630790948867798,-0.19520242512226105,-0.5021970272064209,0.5332454442977905,0.32493680715560913,0.3442328870296478,-0.3255396783351898,790.0
125,0.45924893021583557,-0.19479255378246307,-0.5029942393302917,0.5330794453620911,0.32540908455848694,0.3460392355918884,-0.3201245367527008,0.05400000140070915,0.114614337682724,-0.0031928776297718287,0.2272103726863861,0.0004990085726603866,-0.0021314555779099464,-0.00803497713059187,0.007930660620331764,-0.0,0.4011075496673584,-0.007642356678843498,-0.08335413038730621,0.8268321752548218,0.5600435733795166,0.051959190517663956,0.5603010654449463,-0.8282181024551392,0.010841167531907558,0.45469656586647034,-0.1956135481595993,-0.5144494771957397,0.533076822757721,0.32516980171203613,0.3430934250354767,-0.32729896903038025,790.0
126,0.46126803755760193,-0.19479255378246307,-0.5021102428436279,0.5330774784088135,0.32534775137901306,0.34562695026397705,-0.3207918107509613,0.05400000140070915,-0.07015832513570786,-0.005367825273424387,0.021177709102630615,-0.0007765113841742277,-2.4799978746159468e-06,-0.014575785025954247,0.04509301111102104,-0.0,0.40107056498527527,-0.007614479400217533,-0.08343833684921265,0.825324296951294,0.5623946785926819,0.050517987459897995,0.5626299381256104,-0.8266384601593018,0.010786966420710087,0.46669822931289673,-0.19558970630168915,-0.5036940574645996,0.5328382849693298,0.32538849115371704,0.34366080164909363,-0.3274269700050354,790.0
127,0.4629649817943573,-0.19479255378246307,-0.4985801875591278,0.5330774784088135,0.32525762915611267,0.34521663188934326,-0.32027217745780945,0.05400000140070915,-0.061497610062360764,-0.002685101004317403,-0.2794643044471741,-0.0017877923091873527,0.0012471795780584216,-0.0038910487201064825,-0.08463019132614136,-0.0,0.4007994830608368,-0.007246496621519327,-0.08380535244941711,0.8255394697189331,0.5620947480201721,0.0503397211432457,0.5623056292533875,-0.8268534541130066,0.011213970370590687,0.4746590554714203,-0.19422167539596558,-0.4929712414741516,0.5326657295227051,0.3245764672756195,0.34443217515945435,-0.32624199986457825,790.0
128,0.46245110034942627,-0.19489417970180511,-0.5008447170257568,0.5330774784088135,0.32523268461227417,0.3447449207305908,-0.32093754410743713,0.05400000140070915,0.09218783676624298,0.007193328347057104,-0.09777552634477615,-0.002590056974440813,-0.004438713658601046,0.002021827967837453,-0.019991479814052582,-0.0,0.4010235667228699,-0.00754269864410162,-0.08347490429878235,0.826443612575531,0.5607356429100037,0.050660669803619385,0.560969352722168,-0.8277658224105835,0.010822714306414127,0.46511444449424744,-0.19581380486488342,-0.504418671131134,0.5334005951881409,0.32453691959381104,0.34274622797966003,-0.32774055004119873,790.0
129,0.4622747004032135,-0.19496895372867584,-0.5066373944282532,0.5330774784088135,0.3252154290676117,0.3444457948207855,-0.3223315477371216,0.05400000140070915,0.0785788744688034,-0.0051022800616919994,0.2599295675754547,0.0026081164833158255,-0.002640316728502512,-0.00837652012705803,-0.01897534541785717,-0.0,0.4013003408908844,-0.007945247925817966,-0.08307980746030807,0.8260350823402405,0.5612810850143433,0.05127943679690361,0.5614883303642273,-0.8274028301239014,0.011632799170911312,0.4575912654399872,-0.19472551345825195,-0.5175677537918091,0.5330013036727905,0.3248501718044281,0.34174007177352905,-0.3291953504085541,790.0
130,0.4639314115047455,-0.19499963521957397,-0.5070189833641052,0.5330736637115479,0.3251233994960785,0.34426748752593994,-0.3234647810459137,0.05400000140070915,-0.05711545795202255,0.002350673545151949,0.19837594032287598,-0.00021265090617816895,-0.00031102311913855374,-0.012842703610658646,-0.024213435128331184,-0.0,0.4012523293495178,-0.00783370528370142,-0.0831732526421547,0.8255826830863953,0.5619905591011047,0.05079157277941704,0.5622147917747498,-0.8269165754318237,0.011114632710814476,0.46425390243530273,-0.19476336240768433,-0.5127850770950317,0.5330352783203125,0.32506588101387024,0.3421243131160736,-0.3298129141330719,790.0
131,0.46542128920555115,-0.19501498341560364,-0.5017727613449097,0.5330602526664734,0.3250083327293396,0.34396642446517944,-0.3246823847293854,0.05400000140070915,-0.035788752138614655,0.0022333390079438686,-0.19200654327869415,5.9620455431286246e-05,0.0015675803879275918,-0.010435938835144043,-0.03349049761891365,-0.0,0.4013865292072296,-0.007977290078997612,-0.08295048773288727,0.8266361355781555,0.5602869987487793,0.05245107039809227,0.5604841709136963,-0.8280743956565857,0.012255873531103134,0.4735287129878998,-0.19432882964611053,-0.49963298439979553,0.533324122428894,0.3241369128227234,0.3421478867530823,-0.33086127042770386,790.0
132,0.4653426706790924,-0.19502264261245728,-0.4997977912425995,0.5330544710159302,0.3249680697917938,0.34350624680519104,-0.32598817348480225,0.05400000140070915,0.03657064959406853,0.0038356336299329996,-0.2199043184518814,0.0019421667093411088,-0.005739680025726557,-0.00380054023116827,-0.019028672948479652,-0.0,0.4009668827056885,-0.007432677783071995,-0.08355602622032166,0.8267394304275513,0.5601491332054138,0.052296046167612076,0.560401976108551,-0.8281466960906982,0.011076103895902634,0.4714464247226715,-0.1953619420528412,-0.49977073073387146,0.5329632759094238,0.3239380717277527,0.3420076072216034,-0.3324192762374878,790.0
133,0.46511831879615784,-0.19502264261245728,-0.5040795207023621,0.5330410599708557,0.32492780685424805,0.3430767059326172,-0.327311247587204,0.05400000140070915,0.05330497398972511,-0.006274818442761898,0.13764746487140656,-0.0014918517554178834,-0.006934771314263344,-0.004656336735934019,-0.033127572387456894,-0.0,0.40128421783447266,-0.007928137667477131,-0.08310817182064056,0.8256893754005432,0.5618377923965454,0.05074793100357056,0.5619992017745972,-0.8270450830459595,0.012383239343762398,0.4620727002620697,-0.19430877268314362,-0.5132572650909424,0.5330519676208496,0.32404613494873047,0.3405774235725403,-0.33376526832580566,790.0
134,0.46613842248916626,-0.19502264261245728,-0.506654679775238,0.5330353379249573,0.3247303068637848,0.342708557844162,-0.3287455141544342,0.05400000140070915,0.026462599635124207,0.004549926146864891,0.14378727972507477,9.425278221897315e-06,-0.0019157943315804005,-0.012779009528458118,-0.02293091081082821,-0.0,0.40123483538627625,-0.007826890796422958,-0.08319079875946045,0.8272444009780884,0.5595282316207886,0.05093974620103836,0.5597909688949585,-0.8285698890686035,0.010292945429682732,0.4642007350921631,-0.19514524936676025,-0.5143854022026062,0.5330455303192139,0.32418665289878845,0.34058883786201477,-0.3351823091506958,790.0
135,0.4678047001361847,-0.19501881301403046,-0.5043882131576538,0.5330333709716797,0.3245040476322174,0.3423710763454437,-0.3301030695438385,0.05400000140070915,-0.05724688991904259,-0.004408381879329681,-0.2029721438884735,-5.759644409408793e-05,-0.0003019087016582489,-0.01224488765001297,-0.04089456424117088,-0.0,0.4014368951320648,-0.008066694252192974,-0.08289124071598053,0.8260741233825684,0.5613977909088135,0.04933565855026245,0.5615842938423157,-0.8273422718048096,0.011307189241051674,0.4766938090324402,-0.19389986991882324,-0.5010488629341125,0.5330122709274292,0.32361161708831787,0.34107133746147156,-0.33601024746894836,790.0
136,0.4679044187068939,-0.19499196112155914,-0.5045972466468811,0.5330314636230469,0.3243698179721832,0.34196266531944275,-0.33137819170951843,0.05400000140070915,-0.010622954927384853,0.008304775692522526,-0.12250328063964844,-0.0002568634517956525,-0.0044014230370521545,0.00022480846382677555,-0.01874067820608616,-0.0,0.401483416557312,-0.008104478009045124,-0.08279094845056534,0.8277296423912048,0.5586405992507935,0.05276664346456528,0.5588309168815613,-0.8291881084442139,0.012455625459551811,0.4729841947555542,-0.19483429193496704,-0.5050364136695862,0.5336191654205322,0.3235284388065338,0.3400942087173462,-0.33751553297042847,790.0
137,0.4670722186565399,-0.1949382722377777,-0.5083746314048767,0.5330314636230469,0.3242547810077667,0.34150055050849915,-0.33283165097236633,0.05400000140070915,0.13551604747772217,-0.0019936009775847197,0.19384288787841797,0.004220294300466776,-0.003265490522608161,-0.007048144470900297,-0.020803242921829224,-0.0,0.4013308584690094,-0.007934706285595894,-0.08306310325860977,0.8259287476539612,0.5614998936653137,0.05059187486767769,0.5616928339004517,-0.827263593673706,0.011665207333862782,0.46083998680114746,-0.1947558969259262,-0.5201690793037415,0.533091127872467,0.32339635491371155,0.33904674649238586,-0.3394986093044281,790.0
138,0.468099981546402,-0.19480788707733154,-0.5087293982505798,0.5330314636230469,0.32412055134773254,0.3411669135093689,-0.3340875804424286,0.05400000140070915,-0.026470718905329704,-0.0007272714865393937,0.092819444835186,-0.0011031804606318474,-0.003013825509697199,-0.01216888427734375,-0.027962561696767807,-0.0,0.4013139009475708,-0.007920049130916595,-0.08309047669172287,0.8261942863464355,0.5612220764160156,0.04932304844260216,0.5613495707511902,-0.8274838328361511,0.012537922710180283,0.4691130518913269,-0.19455936551094055,-0.5131875276565552,0.5329995155334473,0.32371991872787476,0.3396627604961395,-0.34015458822250366,790.0
139,0.469718337059021,-0.19477145373821259,-0.5060468316078186,0.5330314636230469,0.32396140694618225,0.3408639430999756,-0.33518439531326294,0.05400000140070915,-0.07884854078292847,0.0007441477500833571,-0.24516060948371887,-0.0012080066371709108,0.00019967662228737026,-0.0029529982712119818,-0.019765520468354225,-0.0,0.40118542313575745,-0.007797307800501585,-0.08321831375360489,0.8270627856254578,0.5596777200698853,0.052230529487133026,0.55991131067276,-0.8284738063812256,0.011420657858252525,0.48038098216056824,-0.19466030597686768,-0.5004854202270508,0.5331583023071289,0.3233383297920227,0.34010177850723267,-0.3409736156463623,790.0
140,0.4695169925689697,-0.19475804269313812,-0.5071877241134644,0.5330314636230469,0.3238310217857361,0.3404938876628876,-0.33635595440864563,0.05400000140070915,0.04676179215312004,-8.643865294288844e-05,-0.1346462517976761,0.00011656052083708346,-0.0023489505983889103,0.0006808015750721097,0.011067813262343407,-0.0,0.4013620615005493,-0.007958588190376759,-0.08299119025468826,0.8270511627197266,0.559773862361908,0.051376987248659134,0.5600213408470154,-0.8284078240394592,0.010796643793582916,0.47353753447532654,-0.1952240765094757,-0.5083945989608765,0.533398449420929,0.32302916049957275,0.33899837732315063,-0.34269067645072937,790.0
141,0.46899735927581787,-0.19473311305046082,-0.5125528573989868,0.5330314636230469,0.3237658143043518,0.34023118019104004,-0.33691394329071045,0.05400000140070915,0.08033556491136551,-0.0033269545529037714,0.2334250509738922,0.001442808541469276,-0.003176733385771513,-0.006121722050011158,0.0330619178712368,-0.0,0.4014495313167572,-0.008111917413771152,-0.08282371610403061,0.827560544013977,0.5586687922477722,0.05506955459713936,0.5589391589164734,-0.8291246294975281,0.01180405355989933,0.46407267451286316,-0.19522100687026978,-0.5227906703948975,0.5333973169326782,0.32339969277381897,0.3378012180328369,-0.3435978591442108,790.0
142,0.47019195556640625,-0.19472160935401917,-0.5131760239601135,0.5330314636230469,0.3236545920372009,0.3400413691997528,-0.336446076631546,0.05400000140070915,-0.030190663412213326,-0.002484278054907918,0.17056672275066376,0.001084435498341918,-0.00010992313036695123,-0.012254776433110237,-0.04858016595244408,-0.0,0.4013422131538391,-0.007911653257906437,-0.08302689343690872,0.8276374936103821,0.5586953163146973,0.053626175969839096,0.5589233040809631,-0.8291317820549011,0.012049644254148006,0.46987998485565186,-0.19426345825195312,-0.5182528495788574,0.5329201817512512,0.3234484791755676,0.3388266861438751,-0.3424208164215088,790.0
143,0.47154954075813293,-0.19472160935401917,-0.5083401203155518,0.5330487489700317,0.3235338032245636,0.33977675437927246,-0.3367202877998352,0.05400000140070915,-0.03988434746861458,0.004214583430439234,-0.21947810053825378,-0.002144918544217944,0.00021069093781989068,-0.0016523099038749933,-0.025544168427586555,-0.0,0.40122249722480774,-0.00773077504709363,-0.08321022242307663,0.8277969360351562,0.5583066344261169,0.055189475417137146,0.5586148500442505,-0.8293526768684387,0.011115403845906258,0.48031386733055115,-0.19486257433891296,-0.5042353868484497,0.5334154367446899,0.3229066729545593,0.33901482820510864,-0.3426026403903961,790.0
144,0.47143831849098206,-0.19472160935401917,-0.507573127746582,0.5331196784973145,0.323487788438797,0.3394220173358917,-0.3381008803844452,0.05400000140070915,0.03040892630815506,-0.0009286279673688114,-0.20444364845752716,0.0016488215187564492,-0.0032988975290209055,2.7151148970006034e-05,-0.016230467706918716,-0.0,0.40123578906059265,-0.007805455010384321,-0.08315588533878326,0.8263918161392212,0.5609414577484131,0.04920569434762001,0.5610708594322205,-0.8276742100715637,0.012445993721485138,0.47722285985946655,-0.19478952884674072,-0.5066354274749756,0.5331639647483826,0.3225356936454773,0.33857232332229614,-0.34418216347694397,790.0
145,0.47113728523254395,-0.19472160935401917,-0.513605535030365,0.5331771969795227,0.32343602180480957,0.33919575810432434,-0.33945462107658386,0.05400000140070915,0.052968885749578476,-0.00017067573207896203,0.2053695023059845,-0.0005385321564972401,-0.004906238056719303,-0.003028478007763624,-0.022939417511224747,-0.0,0.4010794758796692,-0.007608158513903618,-0.08339830487966537,0.8262056708335876,0.5610841512680054,0.050683148205280304,0.5612753629684448,-0.8275461196899414,0.011722386814653873,0.46716803312301636,-0.1951509267091751,-0.5222584009170532,0.5330674052238464,0.32308804988861084,0.33785733580589294,-0.3456916809082031,790.0
146,0.47222065925598145,-0.19472160935401917,-0.5151088237762451,0.5331906080245972,0.3232864439487457,0.3390423655509949,-0.3406798839569092,0.05400000140070915,-0.006974074989557266,-0.0024374257773160934,0.17277060449123383,-0.0009490312077105045,0.0006277261418290436,-0.006590391509234905,0.007893916219472885,-0.0,0.40112540125846863,-0.007677554152905941,-0.08336305618286133,0.8266840577125549,0.5604528188705444,0.0498601496219635,0.5606305599212646,-0.8279839158058167,0.011664234101772308,0.47097301483154297,-0.19542503356933594,-0.5209686756134033,0.5330219268798828,0.3232055902481079,0.33795854449272156,-0.3468412756919861,790.0
147,0.47349193692207336,-0.19472160935401917,-0.5110341906547546,0.533200204372406,0.3231407105922699,0.3388908803462982,-0.3411228060722351,0.05400000140070915,-0.03807346150279045,-0.003930986393243074,-0.21930967271327972,-0.0010581130627542734,0.0013522572116926312,-0.004136044066399336,0.009372462518513203,-0.0,0.40123435854911804,-0.007782174739986658,-0.08316686749458313,0.8269340991973877,0.5599018931388855,0.05186428874731064,0.5600855350494385,-0.8283436298370361,0.012288046069443226,0.48233217000961304,-0.19494690001010895,-0.5066501498222351,0.533302903175354,0.3225668668746948,0.33832165598869324,-0.3470526933670044,790.0
148,0.4734037220478058,-0.1947733759880066,-0.5106775164604187,0.5332021117210388,0.3231023848056793,0.33869144320487976,-0.34071630239486694,0.05299999937415123,0.021398665383458138,0.0011290416587144136,-0.1529867947101593,0.0013131522573530674,-0.0036867531016469,0.0002139607531717047,-0.0559188574552536,-0.0,0.4009215533733368,-0.007296184543520212,-0.08365379273891449,0.827417254447937,0.5588692426681519,0.05518903583288193,0.5593692660331726,-0.8288857936859131,0.00737437279894948,0.4783378839492798,-0.19504064321517944,-0.5098845362663269,0.5328919291496277,0.3223726153373718,0.3385768234729767,-0.34657564759254456,790.0
149,0.4730087220668793,-0.194865420460701,-0.5150628089904785,0.5332021117210388,0.32308512926101685,0.33849969506263733,-0.34145262837409973,0.05299999937415123,0.07060130685567856,0.00011302289203740656,0.1992747187614441,-0.001970374258235097,0.027146579697728157,0.0018942566821351647,-0.020135000348091125,-0.0,0.4013385474681854,-0.007981810718774796,-0.08304792642593384,0.8257290124893188,0.5619688630104065,0.048606596887111664,0.5620746612548828,-0.8269880414009094,0.012759707868099213,0.46812328696250916,-0.19485610723495483,-0.5241937637329102,0.5335873961448669,0.32258710265159607,0.3367595970630646,-0.3476288318634033,790.0
150,0.4740019738674164,-0.19494019448757172,-0.5157895088195801,0.5332021117210388,0.32338616251945496,0.3384038209915161,-0.34295782446861267,0.05299999937415123,0.0008465209393762052,0.0013567475834861398,0.12244952470064163,0.0037426212802529335,0.03910592943429947,-0.010293228551745415,-0.003650026861578226,-0.0,0.4011920988559723,-0.007773763034492731,-0.08325555175542831,0.8260461688041687,0.5611984729766846,0.05199985206127167,0.5614273548126221,-0.827446460723877,0.011476041749119759,0.4732086658477783,-0.19518956542015076,-0.5207545161247253,0.5331817865371704,0.323091059923172,0.337369829416275,-0.3489610552787781,790.0
151,0.47523874044418335,-0.19496512413024902,-0.5125547647476196,0.5332021117210388,0.32457882165908813,0.33834245800971985,-0.34366920590400696,0.05299999937415123,-0.05743437632918358,-0.0013621477410197258,-0.22403737902641296,-0.0003350936167407781,-0.020680511370301247,-0.0035363994538784027,0.027602646499872208,-0.0,0.40115413069725037,-0.007673155982047319,-0.08328554034233093,0.8266058564186096,0.5604987740516663,0.05063405632972717,0.5606970191001892,-0.8279406428337097,0.011538960039615631,0.4845923185348511,-0.1954035460948944,-0.507487416267395,0.5331618785858154,0.3237839341163635,0.3379276394844055,-0.34951186180114746,790.0
152,0.47370094060897827,-0.19508017599582672,-0.5200079679489136,0.5332021117210388,0.324137806892395,0.3376215100288391,-0.3468560576438904,0.05299999937415123,0.03125724941492081,-0.0017452077008783817,0.030409418046474457,-0.00015707517741248012,0.005875956267118454,0.004684420768171549,-0.004632807336747646,-0.0,0.4014846980571747,-0.008123272098600864,-0.08278729766607285,0.8270652294158936,0.5596344470977783,0.05265345796942711,0.5598610639572144,-0.8285034894943237,0.011727120727300644,0.4765150547027588,-0.1954636573791504,-0.5208260416984558,0.5335426926612854,0.32401230931282043,0.3371482789516449,-0.3528822958469391,790.0
153,0.473779559135437,-0.19514919817447662,-0.5200233459472656,0.5332021117210388,0.3236967921257019,0.337550550699234,-0.3480161428451538,0.05299999937415123,0.14228956401348114,-0.0011418305803090334,0.20528094470500946,0.002265395363792777,0.003946785349398851,-0.002893454162403941,-0.023817161098122597,-0.0,0.401323527097702,-0.007887986488640308,-0.08304829150438309,0.826923131942749,0.5597806572914124,0.053327154368162155,0.560039758682251,-0.8283878564834595,0.011357013136148453,0.46842503547668457,-0.1954333782196045,-0.5290443897247314,0.5333489179611206,0.32324516773223877,0.3363890051841736,-0.3543160557746887,790.0
